; generated by PrusaSlicer 2.5.2+MacOS-x64 on 2023-06-23 at 19:16:38 UTC


;
;
; 

; external perimeters extrusion width = 0.60mm
; perimeters extrusion width = 0.50mm
; infill extrusion width = 0.50mm
; solid infill extrusion width = 0.50mm
; top infill extrusion width = 0.45mm
; first layer extrusion width = 0.42mm

M73 P0 R58
M73 Q0 S58
M201 X1000 Y1000 Z200 E5000 ; sets maximum accelerations, mm/sec^2
M203 X200 Y200 Z12 E120 ; sets maximum feedrates, mm / sec
M204 P1250 R1250 T1250 ; sets acceleration (P, T) and retract acceleration (R), mm/sec^2
M205 X8.00 Y8.00 Z0.40 E4.50 ; sets the jerk limits, mm/sec
M205 S0 T0 ; sets the minimum extruding and travel feed rate, mm/sec
M107
;TYPE:Custom
M862.3 P "MK3S" ; printer model check
M862.1 P0.4 ; nozzle diameter check
M115 U3.12.2 ; tell printer latest fw version
G90 ; use absolute coordinates
M83 ; extruder relative mode
M104 S215 ; set extruder temp
M140 S60 ; set bed temp
M190 S60 ; wait for bed temp
M109 S215 ; wait for extruder temp
G28 W ; home all without mesh bed level
G80 ; mesh bed leveling

G1 Z0.2 F720
G1 Y-3 F1000 ; go outside print area
G92 E0
G1 X60 E9 F1000 ; intro line
G1 X100 E12.5 F1000 ; intro line

G92 E0
M221 S95

; Don't change E values below. Excessive value can damage the printer.

M907 E538 ; set extruder motor current
G21 ; set units to millimeters
G90 ; use absolute coordinates
M83 ; use relative distances for extrusion
M900 K0.05 ; Filament gcode LA 1.5
M900 K30 ; Filament gcode LA 1.0
M107
;LAYER_CHANGE
;Z:0.2
;HEIGHT:0.2
;BEFORE_LAYER_CHANGE
G92 E0.0
;0.2


G1 E-.8 F2100
G1 Z.4 F720
;AFTER_LAYER_CHANGE
;0.2
G1 X123.276 Y82.083 F10800
G1 Z.2 F720
G1 E.8 F2100
M204 S800
;TYPE:Skirt/Brim
;WIDTH:0.42
G1 F1200
G1 X124.342 Y81.069 E.04612
G1 X125.637 Y80.746 E.04186
G1 X129.363 Y80.746 E.11681
G1 X130.78 Y81.139 E.04612
G1 X131.793 Y82.205 E.04612
G1 X132.117 Y83.5 E.04186
G1 X132.117 Y126.5 E1.34823
G1 X131.724 Y127.917 E.04612
G1 X130.658 Y128.931 E.04612
G1 X129.363 Y129.254 E.04186
G1 X125.637 Y129.254 E.11681
G1 X124.22 Y128.861 E.04612
G1 X123.207 Y127.795 E.04612
G1 X122.883 Y126.5 E.04186
G1 X122.883 Y83.5 E1.34823
G1 X123.26 Y82.14 E.04424
M204 S1000
G1 X123.634 Y82.252 F10800
M204 S800
G1 F1200
G1 X123.652 Y82.193 E.00195
G1 X124.698 Y81.317 E.04278
G1 X125.637 Y81.123 E.03008
G1 X129.363 Y81.123 E.11681
G1 X130.67 Y81.515 E.04278
G1 X131.546 Y82.56 E.04278
G1 X131.74 Y83.5 E.03008
G1 X131.74 Y126.5 E1.34823
G1 X131.348 Y127.807 E.04278
G1 X130.302 Y128.683 E.04278
G1 X129.363 Y128.877 E.03008
G1 X125.637 Y128.877 E.11681
G1 X124.33 Y128.485 E.04278
G1 X123.454 Y127.44 E.04278
G1 X123.26 Y126.5 E.03008
G1 X123.26 Y83.5 E1.34823
G1 X123.617 Y82.31 E.03895
M204 S1000
; printing object battery_door.stl id:0 copy 0
;WIPE_START
G1 F8640
G1 X123.652 Y82.193 E-.0282
G1 X124.698 Y81.317 E-.31505
G1 X125.637 Y81.123 E-.22155
G1 X126.483 Y81.123 E-.1952
;WIPE_END
G1 E-.04 F2100
G1 Z.6 F720
G1 X127.144 Y83.91 F10800
G1 Z.2 F720
G1 E.8 F2100
M204 S800
;TYPE:External perimeter
;WIDTH:0.419999
G1 F1200
G1 X127.856 Y83.91 E.02231
G1 X127.856 Y126.09 E1.32252
G1 X127.144 Y126.09 E.02231
G1 X127.144 Y83.97 E1.32064
M204 S1000
G1 X127.492 Y84.108 F10800
;WIPE_START
G1 F8640
G1 X127.856 Y83.91 E-.16492
G1 X127.856 Y86.487 E-.59508
;WIPE_END
G1 E-.04 F2100
G1 Z.6 F720
G1 X127.5 Y125.734 F10800
G1 Z.2 F720
G1 E.8 F2100
M204 S800
;TYPE:Perimeter
;WIDTH:0.377544
G1 F1200
G1 X127.5 Y84.266 E1.15382
M204 S1000
; stop printing object battery_door.stl id:0 copy 0
M106 S84.15
;LAYER_CHANGE
;Z:0.5
;HEIGHT:0.3
;BEFORE_LAYER_CHANGE
G92 E0.0
;0.5


;WIPE_START
G1 F8640
G1 X127.5 Y87.557 E-.76
;WIPE_END
G1 E-.04 F2100
G1 Z.6 F720
;AFTER_LAYER_CHANGE
;0.5
G1 X132.117 Y87.557 F10800
G1 Z.5 F720
G1 E.8 F2100
;TYPE:Skirt/Brim
;WIDTH:0.42
G1 F2700
G1 X132.117 Y126.5 E1.7273
G1 X131.724 Y127.917 E.06524
G1 X130.658 Y128.931 E.06524
G1 X129.363 Y129.254 E.05921
G1 X125.637 Y129.254 E.16524
G1 X124.22 Y128.861 E.06524
G1 X123.207 Y127.795 E.06524
G1 X122.883 Y126.5 E.05921
G1 X122.883 Y83.5 E1.90726
G1 X123.276 Y82.083 E.06524
G1 X124.342 Y81.069 E.06524
G1 X125.637 Y80.746 E.05921
G1 X129.363 Y80.746 E.16524
G1 X130.78 Y81.139 E.06524
G1 X131.793 Y82.205 E.06524
G1 X132.117 Y83.5 E.05921
G1 X132.117 Y87.497 E.1773
G1 X131.74 Y87.497 F10800
G1 F2700
G1 X131.74 Y126.5 E1.72996
G1 X131.348 Y127.807 E.06052
G1 X130.302 Y128.683 E.06052
G1 X129.363 Y128.877 E.04256
G1 X125.637 Y128.877 E.16524
G1 X124.33 Y128.485 E.06052
G1 X123.454 Y127.44 E.06052
G1 X123.26 Y126.5 E.04256
G1 X123.26 Y83.5 E1.90726
G1 X123.652 Y82.193 E.06052
G1 X124.698 Y81.317 E.06052
G1 X125.637 Y81.123 E.04256
G1 X129.363 Y81.123 E.16524
G1 X130.67 Y81.515 E.06052
G1 X131.546 Y82.56 E.06052
G1 X131.74 Y83.5 E.04256
G1 X131.74 Y87.437 E.17464
; printing object battery_door.stl id:0 copy 0
;WIPE_START
G1 F8640
G1 X131.74 Y90.729 E-.76
;WIPE_END
G1 E-.04 F2100
G1 Z.9 F720
G1 X126.882 Y84.286 F10800
G1 Z.5 F720
G1 E.8 F2100
M204 S800
;TYPE:Perimeter
;WIDTH:0.5
G1 F3000
G1 X128.118 Y84.286 E.06718
G1 X128.118 Y125.714 E2.25094
G1 X126.882 Y125.714 E.06718
M73 P0 R57
G1 X126.882 Y84.346 E2.24768
M204 S1000
G1 X126.534 Y83.8 F10800
M204 S800
;TYPE:External perimeter
;WIDTH:0.6
G1 F2100
G1 X128.466 Y83.8 E.12905
M204 S1000
;TYPE:Overhang perimeter
G1 F1500
G1 X128.604 Y83.8 E.00922
G1 X128.604 Y126.2 E2.83255
G1 X128.466 Y126.2 E.00922
M204 S800
;TYPE:External perimeter
M73 P1 R57
M73 Q1 S58
G1 F2100
G1 X126.534 Y126.2 E.12905
M204 S1000
;TYPE:Overhang perimeter
G1 F1500
G1 X126.396 Y126.2 E.00922
G1 X126.396 Y83.8 E2.83255
G1 X126.474 Y83.8 E.00521
;WIPE_START
G1 F8640
G1 X128.466 Y83.8 E-.45989
;WIPE_END
G1 E-.34011 F2100
G1 Z.9 F720
G1 X127.078 Y125.481 F10800
G1 Z.5 F720
G1 E.8 F2100
;TYPE:Solid infill
;WIDTH:0.500794
G1 F4800
G1 X127.726 Y124.832 E.04992
G1 X127.726 Y124.215 E.03359
G1 X127.274 Y124.667 E.03483
G1 X127.274 Y124.05 E.03359
G1 X127.726 Y123.598 E.03483
G1 X127.726 Y122.981 E.03359
G1 X127.274 Y123.433 E.03483
G1 X127.274 Y122.816 E.03359
G1 X127.726 Y122.363 E.03483
G1 X127.726 Y121.746 E.03359
G1 X127.274 Y122.199 E.03483
G1 X127.274 Y121.581 E.03359
G1 X127.726 Y121.129 E.03483
G1 X127.726 Y120.512 E.03359
G1 X127.274 Y120.964 E.03483
G1 X127.274 Y120.347 E.03359
G1 X127.726 Y119.895 E.03483
G1 X127.726 Y119.277 E.03359
G1 X127.274 Y119.73 E.03483
G1 X127.274 Y119.113 E.03359
G1 X127.726 Y118.66 E.03483
G1 X127.726 Y118.043 E.03359
G1 X127.274 Y118.496 E.03483
G1 X127.274 Y117.878 E.03359
G1 X127.726 Y117.426 E.03483
G1 X127.726 Y116.809 E.03359
G1 X127.274 Y117.261 E.03483
G1 X127.274 Y116.644 E.03359
G1 X127.726 Y116.192 E.03483
G1 X127.726 Y115.574 E.03359
G1 X127.274 Y116.027 E.03483
G1 X127.274 Y115.41 E.03359
G1 X127.726 Y114.957 E.03483
G1 X127.726 Y114.34 E.03359
G1 X127.274 Y114.792 E.03483
G1 X127.274 Y114.175 E.03359
G1 X127.726 Y113.723 E.03483
G1 X127.726 Y113.106 E.03359
G1 X127.274 Y113.558 E.03483
G1 X127.274 Y112.941 E.03359
G1 X127.726 Y112.488 E.03483
G1 X127.726 Y111.871 E.03359
G1 X127.274 Y112.324 E.03483
G1 X127.274 Y111.707 E.03359
G1 X127.726 Y111.254 E.03483
G1 X127.726 Y110.637 E.03359
G1 X127.274 Y111.089 E.03483
G1 X127.274 Y110.472 E.03359
G1 X127.726 Y110.02 E.03483
G1 X127.726 Y109.403 E.03359
G1 X127.274 Y109.855 E.03483
G1 X127.274 Y109.238 E.03359
G1 X127.726 Y108.785 E.03483
G1 X127.726 Y108.168 E.03359
G1 X127.274 Y108.621 E.03483
G1 X127.274 Y108.003 E.03359
G1 X127.726 Y107.551 E.03483
G1 X127.726 Y106.934 E.03359
G1 X127.274 Y107.386 E.03483
G1 X127.274 Y106.769 E.03359
G1 X127.726 Y106.317 E.03483
G1 X127.726 Y105.699 E.03359
G1 X127.274 Y106.152 E.03483
G1 X127.274 Y105.535 E.03359
G1 X127.726 Y105.082 E.03483
G1 X127.726 Y104.465 E.03359
G1 X127.274 Y104.918 E.03483
G1 X127.274 Y104.3 E.03359
G1 X127.726 Y103.848 E.03483
G1 X127.726 Y103.231 E.03359
G1 X127.274 Y103.683 E.03483
G1 X127.274 Y103.066 E.03359
G1 X127.726 Y102.614 E.03483
G1 X127.726 Y101.996 E.03359
G1 X127.274 Y102.449 E.03483
G1 X127.274 Y101.832 E.03359
G1 X127.726 Y101.379 E.03483
G1 X127.726 Y100.762 E.03359
G1 X127.274 Y101.214 E.03483
G1 X127.274 Y100.597 E.03359
G1 X127.726 Y100.145 E.03483
G1 X127.726 Y99.528 E.03359
G1 X127.274 Y99.98 E.03483
G1 X127.274 Y99.363 E.03359
G1 X127.726 Y98.91 E.03483
G1 X127.726 Y98.293 E.03359
G1 X127.274 Y98.746 E.03483
G1 X127.274 Y98.129 E.03359
G1 X127.726 Y97.676 E.03483
G1 X127.726 Y97.059 E.03359
G1 X127.274 Y97.511 E.03483
G1 X127.274 Y96.894 E.03359
G1 X127.726 Y96.442 E.03483
G1 X127.726 Y95.825 E.03359
G1 X127.274 Y96.277 E.03483
G1 X127.274 Y95.66 E.03359
G1 X127.726 Y95.207 E.03483
G1 X127.726 Y94.59 E.03359
G1 X127.274 Y95.043 E.03483
G1 X127.274 Y94.425 E.03359
G1 X127.726 Y93.973 E.03483
G1 X127.726 Y93.356 E.03359
G1 X127.274 Y93.808 E.03483
G1 X127.274 Y93.191 E.03359
G1 X127.726 Y92.739 E.03483
G1 X127.726 Y92.122 E.03359
G1 X127.274 Y92.574 E.03483
G1 X127.274 Y91.957 E.03359
G1 X127.726 Y91.504 E.03483
G1 X127.726 Y90.887 E.03359
G1 X127.274 Y91.34 E.03483
G1 X127.274 Y90.722 E.03359
G1 X127.726 Y90.27 E.03483
G1 X127.726 Y89.653 E.03359
G1 X127.274 Y90.105 E.03483
G1 X127.274 Y89.488 E.03359
G1 X127.726 Y89.036 E.03483
G1 X127.726 Y88.418 E.03359
G1 X127.274 Y88.871 E.03483
G1 X127.274 Y88.254 E.03359
G1 X127.726 Y87.801 E.03483
G1 X127.726 Y87.184 E.03359
G1 X127.274 Y87.636 E.03483
G1 X127.274 Y87.019 E.03359
G1 X127.726 Y86.567 E.03483
G1 X127.726 Y85.95 E.03359
G1 X127.274 Y86.402 E.03483
G1 X127.274 Y85.785 E.03359
G1 X127.726 Y85.333 E.03483
G1 X127.726 Y84.715 E.03359
G1 X127.078 Y85.364 E.04992
; stop printing object battery_door.stl id:0 copy 0
M106 S170.85
;LAYER_CHANGE
;Z:0.8
;HEIGHT:0.3
;BEFORE_LAYER_CHANGE
G92 E0.0
;0.8


;WIPE_START
G1 F8640
G1 X127.726 Y84.715 E-.21175
G1 X127.726 Y85.333 E-.14251
G1 X127.274 Y85.785 E-.14774
G1 X127.274 Y86.402 E-.14251
G1 X127.627 Y86.048 E-.11549
;WIPE_END
G1 E-.04 F2100
G1 Z.9 F720
;AFTER_LAYER_CHANGE
;0.8
G1 X132.117 Y86.048 F10800
G1 Z.8 F720
G1 E.8 F2100
;TYPE:Skirt/Brim
;WIDTH:0.42
G1 F2700
G1 X132.117 Y126.5 E1.79422
G1 X131.724 Y127.917 E.06524
G1 X130.658 Y128.931 E.06524
G1 X129.363 Y129.254 E.05921
G1 X125.637 Y129.254 E.16524
G1 X124.22 Y128.861 E.06524
G1 X123.207 Y127.795 E.06524
G1 X122.883 Y126.5 E.05921
G1 X122.883 Y83.5 E1.90726
G1 X123.276 Y82.083 E.06524
G1 X124.342 Y81.069 E.06524
G1 X125.637 Y80.746 E.05921
G1 X129.363 Y80.746 E.16524
G1 X130.78 Y81.139 E.06524
G1 X131.793 Y82.205 E.06524
G1 X132.117 Y83.5 E.05921
G1 X132.117 Y85.988 E.11037
G1 X131.74 Y85.988 F10800
G1 F2700
G1 X131.74 Y126.5 E1.79688
G1 X131.348 Y127.807 E.06052
G1 X130.302 Y128.683 E.06052
G1 X129.363 Y128.877 E.04256
G1 X125.637 Y128.877 E.16524
G1 X124.33 Y128.485 E.06052
G1 X123.454 Y127.44 E.06052
G1 X123.26 Y126.5 E.04256
G1 X123.26 Y83.5 E1.90726
G1 X123.652 Y82.193 E.06052
G1 X124.698 Y81.317 E.06052
G1 X125.637 Y81.123 E.04256
G1 X129.363 Y81.123 E.16524
G1 X130.67 Y81.515 E.06052
G1 X131.546 Y82.56 E.06052
G1 X131.74 Y83.5 E.04256
G1 X131.74 Y85.928 E.10771
; printing object battery_door.stl id:0 copy 0
;WIPE_START
G1 F8640
G1 X131.74 Y89.22 E-.76
;WIPE_END
G1 E-.04 F2100
G1 Z1.2 F720
G1 X126.423 Y84.286 F10800
G1 Z.8 F720
G1 E.8 F2100
M204 S800
;TYPE:Perimeter
;WIDTH:0.5
G1 F3000
G1 X128.577 Y84.286 E.11704
G1 X128.577 Y125.714 E2.25094
G1 X126.423 Y125.714 E.11704
G1 X126.423 Y84.346 E2.24768
M204 S1000
G1 X125.937 Y83.8 F10800
M204 S800
;TYPE:External perimeter
;WIDTH:0.6
G1 F2100
G1 X129.063 Y83.8 E.20879
G1 X129.063 Y126.2 E2.83255
G1 X125.937 Y126.2 E.20879
G1 X125.937 Y83.86 E2.82854
M204 S1000
G1 X126.289 Y83.991 F10800
;WIPE_START
G1 F8640
G1 X129.063 Y83.8 E-.72179
G1 X129.063 Y83.965 E-.03821
;WIPE_END
G1 E-.04 F2100
G1 Z1.2 F720
G1 X127.492 Y84.482 F10800
G1 Z.8 F720
G1 E.8 F2100
;TYPE:Solid infill
;WIDTH:0.503872
G1 F4800
G1 X128.185 Y85.174 E.05371
G1 X128.185 Y85.796 E.03407
G1 X127.067 Y84.678 E.08669
G1 X126.815 Y84.678 E.0138
G1 X126.815 Y85.047 E.02027
G1 X128.185 Y86.417 E.10621
G1 X128.185 Y87.039 E.03407
G1 X126.815 Y85.669 E.10621
G1 X126.815 Y86.291 E.03407
G1 X128.185 Y87.661 E.10621
G1 X128.185 Y88.282 E.03407
G1 X126.815 Y86.912 E.10621
G1 X126.815 Y87.534 E.03407
G1 X128.185 Y88.904 E.10621
G1 X128.185 Y89.525 E.03407
G1 X126.815 Y88.155 E.10621
G1 X126.815 Y88.777 E.03407
G1 X128.185 Y90.147 E.10621
G1 X128.185 Y90.768 E.03407
G1 X126.815 Y89.398 E.10621
G1 X126.815 Y90.02 E.03407
G1 X128.185 Y91.39 E.10621
G1 X128.185 Y92.011 E.03407
G1 X126.815 Y90.641 E.10621
G1 X126.815 Y91.263 E.03407
G1 X128.185 Y92.633 E.10621
G1 X128.185 Y93.254 E.03407
G1 X126.815 Y91.884 E.10621
G1 X126.815 Y92.506 E.03407
G1 X128.185 Y93.876 E.10621
G1 X128.185 Y94.497 E.03407
G1 X126.815 Y93.127 E.10621
G1 X126.815 Y93.749 E.03407
G1 X128.185 Y95.119 E.10621
G1 X128.185 Y95.741 E.03407
G1 X126.815 Y94.37 E.10621
G1 X126.815 Y94.992 E.03407
G1 X128.185 Y96.362 E.10621
G1 X128.185 Y96.984 E.03407
G1 X126.815 Y95.614 E.10621
G1 X126.815 Y96.235 E.03407
G1 X128.185 Y97.605 E.10621
G1 X128.185 Y98.227 E.03407
G1 X126.815 Y96.857 E.10621
G1 X126.815 Y97.478 E.03407
G1 X128.185 Y98.848 E.10621
G1 X128.185 Y99.47 E.03407
G1 X126.815 Y98.1 E.10621
G1 X126.815 Y98.721 E.03407
G1 X128.185 Y100.091 E.10621
G1 X128.185 Y100.713 E.03407
G1 X126.815 Y99.343 E.10621
G1 X126.815 Y99.964 E.03407
G1 X128.185 Y101.334 E.10621
G1 X128.185 Y101.956 E.03407
G1 X126.815 Y100.586 E.10621
G1 X126.815 Y101.207 E.03407
G1 X128.185 Y102.577 E.10621
G1 X128.185 Y103.199 E.03407
G1 X126.815 Y101.829 E.10621
G1 X126.815 Y102.45 E.03407
G1 X128.185 Y103.82 E.10621
G1 X128.185 Y104.442 E.03407
G1 X126.815 Y103.072 E.10621
G1 X126.815 Y103.693 E.03407
G1 X128.185 Y105.064 E.10621
G1 X128.185 Y105.685 E.03407
G1 X126.815 Y104.315 E.10621
G1 X126.815 Y104.937 E.03407
G1 X128.185 Y106.307 E.10621
G1 X128.185 Y106.928 E.03407
G1 X126.815 Y105.558 E.10621
G1 X126.815 Y106.18 E.03407
G1 X128.185 Y107.55 E.10621
G1 X128.185 Y108.171 E.03407
G1 X126.815 Y106.801 E.10621
G1 X126.815 Y107.423 E.03407
G1 X128.185 Y108.793 E.10621
G1 X128.185 Y109.414 E.03407
G1 X126.815 Y108.044 E.10621
G1 X126.815 Y108.666 E.03407
G1 X128.185 Y110.036 E.10621
G1 X128.185 Y110.657 E.03407
G1 X126.815 Y109.287 E.10621
G1 X126.815 Y109.909 E.03407
G1 X128.185 Y111.279 E.10621
G1 X128.185 Y111.9 E.03407
G1 X126.815 Y110.53 E.10621
G1 X126.815 Y111.152 E.03407
G1 X128.185 Y112.522 E.10621
G1 X128.185 Y113.143 E.03407
G1 X126.815 Y111.773 E.10621
G1 X126.815 Y112.395 E.03407
G1 X128.185 Y113.765 E.10621
G1 X128.185 Y114.387 E.03407
G1 X126.815 Y113.017 E.10621
G1 X126.815 Y113.638 E.03407
G1 X128.185 Y115.008 E.10621
G1 X128.185 Y115.63 E.03407
G1 X126.815 Y114.26 E.10621
G1 X126.815 Y114.881 E.03407
G1 X128.185 Y116.251 E.10621
G1 X128.185 Y116.873 E.03407
G1 X126.815 Y115.503 E.10621
G1 X126.815 Y116.124 E.03407
G1 X128.185 Y117.494 E.10621
G1 X128.185 Y118.116 E.03407
G1 X126.815 Y116.746 E.10621
G1 X126.815 Y117.367 E.03407
G1 X128.185 Y118.737 E.10621
G1 X128.185 Y119.359 E.03407
M73 Q1 S57
G1 X126.815 Y117.989 E.10621
G1 X126.815 Y118.61 E.03407
G1 X128.185 Y119.98 E.10621
G1 X128.185 Y120.602 E.03407
G1 X126.815 Y119.232 E.10621
G1 X126.815 Y119.853 E.03407
G1 X128.185 Y121.223 E.10621
G1 X128.185 Y121.845 E.03407
G1 X126.815 Y120.475 E.10621
G1 X126.815 Y121.096 E.03407
G1 X128.185 Y122.466 E.10621
G1 X128.185 Y123.088 E.03407
G1 X126.815 Y121.718 E.10621
G1 X126.815 Y122.34 E.03407
G1 X128.185 Y123.71 E.10621
G1 X128.185 Y124.331 E.03407
G1 X126.815 Y122.961 E.10621
G1 X126.815 Y123.583 E.03407
G1 X128.185 Y124.953 E.10621
G1 X128.185 Y125.322 E.02027
G1 X127.933 Y125.322 E.0138
G1 X126.815 Y124.204 E.08668
G1 X126.815 Y124.826 E.03407
G1 X127.508 Y125.518 E.0537
; stop printing object battery_door.stl id:0 copy 0
M106 S255
;LAYER_CHANGE
;Z:1.1
;HEIGHT:0.3
;BEFORE_LAYER_CHANGE
G92 E0.0
;1.1


;WIPE_START
G1 F8640
G1 X126.815 Y124.826 E-.2262
G1 X126.815 Y124.204 E-.14351
G1 X127.933 Y125.322 E-.36514
G1 X128.042 Y125.322 E-.02514
;WIPE_END
G1 E-.04 F2100
G1 Z1.2 F720
;AFTER_LAYER_CHANGE
;1.1
; printing object battery_door.stl id:0 copy 0
G1 X126.096 Y84.286 F10800
G1 Z1.1 F720
G1 E.8 F2100
M204 S800
