; generated by PrusaSlicer 2.5.2+MacOS-x64 on 2023-06-03 at 21:05:54 UTC


;
;
; 

; external perimeters extrusion width = 0.60mm
; perimeters extrusion width = 0.50mm
; infill extrusion width = 0.50mm
; solid infill extrusion width = 0.50mm
; top infill extrusion width = 0.45mm
; first layer extrusion width = 0.42mm

M73 P0 R227
M73 Q0 S232
M201 X1000 Y1000 Z200 E5000 ; sets maximum accelerations, mm/sec^2
M203 X200 Y200 Z12 E120 ; sets maximum feedrates, mm / sec
M204 P1250 R1250 T1250 ; sets acceleration (P, T) and retract acceleration (R), mm/sec^2
M205 X8.00 Y8.00 Z0.40 E4.50 ; sets the jerk limits, mm/sec
M205 S0 T0 ; sets the minimum extruding and travel feed rate, mm/sec
M107
;TYPE:Custom
M862.3 P "MK3S" ; printer model check
M862.1 P0.4 ; nozzle diameter check
M115 U3.12.2 ; tell printer latest fw version
G90 ; use absolute coordinates
M83 ; extruder relative mode
M104 S215 ; set extruder temp
M140 S60 ; set bed temp
M190 S60 ; wait for bed temp
M109 S215 ; wait for extruder temp
G28 W ; home all without mesh bed level
G80 ; mesh bed leveling

G1 Z0.2 F720
G1 Y-3 F1000 ; go outside print area
G92 E0
G1 X60 E9 F1000 ; intro line
G1 X100 E12.5 F1000 ; intro line

G92 E0
M221 S95

; Don't change E values below. Excessive value can damage the printer.

M907 E538 ; set extruder motor current
G21 ; set units to millimeters
G90 ; use absolute coordinates
M83 ; use relative distances for extrusion
M900 K0.05 ; Filament gcode LA 1.5
M900 K30 ; Filament gcode LA 1.0
M107
;LAYER_CHANGE
;Z:0.2
;HEIGHT:0.2
;BEFORE_LAYER_CHANGE
G92 E0.0
;0.2


G1 E-.8 F2100
G1 Z.4 F720
;AFTER_LAYER_CHANGE
;0.2
G1 X11 Y87.623 F10800
G1 Z.2 F720
G1 E.8 F2100
M204 S800
;TYPE:Skirt/Brim
;WIDTH:0.42
G1 F1200
G1 X239 Y87.623 E7.14878
G1 X240.307 Y88.015 E.04278
M73 Q0 S231
G1 X241.183 Y89.06 E.04278
G1 X241.377 Y90 E.03008
G1 X241.377 Y120 E.94063
G1 X240.985 Y121.307 E.04278
G1 X239.94 Y122.183 E.04278
G1 X239 Y122.377 E.03008
G1 X11 Y122.377 E7.14878
G1 X9.693 Y121.985 E.04278
G1 X8.817 Y120.94 E.04278
G1 X8.623 Y120 E.03008
G1 X8.623 Y90 E.94063
G1 X9.015 Y88.693 E.04278
G1 X10.06 Y87.817 E.04278
G1 X10.941 Y87.635 E.0282
M204 S1000
; printing object pac-p2.stl id:0 copy 0
;WIPE_START
G1 F8640
G1 X14.233 Y87.635 E-.76
;WIPE_END
G1 E-.04 F2100
G1 Z.6 F720
G1 X11.787 Y90.787 F10800
G1 Z.2 F720
G1 E.8 F2100
M204 S800
;TYPE:Perimeter
;WIDTH:0.419999
G1 F1200
G1 X238.213 Y90.787 E7.09941
G1 X238.213 Y119.213 E.89127
M73 P0 R226
G1 X11.787 Y119.213 E7.09941
G1 X11.787 Y90.847 E.88939
M204 S1000
G1 X11.41 Y90.41 F10800
M204 S800
;TYPE:External perimeter
G1 F1200
G1 X238.59 Y90.41 E7.12306
G1 X238.59 Y119.59 E.91492
G1 X11.41 Y119.59 E7.12306
G1 X11.41 Y90.47 E.91304
M204 S1000
M73 Q0 S230
G1 X11.81 Y90.427 F10800
;WIPE_START
G1 F8640
G1 X14.701 Y90.469 E-.76
;WIPE_END
G1 E-.04 F2100
G1 Z.6 F720
G1 X237.28 Y90.957 F10800
G1 Z.2 F720
G1 E.8 F2100
M204 S800
;TYPE:Solid infill
;WIDTH:0.42061
G1 F1200
G1 X237.874 Y91.551 E.02638
G1 X237.874 Y92.085 E.01677
G1 X236.915 Y91.126 E.04256
G1 X236.381 Y91.126 E.01677
G1 X237.874 Y92.619 E.06629
G1 X237.874 Y93.153 E.01677
G1 X235.847 Y91.126 E.09001
G1 X235.313 Y91.126 E.01677
G1 X237.874 Y93.687 E.11373
G1 X237.874 Y94.221 E.01677
G1 X234.779 Y91.126 E.13745
G1 X234.245 Y91.126 E.01677
G1 X237.874 Y94.755 E.16118
G1 X237.874 Y95.29 E.01677
G1 X233.71 Y91.126 E.1849
G1 X233.176 Y91.126 E.01677
G1 X237.874 Y95.824 E.20862
G1 X237.874 Y96.358 E.01677
G1 X232.642 Y91.126 E.23234
G1 X232.108 Y91.126 E.01677
G1 X237.874 Y96.892 E.25607
G1 X237.874 Y97.426 E.01677
G1 X231.574 Y91.126 E.27979
G1 X231.04 Y91.126 E.01677
G1 X237.874 Y97.96 E.30351
G1 X237.874 Y98.494 E.01677
G1 X230.506 Y91.126 E.32724
G1 X229.971 Y91.126 E.01677
G1 X237.874 Y99.029 E.35096
G1 X237.874 Y99.563 E.01677
G1 X229.437 Y91.126 E.37468
G1 X228.903 Y91.126 E.01677
G1 X237.874 Y100.097 E.3984
G1 X237.874 Y100.631 E.01677
G1 X228.369 Y91.126 E.42213
G1 X227.835 Y91.126 E.01677
G1 X237.874 Y101.165 E.44585
G1 X237.874 Y101.699 E.01677
G1 X227.301 Y91.126 E.46957
G1 X226.767 Y91.126 E.01677
M73 P0 R225
G1 X237.874 Y102.233 E.49329
G1 X237.874 Y102.767 E.01677
G1 X226.233 Y91.126 E.51702
G1 X225.698 Y91.126 E.01677
G1 X237.874 Y103.302 E.54074
G1 X237.874 Y103.836 E.01677
G1 X225.164 Y91.126 E.56446
G1 X224.63 Y91.126 E.01677
G1 X237.874 Y104.37 E.58819
G1 X237.874 Y104.904 E.01677
G1 X224.096 Y91.126 E.61191
G1 X223.562 Y91.126 E.01677
G1 X237.874 Y105.438 E.63563
G1 X237.874 Y105.972 E.01677
G1 X223.028 Y91.126 E.65935
G1 X222.494 Y91.126 E.01677
G1 X237.874 Y106.506 E.68308
G1 X237.874 Y107.041 E.01677
G1 X221.959 Y91.126 E.7068
G1 X221.425 Y91.126 E.01677
G1 X237.874 Y107.575 E.73052
G1 X237.874 Y108.109 E.01677
G1 X220.891 Y91.126 E.75425
G1 X220.357 Y91.126 E.01677
G1 X237.874 Y108.643 E.77797
G1 X237.874 Y109.177 E.01677
G1 X219.823 Y91.126 E.80169
G1 X219.289 Y91.126 E.01677
G1 X237.874 Y109.711 E.82541
G1 X237.874 Y110.245 E.01677
G1 X218.755 Y91.126 E.84914
G1 X218.221 Y91.126 E.01677
G1 X237.874 Y110.779 E.87286
G1 X237.874 Y111.314 E.01677
G1 X217.686 Y91.126 E.89658
G1 X217.152 Y91.126 E.01677
G1 X237.874 Y111.848 E.9203
G1 X237.874 Y112.382 E.01677
G1 X216.618 Y91.126 E.94403
G1 X216.084 Y91.126 E.01677
G1 X237.874 Y112.916 E.96775
G1 X237.874 Y113.45 E.01677
G1 X215.55 Y91.126 E.99147
G1 X215.016 Y91.126 E.01677
G1 X237.874 Y113.984 E1.0152
G1 X237.874 Y114.518 E.01677
G1 X214.482 Y91.126 E1.03892
G1 X213.947 Y91.126 E.01677
G1 X237.874 Y115.053 E1.06264
G1 X237.874 Y115.587 E.01677
G1 X213.413 Y91.126 E1.08636
G1 X212.879 Y91.126 E.01677
G1 X237.874 Y116.121 E1.11009
G1 X237.874 Y116.655 E.01677
G1 X212.345 Y91.126 E1.13381
G1 X211.811 Y91.126 E.01677
G1 X237.874 Y117.189 E1.15753
G1 X237.874 Y117.723 E.01677
M73 Q0 S229
G1 X211.277 Y91.126 E1.18125
G1 X210.743 Y91.126 E.01677
M73 P1 R225
G1 X237.874 Y118.257 E1.20498
G1 X237.874 Y118.791 E.01677
M73 Q1 S229
G1 X210.209 Y91.126 E1.2287
G1 X209.674 Y91.126 E.01677
G1 X237.422 Y118.874 E1.23235
G1 X236.887 Y118.874 E.01677
G1 X209.14 Y91.126 E1.23235
G1 X208.606 Y91.126 E.01677
G1 X236.353 Y118.874 E1.23235
G1 X235.819 Y118.874 E.01677
G1 X208.072 Y91.126 E1.23235
G1 X207.538 Y91.126 E.01677
G1 X235.285 Y118.874 E1.23235
G1 X234.751 Y118.874 E.01677
G1 X207.004 Y91.126 E1.23235
G1 X206.47 Y91.126 E.01677
G1 X234.217 Y118.874 E1.23235
G1 X233.683 Y118.874 E.01677
G1 X205.935 Y91.126 E1.23235
G1 X205.401 Y91.126 E.01677
M73 P1 R224
G1 X233.148 Y118.874 E1.23235
G1 X232.614 Y118.874 E.01677
G1 X204.867 Y91.126 E1.23235
G1 X204.333 Y91.126 E.01677
G1 X232.08 Y118.874 E1.23235
G1 X231.546 Y118.874 E.01677
G1 X203.799 Y91.126 E1.23235
G1 X203.265 Y91.126 E.01677
G1 X231.012 Y118.874 E1.23235
G1 X230.478 Y118.874 E.01677
G1 X202.731 Y91.126 E1.23235
G1 X202.197 Y91.126 E.01677
G1 X229.944 Y118.874 E1.23235
G1 X229.409 Y118.874 E.01677
G1 X201.662 Y91.126 E1.23235
G1 X201.128 Y91.126 E.01677
G1 X228.875 Y118.874 E1.23235
G1 X228.341 Y118.874 E.01677
G1 X200.594 Y91.126 E1.23235
G1 X200.06 Y91.126 E.01677
G1 X227.807 Y118.874 E1.23235
G1 X227.273 Y118.874 E.01677
G1 X199.526 Y91.126 E1.23235
G1 X198.992 Y91.126 E.01677
G1 X226.739 Y118.874 E1.23235
G1 X226.205 Y118.874 E.01677
G1 X198.458 Y91.126 E1.23235
G1 X197.923 Y91.126 E.01677
G1 X225.671 Y118.874 E1.23235
G1 X225.136 Y118.874 E.01677
G1 X197.389 Y91.126 E1.23235
G1 X196.855 Y91.126 E.01677
G1 X224.602 Y118.874 E1.23235
G1 X224.068 Y118.874 E.01677
G1 X196.321 Y91.126 E1.23235
G1 X195.787 Y91.126 E.01677
G1 X223.534 Y118.874 E1.23235
G1 X223 Y118.874 E.01677
M73 Q1 S228
G1 X195.253 Y91.126 E1.23235
G1 X194.719 Y91.126 E.01677
G1 X222.466 Y118.874 E1.23235
G1 X221.932 Y118.874 E.01677
G1 X194.184 Y91.126 E1.23235
G1 X193.65 Y91.126 E.01677
G1 X221.397 Y118.874 E1.23235
G1 X220.863 Y118.874 E.01677
G1 X193.116 Y91.126 E1.23235
G1 X192.582 Y91.126 E.01677
G1 X220.329 Y118.874 E1.23235
G1 X219.795 Y118.874 E.01677
G1 X192.048 Y91.126 E1.23235
G1 X191.514 Y91.126 E.01677
G1 X219.261 Y118.874 E1.23235
G1 X218.727 Y118.874 E.01677
G1 X190.98 Y91.126 E1.23235
G1 X190.446 Y91.126 E.01677
G1 X218.193 Y118.874 E1.23235
G1 X217.659 Y118.874 E.01677
G1 X189.911 Y91.126 E1.23235
G1 X189.377 Y91.126 E.01677
M73 P1 R223
G1 X217.124 Y118.874 E1.23235
G1 X216.59 Y118.874 E.01677
G1 X188.843 Y91.126 E1.23235
G1 X188.309 Y91.126 E.01677
G1 X216.056 Y118.874 E1.23235
G1 X215.522 Y118.874 E.01677
G1 X187.775 Y91.126 E1.23235
G1 X187.241 Y91.126 E.01677
G1 X214.988 Y118.874 E1.23235
G1 X214.454 Y118.874 E.01677
G1 X186.707 Y91.126 E1.23235
G1 X186.172 Y91.126 E.01677
G1 X213.92 Y118.874 E1.23235
G1 X213.385 Y118.874 E.01677
G1 X185.638 Y91.126 E1.23235
G1 X185.104 Y91.126 E.01677
G1 X212.851 Y118.874 E1.23235
G1 X212.317 Y118.874 E.01677
G1 X184.57 Y91.126 E1.23235
G1 X184.036 Y91.126 E.01677
G1 X211.783 Y118.874 E1.23235
G1 X211.249 Y118.874 E.01677
G1 X183.502 Y91.126 E1.23235
G1 X182.968 Y91.126 E.01677
G1 X210.715 Y118.874 E1.23235
G1 X210.181 Y118.874 E.01677
G1 X182.434 Y91.126 E1.23235
G1 X181.899 Y91.126 E.01677
G1 X209.647 Y118.874 E1.23235
G1 X209.112 Y118.874 E.01677
G1 X181.365 Y91.126 E1.23235
G1 X180.831 Y91.126 E.01677
G1 X208.578 Y118.874 E1.23235
G1 X208.044 Y118.874 E.01677
G1 X180.297 Y91.126 E1.23235
G1 X179.763 Y91.126 E.01677
G1 X207.51 Y118.874 E1.23235
G1 X206.976 Y118.874 E.01677
M73 Q1 S227
G1 X179.229 Y91.126 E1.23235
G1 X178.695 Y91.126 E.01677
G1 X206.442 Y118.874 E1.23235
G1 X205.908 Y118.874 E.01677
G1 X178.16 Y91.126 E1.23235
G1 X177.626 Y91.126 E.01677
G1 X205.373 Y118.874 E1.23235
G1 X204.839 Y118.874 E.01677
G1 X177.092 Y91.126 E1.23235
G1 X176.558 Y91.126 E.01677
G1 X204.305 Y118.874 E1.23235
G1 X203.771 Y118.874 E.01677
G1 X176.024 Y91.126 E1.23235
G1 X175.49 Y91.126 E.01677
G1 X203.237 Y118.874 E1.23235
G1 X202.703 Y118.874 E.01677
G1 X174.956 Y91.126 E1.23235
G1 X174.422 Y91.126 E.01677
G1 X202.169 Y118.874 E1.23235
G1 X201.635 Y118.874 E.01677
M73 P2 R222
G1 X173.887 Y91.126 E1.23235
G1 X173.353 Y91.126 E.01677
G1 X201.1 Y118.874 E1.23235
G1 X200.566 Y118.874 E.01677
M73 Q2 S227
G1 X172.819 Y91.126 E1.23235
G1 X172.285 Y91.126 E.01677
G1 X200.032 Y118.874 E1.23235
G1 X199.498 Y118.874 E.01677
G1 X171.751 Y91.126 E1.23235
G1 X171.217 Y91.126 E.01677
G1 X198.964 Y118.874 E1.23235
G1 X198.43 Y118.874 E.01677
G1 X170.683 Y91.126 E1.23235
G1 X170.148 Y91.126 E.01677
G1 X197.896 Y118.874 E1.23235
G1 X197.361 Y118.874 E.01677
G1 X169.614 Y91.126 E1.23235
G1 X169.08 Y91.126 E.01677
G1 X196.827 Y118.874 E1.23235
G1 X196.293 Y118.874 E.01677
G1 X168.546 Y91.126 E1.23235
G1 X168.012 Y91.126 E.01677
G1 X195.759 Y118.874 E1.23235
G1 X195.225 Y118.874 E.01677
G1 X167.478 Y91.126 E1.23235
G1 X166.944 Y91.126 E.01677
G1 X194.691 Y118.874 E1.23235
G1 X194.157 Y118.874 E.01677
G1 X166.41 Y91.126 E1.23235
G1 X165.875 Y91.126 E.01677
G1 X193.622 Y118.874 E1.23235
G1 X193.088 Y118.874 E.01677
G1 X165.341 Y91.126 E1.23235
G1 X164.807 Y91.126 E.01677
G1 X192.554 Y118.874 E1.23235
G1 X192.02 Y118.874 E.01677
G1 X164.273 Y91.126 E1.23235
G1 X163.739 Y91.126 E.01677
G1 X191.486 Y118.874 E1.23235
G1 X190.952 Y118.874 E.01677
M73 Q2 S226
G1 X163.205 Y91.126 E1.23235
G1 X162.671 Y91.126 E.01677
G1 X190.418 Y118.874 E1.23235
G1 X189.884 Y118.874 E.01677
G1 X162.136 Y91.126 E1.23235
G1 X161.602 Y91.126 E.01677
G1 X189.349 Y118.874 E1.23235
G1 X188.815 Y118.874 E.01677
G1 X161.068 Y91.126 E1.23235
G1 X160.534 Y91.126 E.01677
G1 X188.281 Y118.874 E1.23235
G1 X187.747 Y118.874 E.01677
G1 X160 Y91.126 E1.23235
G1 X159.466 Y91.126 E.01677
G1 X187.213 Y118.874 E1.23235
G1 X186.679 Y118.874 E.01677
G1 X158.932 Y91.126 E1.23235
G1 X158.397 Y91.126 E.01677
G1 X186.145 Y118.874 E1.23235
G1 X185.61 Y118.874 E.01677
M73 P2 R221
G1 X157.863 Y91.126 E1.23235
G1 X157.329 Y91.126 E.01677
G1 X185.076 Y118.874 E1.23235
G1 X184.542 Y118.874 E.01677
G1 X156.795 Y91.126 E1.23235
G1 X156.261 Y91.126 E.01677
G1 X184.008 Y118.874 E1.23235
G1 X183.474 Y118.874 E.01677
G1 X155.727 Y91.126 E1.23235
G1 X155.193 Y91.126 E.01677
G1 X182.94 Y118.874 E1.23235
G1 X182.406 Y118.874 E.01677
G1 X154.659 Y91.126 E1.23235
G1 X154.124 Y91.126 E.01677
G1 X181.872 Y118.874 E1.23235
G1 X181.337 Y118.874 E.01677
G1 X153.59 Y91.126 E1.23235
G1 X153.056 Y91.126 E.01677
G1 X180.803 Y118.874 E1.23235
G1 X180.269 Y118.874 E.01677
G1 X152.522 Y91.126 E1.23235
G1 X151.988 Y91.126 E.01677
G1 X179.735 Y118.874 E1.23235
G1 X179.201 Y118.874 E.01677
G1 X151.454 Y91.126 E1.23235
G1 X150.92 Y91.126 E.01677
G1 X178.667 Y118.874 E1.23235
G1 X178.133 Y118.874 E.01677
G1 X150.385 Y91.126 E1.23235
G1 X149.851 Y91.126 E.01677
G1 X177.598 Y118.874 E1.23235
G1 X177.064 Y118.874 E.01677
G1 X149.317 Y91.126 E1.23235
G1 X148.783 Y91.126 E.01677
G1 X176.53 Y118.874 E1.23235
G1 X175.996 Y118.874 E.01677
G1 X148.249 Y91.126 E1.23235
G1 X147.715 Y91.126 E.01677
G1 X175.462 Y118.874 E1.23235
G1 X174.928 Y118.874 E.01677
M73 Q2 S225
G1 X147.181 Y91.126 E1.23235
G1 X146.647 Y91.126 E.01677
G1 X174.394 Y118.874 E1.23235
G1 X173.86 Y118.874 E.01677
G1 X146.112 Y91.126 E1.23235
G1 X145.578 Y91.126 E.01677
G1 X173.325 Y118.874 E1.23235
G1 X172.791 Y118.874 E.01677
G1 X145.044 Y91.126 E1.23235
G1 X144.51 Y91.126 E.01677
G1 X172.257 Y118.874 E1.23235
G1 X171.723 Y118.874 E.01677
G1 X143.976 Y91.126 E1.23235
G1 X143.442 Y91.126 E.01677
G1 X171.189 Y118.874 E1.23235
G1 X170.655 Y118.874 E.01677
G1 X142.908 Y91.126 E1.23235
G1 X142.373 Y91.126 E.01677
G1 X170.121 Y118.874 E1.23235
G1 X169.586 Y118.874 E.01677
M73 P2 R220
G1 X141.839 Y91.126 E1.23235
G1 X141.305 Y91.126 E.01677
G1 X169.052 Y118.874 E1.23235
G1 X168.518 Y118.874 E.01677
G1 X140.771 Y91.126 E1.23235
G1 X140.237 Y91.126 E.01677
G1 X167.984 Y118.874 E1.23235
G1 X167.45 Y118.874 E.01677
G1 X139.703 Y91.126 E1.23235
G1 X139.169 Y91.126 E.01677
G1 X166.916 Y118.874 E1.23235
G1 X166.382 Y118.874 E.01677
G1 X138.635 Y91.126 E1.23235
G1 X138.1 Y91.126 E.01677
G1 X165.848 Y118.874 E1.23235
G1 X165.313 Y118.874 E.01677
M73 P3 R220
G1 X137.566 Y91.126 E1.23235
G1 X137.032 Y91.126 E.01677
G1 X164.779 Y118.874 E1.23235
G1 X164.245 Y118.874 E.01677
G1 X136.498 Y91.126 E1.23235
G1 X135.964 Y91.126 E.01677
M73 Q3 S225
G1 X163.711 Y118.874 E1.23235
G1 X163.177 Y118.874 E.01677
G1 X135.43 Y91.126 E1.23235
G1 X134.896 Y91.126 E.01677
G1 X162.643 Y118.874 E1.23235
G1 X162.109 Y118.874 E.01677
G1 X134.361 Y91.126 E1.23235
G1 X133.827 Y91.126 E.01677
G1 X161.574 Y118.874 E1.23235
G1 X161.04 Y118.874 E.01677
G1 X133.293 Y91.126 E1.23235
G1 X132.759 Y91.126 E.01677
G1 X160.506 Y118.874 E1.23235
G1 X159.972 Y118.874 E.01677
G1 X132.225 Y91.126 E1.23235
G1 X131.691 Y91.126 E.01677
G1 X159.438 Y118.874 E1.23235
G1 X158.904 Y118.874 E.01677
M73 Q3 S224
G1 X131.157 Y91.126 E1.23235
G1 X130.623 Y91.126 E.01677
G1 X158.37 Y118.874 E1.23235
G1 X157.835 Y118.874 E.01677
G1 X130.088 Y91.126 E1.23235
G1 X129.554 Y91.126 E.01677
G1 X157.301 Y118.874 E1.23235
G1 X156.767 Y118.874 E.01677
G1 X129.02 Y91.126 E1.23235
G1 X128.486 Y91.126 E.01677
G1 X156.233 Y118.874 E1.23235
G1 X155.699 Y118.874 E.01677
G1 X127.952 Y91.126 E1.23235
G1 X127.418 Y91.126 E.01677
G1 X155.165 Y118.874 E1.23235
G1 X154.631 Y118.874 E.01677
G1 X126.884 Y91.126 E1.23235
G1 X126.349 Y91.126 E.01677
G1 X154.097 Y118.874 E1.23235
G1 X153.562 Y118.874 E.01677
M73 P3 R219
G1 X125.815 Y91.126 E1.23235
G1 X125.281 Y91.126 E.01677
G1 X153.028 Y118.874 E1.23235
G1 X152.494 Y118.874 E.01677
G1 X124.747 Y91.126 E1.23235
G1 X124.213 Y91.126 E.01677
G1 X151.96 Y118.874 E1.23235
G1 X151.426 Y118.874 E.01677
G1 X123.679 Y91.126 E1.23235
G1 X123.145 Y91.126 E.01677
G1 X150.892 Y118.874 E1.23235
G1 X150.358 Y118.874 E.01677
G1 X122.61 Y91.126 E1.23235
G1 X122.076 Y91.126 E.01677
G1 X149.823 Y118.874 E1.23235
G1 X149.289 Y118.874 E.01677
G1 X121.542 Y91.126 E1.23235
G1 X121.008 Y91.126 E.01677
G1 X148.755 Y118.874 E1.23235
G1 X148.221 Y118.874 E.01677
G1 X120.474 Y91.126 E1.23235
G1 X119.94 Y91.126 E.01677
G1 X147.687 Y118.874 E1.23235
G1 X147.153 Y118.874 E.01677
G1 X119.406 Y91.126 E1.23235
G1 X118.872 Y91.126 E.01677
G1 X146.619 Y118.874 E1.23235
G1 X146.085 Y118.874 E.01677
G1 X118.337 Y91.126 E1.23235
