; generated by PrusaSlicer 2.5.2+linux-x64-GTK3 on 2023-06-01 at 14:06:44 UTC


;
;

;
;

;
;
; 

; external perimeters extrusion width = 0.45mm
; perimeters extrusion width = 0.45mm
; infill extrusion width = 0.45mm
; solid infill extrusion width = 0.45mm
; top infill extrusion width = 0.45mm
; first layer extrusion width = 0.50mm

; external perimeters extrusion width = 0.45mm
; perimeters extrusion width = 0.45mm
; infill extrusion width = 0.45mm
; solid infill extrusion width = 0.45mm
; top infill extrusion width = 0.45mm
; first layer extrusion width = 0.50mm

; external perimeters extrusion width = 0.45mm
; perimeters extrusion width = 0.45mm
; infill extrusion width = 0.45mm
; solid infill extrusion width = 0.45mm
; top infill extrusion width = 0.45mm
; first layer extrusion width = 0.50mm

; external perimeters extrusion width = 0.45mm
; perimeters extrusion width = 0.45mm
; infill extrusion width = 0.45mm
; solid infill extrusion width = 0.45mm
; top infill extrusion width = 0.45mm
; first layer extrusion width = 0.50mm

; external perimeters extrusion width = 0.45mm
; perimeters extrusion width = 0.45mm
; infill extrusion width = 0.45mm
; solid infill extrusion width = 0.45mm
; top infill extrusion width = 0.45mm
; first layer extrusion width = 0.50mm

; external perimeters extrusion width = 0.45mm
; perimeters extrusion width = 0.45mm
; infill extrusion width = 0.45mm
; solid infill extrusion width = 0.45mm
; top infill extrusion width = 0.45mm
; first layer extrusion width = 0.50mm

M73 P0 R87
M201 X2500 Y2500 Z200 E2500 ; sets maximum accelerations, mm/sec^2
M203 X200 Y200 Z40 E100 ; sets maximum feedrates, mm / sec
M204 P2000 R1200 T2000 ; sets acceleration (P, T) and retract acceleration (R), mm/sec^2
M205 X8.00 Y8.00 Z2.00 E10.00 ; sets the jerk limits, mm/sec
M205 S0 T0 ; sets the minimum extruding and travel feed rate, mm/sec
M107
;TYPE:Custom
M17 ; enable steppers
M862.3 P "MK4" ; printer model check
M862.1 P0.4 ; nozzle diameter check
M330 SYSLOG
M331 loadcell_raw
M331 loadcell_threshold
M331 loadcell_hysteresis
M331 loadcell_scale
M331 probe_z
M331 probe_z_raw
M331 probe_z_diff
M331 home_diff
M331 fsensor_raw
M331 temp_hbr
M331 temp_bed
M331 temp_noz
M331 temp_brd
M331 ttemp_bed
M331 ttemp_noz
M331 pos_z
M331 fan_speed
M331 fan_hbr_speed
M331 tmc_sg_x
M331 tmc_sg_y
M331 tmc_sg_z
M331 tmc_sg_e

M555 X110.41 Y88.5893 W32 H31.7511

G90 ; use absolute coordinates
M92 E380 ; set steps/mm for extruder
M83 ; extruder relative mode

M140 S60 ; set bed temp

M104 S170 ; set extruder temp for bed leveling
M109 R170 ; wait for temp


M84 E ; turn off E motor

G28 ; home all without mesh bed level

; probe to clean the nozzle
G1 X142.41 Y88.5893 Z5 F4800

M302 S160 ; lower cold extrusion limit to 160C


G1 E-2 F2400 ; retraction


M84 E ; turn off E motor

G29 P9 X110.41 Y88.5893 W32 H4

M106 S100

G0 X110.41 Y88.5893 Z40 F10000

M190 S60 ; wait for bed temp

M107

;
; MBL
;
M84 E ; turn off E motor
G29 ; mesh bed leveling
M104 S215 ; set extruder temp
G0 X110.41 Y88.0893 Z30 F4800

M109 S215 ; wait for extruder temp
G1 Z0.2 F720
G92 E0

M569 S0 E ; set spreadcycle mode for extruder

;
; Extrude purge line
;

G1 E2 F2400 ; deretraction


; move right
G1 X142.41 E4.8 F1000
; move down
G1 Y86.5893 E0.225 F1000
; move left
G1 X110.41 E9.6 F800

G92 E0
M221 S100 ; set flow to 100%
G21 ; set units to millimeters
G90 ; use absolute coordinates
M83 ; use relative distances for extrusion
M900 K0.06 ; Filament gcode

M142 S36 ; set heatbreak target temp
M107
;LAYER_CHANGE
;Z:0.2
;HEIGHT:0.2
;BEFORE_LAYER_CHANGE
G92 E0.0
;0.2


G1 E-.8 F2100
G1 Z.2 F720
;AFTER_LAYER_CHANGE
;0.2
; printing object test2.stl id:1 copy 0
G1 Z.4
G1 X125.681 Y105.221 F12000
G1 Z.2 F720
G1 E.8 F1500
M204 P600
;TYPE:Perimeter
;WIDTH:0.499999
G1 F1200
G1 X125 Y105.716 E.03198
G1 X124.319 Y105.221 E.03198
G1 X124.579 Y104.421 E.03198
G1 X125.421 Y104.421 E.03198
G1 X125.662 Y105.164 E.02969
M204 P1000
G1 X126.218 Y105.396 F12000
M204 P600
;TYPE:External perimeter
G1 F1200
G1 X125 Y106.281 E.05722
G1 X123.782 Y105.396 E.05722
G1 X124.247 Y103.964 E.05722
G1 X125.753 Y103.964 E.05722
G1 X126.199 Y105.339 E.05494
M204 P1000
G1 X125.827 Y105.479 F12000
; stop printing object test2.stl id:1 copy 0
; printing object test2.stl id:5 copy 0
G1 E-.64 F2100
;WIPE_START
G1 F9600
G1 X125.624 Y105.79 E-.152
;WIPE_END
G1 E-.008 F2100
G1 Z.4 F720
G1 X111.477 Y109.394 F12000
G1 Z.2 F720
G1 E.8 F1500
M204 P600
;TYPE:Perimeter
G1 F1200
G1 X116.642 Y93.496 E.6353
G1 X133.358 Y93.496 E.6353
G1 X138.523 Y109.394 E.6353
G1 X125 Y119.219 E.6353
G1 X111.525 Y109.429 E.63302
M204 P1000
G1 X110.939 Y109.569 F12000
M204 P600
;TYPE:External perimeter
G1 F1200
G1 X116.31 Y93.039 E.66055
G1 X133.69 Y93.039 E.66055
G1 X139.061 Y109.569 E.66055
G1 X125 Y119.784 E.66055
G1 X110.988 Y109.604 E.65826
M204 P1000
G1 X111.207 Y109.271 F12000
G1 E-.64 F2100
;WIPE_START
G1 F9600
G1 X111.212 Y108.907 E-.152
;WIPE_END
G1 E-.008 F2100
G1 Z.4 F720
G1 X132.269 Y93.702 F12000
G1 Z.2 F720
G1 E.8 F1500
M204 P600
;TYPE:Solid infill
;WIDTH:0.504132
G1 F1200
G1 X133.34 Y94.773 E.05806
G1 X133.654 Y95.739 E.03896
G1 X131.823 Y93.908 E.09931
G1 X131.171 Y93.908 E.02501
G1 X133.968 Y96.705 E.15171
G1 X134.282 Y97.671 E.03896
G1 X130.518 Y93.908 E.20411
G1 X129.866 Y93.908 E.02501
G1 X134.596 Y98.637 E.25651
G1 X134.91 Y99.604 E.03896
G1 X129.214 Y93.908 E.30891
G1 X128.562 Y93.908 E.02501
G1 X135.224 Y100.57 E.36131
G1 X135.538 Y101.536 E.03896
G1 X127.909 Y93.908 E.41371
G1 X127.257 Y93.908 E.02501
G1 X135.852 Y102.502 E.46612
G1 X136.165 Y103.468 E.03896
G1 X126.605 Y93.908 E.51852
G1 X125.953 Y93.908 E.02501
G1 X136.479 Y104.434 E.57092
G1 X136.793 Y105.401 E.03896
G1 X125.3 Y93.908 E.62332
G1 X124.648 Y93.908 E.02501
G1 X137.107 Y106.367 E.67572
G1 X137.421 Y107.333 E.03896
G1 X123.996 Y93.908 E.72812
G1 X123.344 Y93.908 E.02501
G1 X137.735 Y108.299 E.78052
G1 X138.04 Y109.237 E.03781
G1 X138.029 Y109.245 E.00053
G1 X122.691 Y93.908 E.83181
G1 X122.039 Y93.908 E.02501
G1 X137.651 Y109.519 E.8467
G1 X137.273 Y109.794 E.01791
G1 X121.387 Y93.908 E.86159
G1 X120.735 Y93.908 E.02501
G1 X136.895 Y110.068 E.87647
G1 X136.517 Y110.343 E.01791
G1 X120.082 Y93.908 E.89136
G1 X119.43 Y93.908 E.02501
G1 X136.14 Y110.617 E.90624
G1 X135.762 Y110.892 E.01791
G1 X118.778 Y93.908 E.92113
G1 X118.126 Y93.908 E.02501
G1 X135.384 Y111.166 E.93602
G1 X135.006 Y111.441 E.01791
G1 X117.473 Y93.908 E.9509
G1 X116.941 Y93.908 E.02042
G1 X116.912 Y93.998 E.00365
G1 X134.629 Y111.715 E.96088
G1 X134.251 Y111.99 E.01791
G1 X116.752 Y94.491 E.94907
G1 X116.592 Y94.983 E.01985
G1 X133.873 Y112.264 E.93725
G1 X133.495 Y112.539 E.01791
G1 X116.432 Y95.475 E.92544
G1 X116.272 Y95.967 E.01985
G1 X133.117 Y112.813 E.91363
G1 X132.74 Y113.088 E.01791
G1 X116.112 Y96.46 E.90181
G1 X115.952 Y96.952 E.01985
G1 X132.362 Y113.362 E.89
G1 X131.984 Y113.637 E.01791
G1 X115.792 Y97.444 E.87818
G1 X115.632 Y97.937 E.01985
G1 X131.606 Y113.911 E.86637
G1 X131.229 Y114.185 E.01791
G1 X115.472 Y98.429 E.85456
G1 X115.312 Y98.921 E.01985
M73 P0 R86
G1 X130.851 Y114.46 E.84274
G1 X130.473 Y114.734 E.01791
M73 P1 R86
G1 X115.152 Y99.413 E.83093
G1 X114.992 Y99.906 E.01985
G1 X130.095 Y115.009 E.81912
G1 X129.717 Y115.283 E.01791
G1 X114.832 Y100.398 E.8073
G1 X114.672 Y100.89 E.01985
G1 X129.34 Y115.558 E.79549
G1 X128.962 Y115.832 E.01791
G1 X114.512 Y101.383 E.78367
G1 X114.352 Y101.875 E.01985
G1 X128.584 Y116.107 E.77186
G1 X128.206 Y116.381 E.01791
G1 X114.192 Y102.367 E.76005
G1 X114.032 Y102.86 E.01985
G1 X127.829 Y116.656 E.74823
G1 X127.451 Y116.93 E.01791
G1 X113.872 Y103.352 E.73642
G1 X113.712 Y103.844 E.01985
G1 X127.073 Y117.205 E.72461
G1 X126.695 Y117.479 E.01791
G1 X113.552 Y104.336 E.71279
G1 X113.393 Y104.829 E.01985
G1 X126.317 Y117.754 E.70098
G1 X125.94 Y118.028 E.01791
G1 X113.233 Y105.321 E.68917
G1 X113.073 Y105.813 E.01985
G1 X125.562 Y118.303 E.67735
G1 X125.184 Y118.577 E.01791
G1 X112.913 Y106.306 E.66554
G1 X112.753 Y106.798 E.01985
G1 X123.777 Y117.822 E.59789
G1 X121.392 Y116.089 E.11306
G1 X112.593 Y107.29 E.47721
G1 X112.433 Y107.783 E.01985
G1 X119.006 Y114.356 E.35652
G1 X116.621 Y112.623 E.11306
G1 X112.273 Y108.275 E.23584
G1 X112.113 Y108.767 E.01985
G1 X115.166 Y111.82 E.16558
M204 P1000
; stop printing object test2.stl id:5 copy 0
; printing object test2.stl id:3 copy 0
G1 E-.64 F2100
;WIPE_START
G1 F9600
G1 X114.649 Y111.303 E-.152
;WIPE_END
G1 E-.008 F2100
G1 Z.4 F720
G1 X125 Y107.76 F12000
G1 Z.2 F720
G1 E.8 F1500
M204 P600
;TYPE:Perimeter
;WIDTH:0.499999
G1 F1200
G1 X122.375 Y105.853 E.12333
G1 X123.378 Y102.767 E.12333
G1 X126.622 Y102.767 E.12333
G1 X127.625 Y105.853 E.12333
G1 X125.049 Y107.725 E.12105
M204 P1000
G1 X125 Y108.325 F12000
M204 P600
;TYPE:External perimeter
G1 F1200
G1 X121.838 Y106.028 E.14857
G1 X123.045 Y102.31 E.14857
G1 X126.955 Y102.31 E.14857
G1 X128.162 Y106.028 E.14857
G1 X125.049 Y108.29 E.14629
M204 P1000
G1 X124.8 Y107.979 F12000
G1 E-.64 F2100
;WIPE_START
G1 F9600
G1 X124.451 Y107.869 E-.152
;WIPE_END
G1 E-.008 F2100
G1 Z.4 F720
G1 X126.94 Y104.41 F12000
G1 Z.2 F720
G1 E.8 F1500
M204 P600
;TYPE:Solid infill
;WIDTH:0.519032
G1 F1200
G1 X125.708 Y103.178 E.06898
G1 X125.035 Y103.178 E.02666
G1 X126.944 Y105.087 E.10689
G1 X127.142 Y105.696 E.02533
G1 X126.989 Y105.806 E.00744
G1 X124.361 Y103.178 E.14714
G1 X123.688 Y103.178 E.02666
G1 X126.6 Y106.09 E.163
G1 X126.21 Y106.373 E.01908
G1 X123.514 Y103.678 E.15091
G1 X123.349 Y104.186 E.02115
G1 X125.82 Y106.656 E.13832
G1 X125.43 Y106.94 E.01908
G1 X123.184 Y104.694 E.12573
G1 X123.019 Y105.202 E.02115
G1 X125.187 Y107.37 E.12138
M204 P1000
; stop printing object test2.stl id:3 copy 0
; printing object test2.stl id:0 copy 0
G1 E-.64 F2100
;WIPE_START
G1 F9600
G1 X124.67 Y106.853 E-.152
;WIPE_END
G1 E-.008 F2100
G1 Z.4 F720
G1 X125.681 Y105.221 F12000
G1 Z.2 F720
G1 E.8 F1500
M204 P600
;TYPE:Perimeter
;WIDTH:0.499999
G1 F1200
G1 X125 Y105.716 E.03198
G1 X124.319 Y105.221 E.03198
G1 X124.579 Y104.421 E.03198
G1 X125.421 Y104.421 E.03198
G1 X125.662 Y105.164 E.02969
M204 P1000
G1 X126.218 Y105.396 F12000
M204 P600
;TYPE:External perimeter
G1 F1200
G1 X125 Y106.281 E.05722
G1 X123.782 Y105.396 E.05722
G1 X124.247 Y103.964 E.05722
G1 X125.753 Y103.964 E.05722
G1 X126.199 Y105.339 E.05494
M204 P1000
G1 X125.827 Y105.479 F12000
; stop printing object test2.stl id:0 copy 0
; printing object test2.stl id:4 copy 0
G1 E-.64 F2100
;WIPE_START
G1 F9600
G1 X125.624 Y105.79 E-.152
;WIPE_END
G1 E-.008 F2100
G1 Z.4 F720
G1 X125 Y111.58 F12000
G1 Z.2 F720
G1 E.8 F1500
M204 P600
;TYPE:Perimeter
G1 F1200
G1 X118.742 Y107.033 E.29398
G1 X121.132 Y99.677 E.29398
G1 X128.868 Y99.677 E.29399
G1 X131.258 Y107.033 E.29398
G1 X125.049 Y111.545 E.2917
M204 P1000
G1 X125 Y112.145 F12000
M204 P600
;TYPE:External perimeter
G1 F1200
G1 X118.205 Y107.208 E.31923
G1 X120.8 Y99.22 E.31923
G1 X129.2 Y99.22 E.31923
G1 X131.795 Y107.208 E.31923
G1 X125.049 Y112.11 E.31695
M204 P1000
G1 X124.8 Y111.798 F12000
G1 E-.64 F2100
;WIPE_START
G1 F9600
G1 X124.454 Y111.684 E-.152
;WIPE_END
G1 E-.008 F2100
G1 Z.4 F720
G1 X129.168 Y101.267 F12000
G1 Z.2 F720
G1 E.8 F1500
M204 P600
;TYPE:Solid infill
;WIDTH:0.502039
G1 F1200
G1 X127.989 Y100.088 E.06364
G1 X127.34 Y100.088 E.02479
G1 X129.16 Y101.908 E.09827
G1 X129.473 Y102.87 E.03861
G1 X126.691 Y100.088 E.15019
G1 X126.041 Y100.088 E.02479
G1 X129.785 Y103.832 E.20212
G1 X130.098 Y104.794 E.03861
G1 X125.392 Y100.088 E.25404
G1 X124.743 Y100.088 E.02479
G1 X130.41 Y105.755 E.30597
G1 X130.723 Y106.717 E.03861
G1 X124.094 Y100.088 E.3579
G1 X123.444 Y100.088 E.02479
G1 X130.46 Y107.104 E.37879
G1 X130.084 Y107.377 E.01775
G1 X122.795 Y100.088 E.39354
G1 X122.146 Y100.088 E.02479
G1 X129.708 Y107.651 E.4083
G1 X129.332 Y107.924 E.01775
G1 X121.496 Y100.088 E.42305
G1 X121.431 Y100.088 E.00248
G1 X121.288 Y100.529 E.0177
G1 X128.956 Y108.197 E.41399
G1 X128.58 Y108.47 E.01775
G1 X121.129 Y101.019 E.40229
G1 X120.97 Y101.509 E.01967
G1 X128.204 Y108.744 E.39058
G1 X127.828 Y109.017 E.01775
G1 X120.81 Y101.999 E.37887
G1 X120.651 Y102.489 E.01967
G1 X127.452 Y109.29 E.36717
G1 X127.076 Y109.563 E.01775
G1 X120.492 Y102.979 E.35546
G1 X120.333 Y103.469 E.01967
G1 X126.7 Y109.837 E.34375
G1 X126.324 Y110.11 E.01775
G1 X120.173 Y103.959 E.33205
G1 X120.014 Y104.45 E.01967
G1 X125.948 Y110.383 E.32034
G1 X125.572 Y110.656 E.01775
G1 X119.855 Y104.94 E.30863
G1 X119.696 Y105.43 E.01967
G1 X125.195 Y110.929 E.29693
G1 X125 Y111.071 E.00922
G1 X123.86 Y110.243 E.0538
G1 X119.536 Y105.92 E.23341
G1 X119.377 Y106.41 E.01967
G1 X122.415 Y109.448 E.16401
M204 P1000
; stop printing object test2.stl id:4 copy 0
; printing object test2.stl id:2 copy 0
G1 E-.64 F2100
;WIPE_START
G1 F9600
G1 X121.898 Y108.93 E-.152
;WIPE_END
G1 E-.008 F2100
G1 Z.4 F720
G1 X125.681 Y105.221 F12000
G1 Z.2 F720
G1 E.8 F1500
M204 P600
;TYPE:Perimeter
;WIDTH:0.499999
G1 F1200
G1 X125 Y105.716 E.03198
G1 X124.319 Y105.221 E.03198
G1 X124.579 Y104.421 E.03198
G1 X125.421 Y104.421 E.03198
G1 X125.662 Y105.164 E.02969
M204 P1000
G1 X126.218 Y105.396 F12000
M204 P600
;TYPE:External perimeter
G1 F1200
G1 X125 Y106.281 E.05722
G1 X123.782 Y105.396 E.05722
G1 X124.247 Y103.964 E.05722
G1 X125.753 Y103.964 E.05722
G1 X126.199 Y105.339 E.05494
M204 P1000
G1 X125.827 Y105.479 F12000
; stop printing object test2.stl id:2 copy 0
M106 S84.15
;LAYER_CHANGE
;Z:0.4
;HEIGHT:0.2
;BEFORE_LAYER_CHANGE
G92 E0.0
;0.4


G1 E-.64 F2100
;WIPE_START
G1 F9600
G1 X125.624 Y105.79 E-.152
;WIPE_END
G1 E-.008 F2100
G1 Z.4 F720
;AFTER_LAYER_CHANGE
;0.4
M104 S210 ; set temperature
; printing object test2.stl id:1 copy 0
G1 X125.886 Y105.288 F12000
G1 E.8 F1500
M204 P900
;TYPE:Perimeter
;WIDTH:0.449999
G1 X125 Y105.932 E.03708
G1 X124.114 Y105.288 E.03708
G1 X124.452 Y104.246 E.03708
G1 X125.548 Y104.246 E.03708
G1 X125.868 Y105.231 E.03505
M204 P1000
G1 X126.365 Y105.443 F12000
M204 P700
;TYPE:External perimeter
G1 F1500
G1 X125 Y106.435 E.05711
G1 X123.635 Y105.443 E.05711
G1 X124.156 Y103.839 E.05711
G1 X125.844 Y103.839 E.05711
G1 X126.346 Y105.386 E.05508
M204 P1000
G1 X125.974 Y105.527 F12000
G1 X124.937 Y105.66
M204 P1500
;TYPE:Solid infill
;WIDTH:0.500512
G1 F5400
G1 X125.454 Y105.143 E.02781
G1 X125.295 Y104.655 E.01954
G1 X124.562 Y105.388 E.03944
M204 P1000
; stop printing object test2.stl id:1 copy 0
; printing object test2.stl id:5 copy 0
G1 E-.64 F2100
;WIPE_START
G1 F9600
G1 X125.08 Y104.87 E-.152
;WIPE_END
G1 E-.008 F2100
G1 Z.6 F720
G1 X111.036 Y109.537 F12000
G1 Z.4 F720
G1 E.8 F1500
M204 P900
;TYPE:Perimeter
;WIDTH:0.449999
G1 F2700
G1 X116.37 Y93.121 E.58425
G1 X133.63 Y93.121 E.58425
G1 X138.964 Y109.537 E.58425
G1 X125 Y119.683 E.58425
G1 X111.084 Y109.572 E.58222
M204 P1000
G1 X110.557 Y109.693 F12000
M204 P700
;TYPE:External perimeter
G1 F1500
G1 X116.074 Y92.714 E.60427
G1 X133.926 Y92.714 E.60427
G1 X139.443 Y109.693 E.60427
G1 X125 Y120.186 E.60427
G1 X110.606 Y109.728 E.60224
M204 P1000
G1 X110.825 Y109.395 F12000
G1 E-.64 F2100
;WIPE_START
G1 F9600
G1 X110.83 Y109.032 E-.152
;WIPE_END
G1 E-.008 F2100
G1 Z.6 F720
G1 X135.667 Y111.706 F12000
G1 Z.4 F720
G1 E.8 F1500
M204 P1500
;TYPE:Solid infill
;WIDTH:0.455137
G1 F5400
G1 X138.397 Y108.977 E.13233
G1 X138.254 Y108.537 E.01586
G1 X134.363 Y112.427 E.1886
G1 X132.231 Y113.976 E.09032
G1 X138.111 Y108.097 E.285
G1 X137.968 Y107.657 E.01586
G1 X130.099 Y115.525 E.38141
G1 X127.968 Y117.074 E.09032
G1 X137.825 Y107.217 E.47781
G1 X137.682 Y106.777 E.01586
G1 X125.836 Y118.623 E.57422
G1 X125 Y119.23 E.03541
G1 X124.795 Y119.081 E.0087
G1 X137.539 Y106.337 E.61776
G1 X137.396 Y105.897 E.01586
G1 X124.457 Y118.835 E.62719
G1 X124.119 Y118.59 E.01431
G1 X137.253 Y105.457 E.63663
G1 X137.11 Y105.017 E.01586
G1 X123.782 Y118.345 E.64607
G1 X123.444 Y118.099 E.01431
G1 X136.967 Y104.577 E.65551
G1 X136.824 Y104.137 E.01586
G1 X123.107 Y117.854 E.66494
G1 X122.769 Y117.609 E.01431
G1 X136.681 Y103.697 E.67438
G1 X136.538 Y103.257 E.01586
G1 X122.431 Y117.364 E.68382
G1 X122.094 Y117.118 E.01431
