; generated by PrusaSlicer 2.5.2+MacOS-x64 on 2023-06-13 at 15:24:22 UTC


;
;
; 

; external perimeters extrusion width = 0.60mm
; perimeters extrusion width = 0.50mm
; infill extrusion width = 0.50mm
; solid infill extrusion width = 0.50mm
; top infill extrusion width = 0.45mm
; first layer extrusion width = 0.42mm

M73 P0 R309
M73 Q0 S315
M201 X1000 Y1000 Z200 E5000 ; sets maximum accelerations, mm/sec^2
M203 X200 Y200 Z12 E120 ; sets maximum feedrates, mm / sec
M204 P1250 R1250 T1250 ; sets acceleration (P, T) and retract acceleration (R), mm/sec^2
M205 X8.00 Y8.00 Z0.40 E4.50 ; sets the jerk limits, mm/sec
M205 S0 T0 ; sets the minimum extruding and travel feed rate, mm/sec
M107
;TYPE:Custom
M862.3 P "MK3S" ; printer model check
M862.1 P0.4 ; nozzle diameter check
M115 U3.12.2 ; tell printer latest fw version
G90 ; use absolute coordinates
M83 ; extruder relative mode
M104 S215 ; set extruder temp
M140 S60 ; set bed temp
M190 S60 ; wait for bed temp
M109 S215 ; wait for extruder temp
G28 W ; home all without mesh bed level
G80 ; mesh bed leveling

G1 Z0.2 F720
G1 Y-3 F1000 ; go outside print area
G92 E0
G1 X60 E9 F1000 ; intro line
G1 X100 E12.5 F1000 ; intro line

G92 E0
M221 S95

; Don't change E values below. Excessive value can damage the printer.

M907 E538 ; set extruder motor current
G21 ; set units to millimeters
G90 ; use absolute coordinates
M83 ; use relative distances for extrusion
M900 K0.05 ; Filament gcode LA 1.5
M900 K30 ; Filament gcode LA 1.0
M107
;LAYER_CHANGE
;Z:0.2
;HEIGHT:0.2
;BEFORE_LAYER_CHANGE
G92 E0.0
;0.2


G1 E-.8 F2100
G1 Z.4 F720
;AFTER_LAYER_CHANGE
;0.2
G1 X57.515 Y38.193 F10800
G1 Z.2 F720
G1 E.8 F2100
M204 S800
;TYPE:Skirt/Brim
;WIDTH:0.42
G1 F1200
G1 X58.56 Y37.317 E.04278
G1 X59.5 Y37.123 E.03008
G1 X190.5 Y37.123 E4.10741
G1 X191.807 Y37.515 E.04278
G1 X192.683 Y38.56 E.04278
G1 X192.877 Y39.5 E.03008
G1 X192.877 Y170.5 E4.10741
G1 X192.485 Y171.807 E.04278
G1 X191.44 Y172.683 E.04278
G1 X190.5 Y172.877 E.03008
G1 X59.5 Y172.877 E4.10741
G1 X58.193 Y172.485 E.04278
M73 Q0 S314
G1 X57.317 Y171.44 E.04278
G1 X57.123 Y170.5 E.03008
G1 X57.123 Y39.5 E4.10741
G1 X57.497 Y38.25 E.0409
M204 S1000
; printing object two_filter_left_side.stl id:0 copy 0
;WIPE_START
G1 F8640
G1 X58.56 Y37.317 E-.32671
G1 X59.5 Y37.123 E-.22155
G1 X60.417 Y37.123 E-.21174
;WIPE_END
G1 E-.04 F2100
G1 Z.6 F720
G1 X60.287 Y40.287 F10800
G1 Z.2 F720
G1 E.8 F2100
M204 S800
;TYPE:Perimeter
;WIDTH:0.419999
G1 F1200
G1 X189.713 Y40.287 E4.05805
G1 X189.713 Y169.713 E4.05805
G1 X60.287 Y169.713 E4.05805
G1 X60.287 Y40.347 E4.05617
M204 S1000
M73 P0 R308
G1 X59.91 Y39.91 F10800
M204 S800
;TYPE:External perimeter
G1 F1200
G1 X190.09 Y39.91 E4.0817
G1 X190.09 Y170.09 E4.0817
G1 X59.91 Y170.09 E4.0817
G1 X59.91 Y39.97 E4.07981
M204 S1000
G1 X60.296 Y40.014 F10800
;WIPE_START
M73 Q0 S313
G1 F8640
G1 X63.201 Y39.968 E-.76
;WIPE_END
G1 E-.04 F2100
G1 Z.6 F720
G1 X70.088 Y54.616 F10800
G1 Z.2 F720
G1 E.8 F2100
M204 S800
;TYPE:Perimeter
G1 F1200
G1 X69.512 Y54.156 E.02312
G1 X69.112 Y53.662 E.01992
G1 X68.823 Y53.116 E.01939
G1 X68.641 Y52.525 E.01939
G1 X68.572 Y51.91 E.01939
G1 X68.621 Y51.294 E.01939
G1 X68.783 Y50.697 E.01939
G1 X69.055 Y50.142 E.01939
G1 X69.426 Y49.647 E.01939
G1 X69.883 Y49.231 E.01939
G1 X70.41 Y48.908 E.01939
G1 X70.988 Y48.689 E.01938
G1 X71.776 Y48.575 E.02496
G1 X72.419 Y48.62 E.0202
G1 X73.017 Y48.783 E.01943
G1 X73.572 Y49.055 E.01939
G1 X74.067 Y49.426 E.01938
G1 X74.591 Y50.039 E.02528
G1 X74.892 Y50.598 E.01992
G1 X75.074 Y51.189 E.01939
G1 X75.142 Y51.804 E.01939
G1 X75.094 Y52.42 E.01939
G1 X74.931 Y53.017 E.01939
G1 X74.659 Y53.572 E.01938
G1 X74.156 Y54.202 E.02528
G1 X73.662 Y54.602 E.01992
G1 X73.116 Y54.892 E.01939
G1 X72.525 Y55.074 E.01939
G1 X71.91 Y55.142 E.01939
G1 X71.294 Y55.094 E.01939
G1 X70.697 Y54.931 E.01939
G1 X70.135 Y54.654 E.01965
M204 S1000
G1 X70.24 Y54.263 F10800
M204 S800
;TYPE:External perimeter
G1 F1200
G1 X69.753 Y53.865 E.01973
G1 X69.41 Y53.431 E.01734
G1 X69.159 Y52.945 E.01717
G1 X69.003 Y52.42 E.01717
G1 X68.948 Y51.875 E.01717
G1 X68.996 Y51.329 E.01717
G1 X69.146 Y50.803 E.01717
G1 X69.391 Y50.313 E.01717
G1 X69.724 Y49.878 E.01717
G1 X70.133 Y49.514 E.01717
G1 X70.602 Y49.232 E.01717
G1 X71.116 Y49.044 E.01716
G1 X71.824 Y48.949 E.0224
G1 X72.384 Y48.996 E.01763
G1 X72.912 Y49.146 E.01718
G1 X73.401 Y49.391 E.01717
G1 X73.836 Y49.724 E.01716
G1 X74.301 Y50.279 E.0227
G1 X74.556 Y50.77 E.01734
G1 X74.712 Y51.295 E.01717
G1 X74.767 Y51.839 E.01717
G1 X74.718 Y52.385 E.01717
G1 X74.569 Y52.912 E.01717
G1 X74.323 Y53.401 E.01716
G1 X73.865 Y53.962 E.0227
G1 X73.431 Y54.304 E.01734
G1 X72.945 Y54.556 E.01717
G1 X72.42 Y54.712 E.01717
G1 X71.875 Y54.767 E.01717
G1 X71.329 Y54.718 E.01717
G1 X70.803 Y54.569 E.01717
G1 X70.287 Y54.301 E.01822
M204 S1000
G1 X69.882 Y54.44 F10800
;WIPE_START
G1 F8640
G1 X69.753 Y53.865 E-.15917
G1 X69.41 Y53.431 E-.1277
G1 X69.159 Y52.945 E-.12644
G1 X69.003 Y52.42 E-.12644
G1 X68.948 Y51.875 E-.12644
G1 X68.984 Y51.47 E-.0938
;WIPE_END
G1 E-.04 F2100
G1 Z.6 F720
G1 X67.19 Y123.79 F10800
G1 Z.2 F720
G1 E.8 F2100
M204 S800
;TYPE:Perimeter
G1 F1200
G1 X66.127 Y120.134 E.11937
G1 X65.293 Y116.408 E.11973
G1 X64.69 Y112.601 E.12085
G1 X64.334 Y108.835 E.11862
G1 X64.213 Y105.018 E.11973
G1 X64.334 Y101.165 E.12085
G1 X64.69 Y97.399 E.11862
G1 X65.286 Y93.627 E.11973
G1 X66.127 Y89.866 E.12085
G1 X67.183 Y86.233 E.11862
G1 X68.475 Y82.639 E.11973
G1 X70.006 Y79.102 E.12085
G1 X71.723 Y75.731 E.11862
G1 X73.666 Y72.444 E.11973
G1 X75.812 Y69.285 E.11973
G1 X78.152 Y66.267 E.11973
G1 X80.676 Y63.401 E.11973
G1 X83.376 Y60.7 E.11973
G1 X83.98 Y60.166 E.02531
G1 X86.243 Y58.171 E.0946
G1 X89.285 Y55.812 E.12067
G1 X92.414 Y53.685 E.11862
G1 X95.7 Y51.741 E.11973
G1 X99.134 Y49.991 E.12085
G1 X102.606 Y48.488 E.11862
G1 X106.199 Y47.194 E.11973
G1 X109.9 Y46.118 E.12085
G1 X113.592 Y45.293 E.11862
G1 X117.364 Y44.695 E.11973
G1 X121.165 Y44.334 E.11973
G1 X124.901 Y44.216 E.11717
G1 X128.835 Y44.334 E.1234
G1 X132.636 Y44.695 E.11973
G1 X136.373 Y45.286 E.11862
G1 X140.134 Y46.127 E.12085
G1 X143.767 Y47.183 E.11862
G1 X147.361 Y48.475 E.11973
G1 X150.898 Y50.006 E.12085
G1 X154.3 Y51.741 E.11973
G1 X157.556 Y53.666 E.11862
G1 X160.715 Y55.812 E.11973
G1 X163.733 Y58.152 E.11973
G1 X166.599 Y60.676 E.11973
G1 X169.3 Y63.376 E.11973
G1 X169.834 Y63.98 E.02531
G1 X171.829 Y66.243 E.0946
G1 X174.188 Y69.285 E.12067
G1 X176.315 Y72.414 E.11862
G1 X178.259 Y75.7 E.11973
G1 X180.009 Y79.134 E.12085
G1 X181.512 Y82.606 E.11862
G1 X182.806 Y86.199 E.11973
G1 X183.882 Y89.9 E.12085
G1 X184.707 Y93.592 E.11862
G1 X185.305 Y97.364 E.11973
G1 X185.668 Y101.201 E.12085
G1 X185.787 Y104.982 E.11862
G1 X185.668 Y108.799 E.11973
G1 X185.305 Y112.636 E.12085
G1 X184.714 Y116.373 E.11862
G1 X183.882 Y120.1 E.11973
G1 X182.806 Y123.802 E.12087
G1 X181.492 Y127.436 E.12118
G1 X179.994 Y130.898 E.11826
G1 X178.277 Y134.269 E.11862
G1 X176.334 Y137.556 E.11973
G1 X174.188 Y140.715 E.11973
G1 X171.848 Y143.733 E.11973
G1 X169.324 Y146.599 E.11973
G1 X166.624 Y149.3 E.11973
G1 X166.02 Y149.834 E.02531
G1 X163.757 Y151.829 E.0946
G1 X160.715 Y154.188 E.12067
G1 X157.556 Y156.334 E.11973
G1 X154.3 Y158.259 E.11862
G1 X150.866 Y160.009 E.12085
G1 X147.394 Y161.512 E.11862
G1 X143.801 Y162.806 E.11973
G1 X140.1 Y163.882 E.12085
G1 X136.408 Y164.707 E.11862
G1 X132.636 Y165.305 E.11973
G1 X128.799 Y165.668 E.12085
G1 X124.982 Y165.787 E.11973
G1 X121.165 Y165.666 E.11973
G1 X117.399 Y165.31 E.11862
G1 X113.627 Y164.714 E.11973
G1 X109.866 Y163.873 E.12085
G1 X106.199 Y162.806 E.11973
G1 X102.639 Y161.525 E.11862
G1 X99.102 Y159.994 E.12085
G1 X95.731 Y158.277 E.11862
G1 X92.444 Y156.334 E.11973
G1 X89.285 Y154.188 E.11973
G1 X86.267 Y151.848 E.11973
G1 X83.401 Y149.324 E.11973
G1 X80.7 Y146.624 E.11973
G1 X80.166 Y146.02 E.02531
G1 X78.174 Y143.761 E.09442
G1 X75.812 Y140.715 E.12085
G1 X73.685 Y137.586 E.11862
G1 X71.741 Y134.3 E.11973
G1 X69.991 Y130.866 E.12085
G1 X68.488 Y127.394 E.11862
G1 X67.21 Y123.847 E.11822
M204 S1000
G1 X67.55 Y123.678 F10800
M204 S800
;TYPE:External perimeter
G1 F1200
G1 X66.486 Y120.018 E.11951
G1 X65.661 Y116.326 E.11862
G1 X65.067 Y112.577 E.11899
G1 X64.709 Y108.787 E.11936
G1 X64.59 Y105.006 E.11862
G1 X64.709 Y101.213 E.11899
G1 X65.067 Y97.423 E.11936
G1 X65.659 Y93.686 E.11862
G1 X66.486 Y89.982 E.11899
G1 X67.545 Y86.338 E.11899
G1 X68.83 Y82.767 E.11899
G1 X70.342 Y79.273 E.11936
G1 X72.059 Y75.902 E.11862
G1 X73.991 Y72.636 E.11899
G1 X76.124 Y69.497 E.11899
G1 X78.45 Y66.498 E.11899
G1 X80.959 Y63.651 E.11899
G1 X83.642 Y60.967 E.11899
G1 X84.23 Y60.449 E.02457
G1 X86.49 Y58.456 E.09448
G1 X89.497 Y56.124 E.1193
G1 X92.636 Y53.991 E.11899
G1 X95.892 Y52.065 E.11862
G1 X99.284 Y50.337 E.11936
G1 X102.756 Y48.834 E.11862
G1 X106.327 Y47.548 E.11899
G1 X109.982 Y46.486 E.11936
M73 P0 R307
G1 X113.674 Y45.661 E.11862
G1 X117.434 Y45.066 E.11936
G1 X121.201 Y44.71 E.11862
G1 X124.912 Y44.593 E.11643
G1 X128.799 Y44.71 E.12192
G1 X132.577 Y45.067 E.11899
G1 X136.314 Y45.659 E.11862
G1 X140.018 Y46.486 E.11899
G1 X143.662 Y47.545 E.11899
G1 X147.233 Y48.83 E.11899
G1 X150.727 Y50.342 E.11936
G1 X154.108 Y52.065 E.11899
G1 X157.364 Y53.991 E.11862
G1 X160.503 Y56.124 E.11899
G1 X163.502 Y58.45 E.11899
G1 X166.351 Y60.961 E.11908
G1 X169.033 Y63.642 E.1189
G1 X169.551 Y64.23 E.02457
G1 X171.544 Y66.49 E.09448
G1 X173.876 Y69.497 E.1193
G1 X176.009 Y72.636 E.11899
G1 X177.935 Y75.892 E.11862
G1 X179.663 Y79.284 E.11936
G1 X181.166 Y82.756 E.11862
G1 X182.452 Y86.327 E.11899
G1 X183.514 Y89.982 E.11936
G1 X184.339 Y93.674 E.11862
G1 X184.933 Y97.423 E.11899
G1 X185.291 Y101.213 E.11936
G1 X185.41 Y104.994 E.11862
G1 X185.291 Y108.787 E.11899
G1 X184.933 Y112.577 E.11936
G1 X184.341 Y116.317 E.11872
G1 X183.514 Y120.018 E.11889
G1 X182.451 Y123.674 E.11937
G1 X181.137 Y127.308 E.12118
G1 X179.658 Y130.727 E.11679
G1 X177.941 Y134.098 E.11862
G1 X176.009 Y137.364 E.11899
G1 X173.876 Y140.503 E.11899
G1 X171.548 Y143.505 E.1191
G1 X169.041 Y146.349 E.11888
G1 X166.358 Y149.033 E.11899
G1 X165.77 Y149.551 E.02457
G1 X163.51 Y151.544 E.09448
G1 X160.503 Y153.876 E.1193
G1 X157.364 Y156.009 E.11899
G1 X154.108 Y157.935 E.11862
G1 X150.716 Y159.663 E.11936
G1 X147.244 Y161.166 E.11862
G1 X143.673 Y162.452 E.11899
G1 X140.018 Y163.514 E.11936
G1 X136.326 Y164.339 E.11862
G1 X132.577 Y164.933 E.11899
G1 X128.787 Y165.291 E.11936
G1 X124.994 Y165.41 E.11899
G1 X121.201 Y165.29 E.11899
G1 X117.423 Y164.933 E.11899
G1 X113.686 Y164.341 E.11862
G1 X109.982 Y163.514 E.11899
G1 X106.338 Y162.455 E.11899
G1 X102.767 Y161.17 E.11899
G1 X99.273 Y159.658 E.11936
G1 X95.902 Y157.941 E.11862
G1 X92.636 Y156.009 E.11899
G1 X89.497 Y153.876 E.11899
G1 X86.498 Y151.55 E.11899
G1 X86.015 Y151.125 E.02017
G1 X83.651 Y149.041 E.09882
G1 X80.967 Y146.358 E.11899
G1 X78.456 Y143.51 E.11906
G1 X76.131 Y140.513 E.11892
G1 X73.991 Y137.364 E.11936
G1 X72.065 Y134.108 E.11862
G1 X70.342 Y130.727 E.11899
G1 X68.834 Y127.244 E.11899
G1 X67.57 Y123.734 E.11696
M204 S1000
G1 X67.159 Y123.595 F10800
;WIPE_START
G1 F8640
G1 X66.649 Y120.575 E-.76
;WIPE_END
G1 E-.04 F2100
G1 Z.6 F720
G1 X74.899 Y159.363 F10800
G1 Z.2 F720
G1 E.8 F2100
M204 S800
;TYPE:Perimeter
G1 F1200
G1 X74.554 Y160.015 E.02312
G1 X74.145 Y160.501 E.01992
G1 X73.662 Y160.888 E.01939
G1 X73.116 Y161.177 E.01939
G1 X72.525 Y161.359 E.01939
G1 X71.91 Y161.428 E.01939
G1 X71.294 Y161.379 E.01939
G1 X70.697 Y161.217 E.01939
G1 X70.142 Y160.945 E.01938
G1 X69.512 Y160.442 E.02528
G1 X69.112 Y159.948 E.01992
G1 X68.823 Y159.402 E.01939
G1 X68.641 Y158.811 E.01939
G1 X68.572 Y158.196 E.01939
G1 X68.621 Y157.58 E.01939
G1 X68.783 Y156.983 E.01939
G1 X69.055 Y156.428 E.01939
G1 X69.426 Y155.933 E.01939
G1 X69.883 Y155.517 E.01939
G1 X70.41 Y155.193 E.01939
G1 X70.988 Y154.975 E.01938
G1 X71.776 Y154.86 E.02497
G1 X72.419 Y154.906 E.0202
G1 X73.017 Y155.069 E.01943
G1 X73.572 Y155.341 E.01939
G1 X74.067 Y155.712 E.01938
G1 X74.591 Y156.324 E.02528
G1 X74.892 Y156.884 E.01992
G1 X75.074 Y157.475 E.01939
G1 X75.142 Y158.09 E.01939
G1 X75.094 Y158.706 E.01939
G1 X74.927 Y159.31 E.01965
M204 S1000
G1 X74.558 Y159.216 F10800
M204 S800
;TYPE:External perimeter
G1 F1200
G1 X74.224 Y159.834 E.02202
G1 X73.862 Y160.252 E.01734
G1 X73.431 Y160.59 E.01717
G1 X72.945 Y160.841 E.01717
G1 X72.42 Y160.997 E.01717
G1 X71.875 Y161.052 E.01717
G1 X71.329 Y161.004 E.01717
G1 X70.803 Y160.854 E.01717
G1 X70.314 Y160.609 E.01716
G1 X69.753 Y160.151 E.0227
G1 X69.41 Y159.717 E.01734
G1 X69.159 Y159.23 E.01717
G1 X69.003 Y158.705 E.01717
G1 X68.948 Y158.161 E.01717
G1 X68.996 Y157.615 E.01717
G1 X69.146 Y157.088 E.01717
G1 X69.391 Y156.599 E.01717
G1 X69.724 Y156.164 E.01717
G1 X70.133 Y155.8 E.01717
G1 X70.602 Y155.518 E.01717
G1 X71.116 Y155.329 E.01716
G1 X71.824 Y155.235 E.0224
G1 X72.384 Y155.282 E.01763
G1 X72.912 Y155.431 E.01718
G1 X73.401 Y155.677 E.01717
G1 X73.836 Y156.01 E.01716
G1 X74.301 Y156.565 E.0227
G1 X74.556 Y157.055 E.01734
G1 X74.712 Y157.58 E.01717
G1 X74.767 Y158.125 E.01717
G1 X74.718 Y158.671 E.01717
G1 X74.579 Y159.16 E.01596
M204 S1000
G1 X74.802 Y159.534 F10800
;WIPE_START
G1 F8640
G1 X74.224 Y159.834 E-.17582
G1 X73.862 Y160.252 E-.1277
G1 X73.431 Y160.59 E-.12644
G1 X72.945 Y160.841 E-.12645
G1 X72.42 Y160.997 E-.12644
G1 X72.087 Y161.031 E-.07714
;WIPE_END
G1 E-.04 F2100
G1 Z.6 F720
G1 X178.129 Y154.865 F10800
G1 Z.2 F720
G1 E.8 F2100
M204 S800
;TYPE:Perimeter
G1 F1200
G1 X178.705 Y154.906 E.01809
G1 X179.303 Y155.069 E.01943
G1 X179.858 Y155.341 E.01939
G1 X180.353 Y155.712 E.01939
G1 X180.769 Y156.169 E.01938
G1 X181.169 Y156.869 E.02528
G1 X181.359 Y157.475 E.01992
G1 X181.428 Y158.09 E.01939
G1 X181.379 Y158.706 E.01939
G1 X181.217 Y159.303 E.01939
G1 X180.945 Y159.858 E.01939
G1 X180.574 Y160.352 E.01938
G1 X179.961 Y160.877 E.02528
G1 X179.402 Y161.177 E.01992
G1 X178.811 Y161.359 E.01939
G1 X178.196 Y161.428 E.01939
G1 X177.58 Y161.379 E.01939
G1 X176.983 Y161.217 E.01939
G1 X176.428 Y160.945 E.01939
G1 X175.933 Y160.574 E.01939
G1 X175.511 Y160.108 E.01971
G1 X175.116 Y159.416 E.02497
G1 X174.926 Y158.811 E.0199
G1 X174.858 Y158.196 E.01939
G1 X174.906 Y157.58 E.01939
G1 X175.069 Y156.983 E.01939
G1 X175.341 Y156.428 E.01939
G1 X175.712 Y155.933 E.01939
G1 X176.169 Y155.517 E.01939
G1 X176.696 Y155.193 E.01939
G1 X177.274 Y154.975 E.01938
G1 X178.07 Y154.861 E.02519
M204 S1000
G1 X178.078 Y155.239 F10800
M204 S800
;TYPE:External perimeter
G1 F1200
G1 X178.67 Y155.282 E.01861
G1 X179.197 Y155.431 E.01718
G1 X179.687 Y155.677 E.01717
G1 X180.122 Y156.01 E.01717
G1 X180.486 Y156.418 E.01716
G1 X180.839 Y157.05 E.0227
G1 X180.997 Y157.58 E.01734
G1 X181.052 Y158.125 E.01717
G1 X181.004 Y158.671 E.01717
G1 X180.854 Y159.197 E.01717
G1 X180.609 Y159.687 E.01717
G1 X180.276 Y160.121 E.01716
G1 X179.721 Y160.586 E.0227
G1 X179.23 Y160.841 E.01734
G1 X178.705 Y160.997 E.01717
G1 X178.161 Y161.052 E.01717
G1 X177.615 Y161.004 E.01717
G1 X177.088 Y160.854 E.01717
G1 X176.599 Y160.609 E.01717
G1 X176.164 Y160.276 E.01717
G1 X175.794 Y159.859 E.01746
G1 X175.447 Y159.235 E.0224
G1 X175.288 Y158.705 E.01733
G1 X175.233 Y158.161 E.01717
G1 X175.282 Y157.615 E.01717
G1 X175.431 Y157.088 E.01717
G1 X175.677 Y156.599 E.01717
G1 X176.01 Y156.164 E.01717
G1 X176.418 Y155.8 E.01717
G1 X176.888 Y155.518 E.01717
G1 X177.402 Y155.329 E.01716
G1 X178.019 Y155.247 E.01951
M204 S1000
G1 X178.268 Y154.887 F10800
;WIPE_START
G1 F8640
G1 X178.67 Y155.282 E-.15067
G1 X179.197 Y155.431 E-.12655
G1 X179.687 Y155.677 E-.12644
G1 X180.122 Y156.01 E-.12644
G1 X180.486 Y156.418 E-.12637
G1 X180.704 Y156.81 E-.10353
;WIPE_END
G1 E-.04 F2100
G1 Z.6 F720
G1 X175.477 Y53.763 F10800
G1 Z.2 F720
G1 E.8 F2100
M204 S800
;TYPE:Perimeter
G1 F1200
G1 X175.116 Y53.131 E.02281
G1 X174.926 Y52.525 E.0199
G1 X174.858 Y51.91 E.01939
G1 X174.906 Y51.294 E.01939
G1 X175.069 Y50.697 E.01939
G1 X175.341 Y50.142 E.01939
G1 X175.712 Y49.647 E.01939
G1 X176.169 Y49.231 E.01939
G1 X176.696 Y48.908 E.01939
G1 X177.274 Y48.689 E.01938
