; generated by PrusaSlicer 2.5.2+MacOS-x64 on 2023-07-14 at 12:09:40 UTC


;
;
; 

; external perimeters extrusion width = 0.60mm
; perimeters extrusion width = 0.50mm
; infill extrusion width = 0.50mm
; solid infill extrusion width = 0.50mm
; top infill extrusion width = 0.45mm
; first layer extrusion width = 0.42mm

M73 P0 R68
M73 Q0 S70
M201 X1000 Y1000 Z200 E5000 ; sets maximum accelerations, mm/sec^2
M203 X200 Y200 Z12 E120 ; sets maximum feedrates, mm / sec
M204 P1250 R1250 T1250 ; sets acceleration (P, T) and retract acceleration (R), mm/sec^2
M205 X8.00 Y8.00 Z0.40 E4.50 ; sets the jerk limits, mm/sec
M205 S0 T0 ; sets the minimum extruding and travel feed rate, mm/sec
M107
;TYPE:Custom
M862.3 P "MK3S" ; printer model check
M862.1 P0.4 ; nozzle diameter check
M115 U3.12.2 ; tell printer latest fw version
G90 ; use absolute coordinates
M83 ; extruder relative mode
M104 S215 ; set extruder temp
M140 S60 ; set bed temp
M190 S60 ; wait for bed temp
M109 S215 ; wait for extruder temp
G28 W ; home all without mesh bed level
G80 ; mesh bed leveling

G1 Z0.2 F720
G1 Y-3 F1000 ; go outside print area
G92 E0
G1 X60 E9 F1000 ; intro line
G1 X100 E12.5 F1000 ; intro line

G92 E0
M221 S95

; Don't change E values below. Excessive value can damage the printer.

M907 E538 ; set extruder motor current
G21 ; set units to millimeters
G90 ; use absolute coordinates
M83 ; use relative distances for extrusion
M900 K0.05 ; Filament gcode LA 1.5
M900 K30 ; Filament gcode LA 1.0
M107
;LAYER_CHANGE
;Z:0.2
;HEIGHT:0.2
;BEFORE_LAYER_CHANGE
G92 E0.0
;0.2


G1 E-.8 F2100
G1 Z.4 F720
;AFTER_LAYER_CHANGE
;0.2
G1 X8.56 Y37.318 F10800
G1 Z.2 F720
G1 E.8 F2100
M204 S800
;TYPE:Skirt/Brim
;WIDTH:0.42
G1 F1200
G1 X9.5 Y37.124 E.03008
G1 X235.505 Y37.124 E7.08622
G1 X236.952 Y37.268 E.0456
M73 Q0 S69
G1 X238.285 Y37.67 E.04365
G1 X239.578 Y38.354 E.04588
G1 X240.659 Y39.228 E.04357
G1 X241.555 Y40.289 E.04354
G1 X242.28 Y41.598 E.04691
G1 X242.714 Y42.968 E.04506
G1 X242.874 Y44.347 E.04354
G1 X242.873 Y165.694 E3.80477
G1 X242.791 Y166.617 E.02904
G1 X242.593 Y167.522 E.02904
G1 X242.284 Y168.395 E.02904
G1 X241.867 Y169.222 E.02905
G1 X241.305 Y170.05 E.03137
G1 X240.689 Y170.742 E.02904
G1 X239.991 Y171.351 E.02904
G1 X239.222 Y171.867 E.02904
G1 X238.25 Y172.344 E.03396
G1 X237.37 Y172.634 E.02904
G1 X236.461 Y172.813 E.02904
G1 X235.5 Y172.876 E.03021
G1 X9.5 Y172.876 E7.08607
G1 X8.193 Y172.484 E.04278
G1 X7.317 Y171.438 E.04278
G1 X7.123 Y170.498 E.03008
G1 X7.123 Y39.502 E4.10731
G1 X7.515 Y38.195 E.04278
M73 P1 R68
M73 Q1 S69
G1 X8.514 Y37.357 E.0409
M204 S1000
; printing object two_filter_casing_enclosure_p2.stl id:0 copy 0
;WIPE_START
G1 F8640
G1 X9.5 Y37.124 E-.23384
G1 X11.779 Y37.124 E-.52616
;WIPE_END
G1 E-.04 F2100
G1 Z.6 F720
G1 X239.659 Y166.159 F10800
G1 Z.2 F720
G1 E.8 F2100
M204 S800
;TYPE:Perimeter
;WIDTH:0.419999
G1 F1200
G1 X239.543 Y166.675 E.01658
G1 X239.364 Y167.172 E.01658
G1 X239.124 Y167.643 E.01658
G1 X238.827 Y168.081 E.01658
G1 X238.477 Y168.477 E.01658
G1 X238.081 Y168.827 E.01658
G1 X237.647 Y169.122 E.01645
G1 X237.046 Y169.416 E.02098
G1 X236.547 Y169.578 E.01644
G1 X236.028 Y169.677 E.01658
G1 X235.48 Y169.712 E.0172
G1 X10.287 Y169.711 E7.06076
G1 X10.287 Y40.289 E4.05795
M73 P1 R67
G1 X235.507 Y40.289 E7.0616
G1 X236.351 Y40.378 E.0266
M73 Q1 S68
G1 X237.109 Y40.61 E.02487
G1 X237.81 Y40.981 E.02487
G1 X238.429 Y41.476 E.02485
G1 X238.943 Y42.079 E.02484
G1 X239.34 Y42.775 E.02512
G1 X239.521 Y43.253 E.01604
G1 X239.631 Y43.785 E.01702
G1 X239.711 Y44.443 E.02079
G1 X239.709 Y165.623 E3.79951
G1 X239.664 Y166.099 E.01498
M204 S1000
G1 X240.032 Y166.218 F10800
M204 S800
;TYPE:External perimeter
G1 F1200
G1 X239.906 Y166.78 E.01807
G1 X239.711 Y167.322 E.01807
G1 X239.449 Y167.836 E.01807
G1 X239.125 Y168.312 E.01807
G1 X238.744 Y168.744 E.01807
G1 X238.312 Y169.125 E.01807
G1 X237.837 Y169.449 E.01803
G1 X237.188 Y169.766 E.02265
G1 X236.641 Y169.944 E.01802
G1 X236.075 Y170.052 E.01807
G1 X235.492 Y170.089 E.01832
G1 X9.91 Y170.088 E7.07295
G1 X9.91 Y39.912 E4.0816
M73 P2 R67
M73 Q2 S68
G1 X235.527 Y39.912 E7.07404
G1 X236.426 Y40.006 E.02836
G1 X237.253 Y40.26 E.02713
G1 X238.018 Y40.664 E.02711
G1 X238.692 Y41.204 E.02709
G1 X239.253 Y41.861 E.02708
G1 X239.682 Y42.614 E.02717
G1 X239.884 Y43.148 E.0179
G1 X240 Y43.708 E.01795
G1 X240.088 Y44.431 E.02283
G1 X240.086 Y165.641 E3.80044
G1 X240.037 Y166.158 E.01628
M204 S1000
M73 P2 R66
G1 X239.66 Y166.365 F10800
;WIPE_START
G1 F8640
G1 X239.906 Y166.78 E-.1468
G1 X239.711 Y167.322 E-.13304
G1 X239.449 Y167.836 E-.13304
G1 X239.125 Y168.312 E-.13304
G1 X238.744 Y168.744 E-.13305
G1 X238.481 Y168.976 E-.08102
;WIPE_END
G1 E-.04 F2100
G1 Z.6 F720
G1 X14.738 Y157.749 F10800
G1 Z.2 F720
G1 E.8 F2100
M204 S800
;TYPE:Perimeter
G1 F1200
G1 X14.713 Y157.66 E.00289
G1 X14.713 Y151.34 E.19816
G1 X14.787 Y151.059 E.0091
G1 X14.964 Y150.87 E.00812
G1 X15.225 Y150.777 E.0087
G1 X18.713 Y150.774 E.10935
G1 X18.713 Y138.226 E.39345
G1 X15.279 Y138.226 E.10768
G1 X14.995 Y138.15 E.0092
G1 X14.788 Y137.941 E.00923
G1 X14.713 Y137.66 E.00911
G1 X14.713 Y131.34 E.19816
G1 X14.797 Y131.044 E.00965
G1 X14.987 Y130.855 E.0084
G1 X15.279 Y130.774 E.00948
G1 X18.713 Y130.774 E.10768
G1 X18.713 Y118.226 E.39345
G1 X15.279 Y118.226 E.10768
G1 X14.987 Y118.145 E.00948
G1 X14.797 Y117.956 E.0084
G1 X14.713 Y117.66 E.00965
G1 X14.713 Y111.34 E.19816
G1 X14.797 Y111.044 E.00965
G1 X14.987 Y110.855 E.0084
G1 X15.279 Y110.774 E.00948
G1 X18.713 Y110.774 E.10768
G1 X18.713 Y98.226 E.39345
G1 X15.279 Y98.226 E.10768
G1 X14.987 Y98.145 E.00948
G1 X14.797 Y97.956 E.0084
G1 X14.713 Y97.66 E.00965
G1 X14.713 Y91.34 E.19816
G1 X14.797 Y91.044 E.00965
G1 X14.987 Y90.855 E.0084
G1 X15.279 Y90.774 E.00948
G1 X18.713 Y90.774 E.10768
G1 X18.713 Y78.226 E.39345
G1 X15.279 Y78.226 E.10768
M73 P3 R66
M73 Q3 S68
G1 X14.987 Y78.145 E.00948
G1 X14.797 Y77.956 E.0084
G1 X14.713 Y77.66 E.00965
G1 X14.713 Y71.34 E.19816
G1 X14.787 Y71.06 E.0091
G1 X14.982 Y70.858 E.00879
G1 X15.233 Y70.776 E.00826
G1 X18.713 Y70.774 E.10911
G1 X18.713 Y58.226 E.39345
G1 X15.279 Y58.226 E.10768
G1 X14.995 Y58.15 E.0092
G1 X14.788 Y57.941 E.00923
G1 X14.713 Y57.66 E.00911
G1 X14.713 Y51.34 E.19816
G1 X14.797 Y51.044 E.00965
G1 X14.987 Y50.855 E.0084
G1 X15.279 Y50.774 E.00948
G1 X18.713 Y50.774 E.10768
G1 X18.713 Y44.279 E.20367
G1 X18.756 Y44.061 E.00696
G1 X18.939 Y43.826 E.00933
G1 X19.181 Y43.721 E.00826
G1 X19.279 Y43.713 E.00308
G1 X230.721 Y43.713 E6.62963
G1 X230.905 Y43.743 E.00583
M73 Q3 S67
G1 X231.174 Y43.939 E.01043
G1 X231.278 Y44.177 E.00812
G1 X231.287 Y50.774 E.20687
G1 X235.721 Y50.774 E.13904
G1 X235.939 Y50.818 E.00696
G1 X236.174 Y51.001 E.00933
G1 X236.257 Y51.156 E.00553
G1 X236.287 Y51.34 E.00583
G1 X236.287 Y57.66 E.19816
G1 X236.243 Y57.878 E.00697
G1 X236.131 Y58.051 E.00647
G1 X235.879 Y58.203 E.00924
G1 X235.053 Y58.226 E.0259
G1 X231.287 Y58.226 E.11807
G1 X231.287 Y70.774 E.39345
G1 X235.721 Y70.774 E.13904
G1 X235.987 Y70.84 E.00857
G1 X236.131 Y70.949 E.00565
G1 X236.243 Y71.122 E.00647
G1 X236.287 Y71.34 E.00697
G1 X236.287 Y77.66 E.19816
G1 X236.257 Y77.844 E.00583
G1 X236.061 Y78.113 E.01043
G1 X235.823 Y78.216 E.00812
G1 X231.287 Y78.226 E.14224
G1 X231.287 Y90.774 E.39345
G1 X235.721 Y90.774 E.13904
G1 X235.939 Y90.818 E.00696
G1 X236.174 Y91.001 E.00933
G1 X236.257 Y91.156 E.00553
G1 X236.287 Y91.34 E.00583
G1 X236.287 Y97.66 E.19816
G1 X236.257 Y97.844 E.00583
G1 X236.061 Y98.113 E.01043
G1 X235.823 Y98.216 E.00812
G1 X231.287 Y98.226 E.14224
G1 X231.287 Y110.774 E.39345
G1 X235.721 Y110.774 E.13904
G1 X235.939 Y110.818 E.00696
G1 X236.174 Y111.001 E.00933
G1 X236.257 Y111.156 E.00553
G1 X236.287 Y111.34 E.00583
G1 X236.287 Y117.66 E.19816
G1 X236.257 Y117.844 E.00583
G1 X236.061 Y118.113 E.01043
G1 X235.823 Y118.216 E.00812
G1 X231.287 Y118.226 E.14224
G1 X231.287 Y130.774 E.39345
G1 X235.721 Y130.774 E.13904
G1 X235.939 Y130.818 E.00696
G1 X236.174 Y131.001 E.00933
G1 X236.257 Y131.156 E.00553
G1 X236.287 Y131.34 E.00583
G1 X236.287 Y137.66 E.19816
G1 X236.243 Y137.878 E.00697
G1 X236.13 Y138.051 E.00647
G1 X235.879 Y138.203 E.00923
G1 X235.053 Y138.226 E.02591
G1 X231.287 Y138.226 E.11807
G1 X231.287 Y150.774 E.39345
G1 X235.721 Y150.774 E.13904
G1 X235.987 Y150.84 E.00857
G1 X236.13 Y150.949 E.00565
G1 X236.243 Y151.122 E.00647
G1 X236.287 Y151.34 E.00697
G1 X236.287 Y157.66 E.19816
G1 X236.257 Y157.844 E.00583
G1 X236.061 Y158.113 E.01043
G1 X235.823 Y158.216 E.00812
G1 X231.287 Y158.226 E.14224
G1 X231.287 Y165.721 E.23502
G1 X231.244 Y165.939 E.00696
G1 X231.061 Y166.174 E.00933
G1 X230.819 Y166.279 E.00826
G1 X230.721 Y166.287 E.00308
G1 X19.279 Y166.287 E6.62963
G1 X19.095 Y166.257 E.00583
G1 X18.826 Y166.061 E.01043
G1 X18.722 Y165.823 E.00812
G1 X18.713 Y158.226 E.23822
G1 X15.279 Y158.226 E.10768
G1 X14.987 Y158.145 E.00948
G1 X14.797 Y157.956 E.0084
G1 X14.754 Y157.806 E.00489
M204 S1000
G1 X15.09 Y157.66 F10800
M204 S800
;TYPE:External perimeter
G1 F1200
G1 X15.09 Y151.34 E.19816
G1 X15.156 Y151.197 E.00494
G1 X15.279 Y151.151 E.0041
G1 X19.09 Y151.151 E.11951
G1 X19.09 Y137.849 E.4171
G1 X15.279 Y137.849 E.11951
G1 X15.142 Y137.79 E.00467
G1 X15.09 Y137.66 E.00438
G1 X15.09 Y131.34 E.19816
G1 X15.148 Y131.204 E.00462
G1 X15.279 Y131.151 E.00443
G1 X19.09 Y131.151 E.11951
G1 X19.09 Y117.849 E.4171
G1 X15.279 Y117.849 E.11951
G1 X15.148 Y117.796 E.00443
G1 X15.09 Y117.66 E.00462
G1 X15.09 Y111.34 E.19816
G1 X15.148 Y111.204 E.00462
G1 X15.279 Y111.151 E.00443
G1 X19.09 Y111.151 E.11951
G1 X19.09 Y97.849 E.4171
G1 X15.279 Y97.849 E.11951
G1 X15.148 Y97.796 E.00443
G1 X15.09 Y97.66 E.00462
G1 X15.09 Y91.34 E.19816
G1 X15.148 Y91.204 E.00462
G1 X15.279 Y91.151 E.00443
G1 X19.09 Y91.151 E.11951
G1 X19.09 Y77.849 E.4171
G1 X15.279 Y77.849 E.11951
G1 X15.148 Y77.796 E.00443
G1 X15.09 Y77.66 E.00462
G1 X15.09 Y71.34 E.19816
G1 X15.15 Y71.202 E.00472
G1 X15.279 Y71.151 E.00433
G1 X19.09 Y71.151 E.11951
G1 X19.09 Y57.849 E.4171
G1 X15.279 Y57.849 E.11951
G1 X15.142 Y57.79 E.00467
G1 X15.09 Y57.66 E.00438
G1 X15.09 Y51.34 E.19816
G1 X15.148 Y51.204 E.00462
M73 P4 R66
G1 X15.279 Y51.151 E.00443
G1 X19.09 Y51.151 E.11951
G1 X19.09 Y44.279 E.21549
G1 X19.165 Y44.128 E.00529
G1 X19.279 Y44.09 E.00374
G1 X230.721 Y44.09 E6.62963
G1 X230.872 Y44.165 E.00529
M73 P4 R65
M73 Q4 S67
G1 X230.91 Y44.298 E.00431
G1 X230.91 Y51.151 E.2149
G1 X235.721 Y51.151 E.15086
G1 X235.872 Y51.227 E.00529
G1 X235.91 Y51.34 E.00374
G1 X235.91 Y57.66 E.19816
G1 X235.858 Y57.79 E.0044
G1 X235.721 Y57.849 E.00465
G1 X230.91 Y57.849 E.15086
G1 X230.91 Y71.151 E.4171
G1 X235.721 Y71.151 E.15086
G1 X235.858 Y71.21 E.00465
G1 X235.91 Y71.34 E.0044
G1 X235.91 Y77.66 E.19816
G1 X235.835 Y77.811 E.00529
G1 X235.721 Y77.849 E.00374
G1 X230.91 Y77.849 E.15086
G1 X230.91 Y91.151 E.4171
G1 X235.721 Y91.151 E.15086
G1 X235.872 Y91.227 E.00529
G1 X235.91 Y91.34 E.00374
G1 X235.91 Y97.66 E.19816
G1 X235.835 Y97.811 E.00529
G1 X235.721 Y97.849 E.00374
G1 X230.91 Y97.849 E.15086
G1 X230.91 Y111.151 E.4171
G1 X235.721 Y111.151 E.15086
G1 X235.872 Y111.227 E.00529
G1 X235.91 Y111.34 E.00374
G1 X235.91 Y117.66 E.19816
G1 X235.835 Y117.811 E.00529
G1 X235.721 Y117.849 E.00374
G1 X230.91 Y117.849 E.15086
G1 X230.91 Y131.151 E.4171
G1 X235.721 Y131.151 E.15086
G1 X235.872 Y131.227 E.00529
G1 X235.91 Y131.34 E.00374
G1 X235.91 Y137.66 E.19816
G1 X235.858 Y137.79 E.0044
G1 X235.721 Y137.849 E.00465
G1 X230.91 Y137.849 E.15086
G1 X230.91 Y151.151 E.4171
G1 X235.721 Y151.151 E.15086
G1 X235.858 Y151.21 E.00465
G1 X235.91 Y151.34 E.0044
G1 X235.91 Y157.66 E.19816
G1 X235.835 Y157.811 E.00529
G1 X235.721 Y157.849 E.00374
G1 X230.91 Y157.849 E.15086
G1 X230.91 Y165.721 E.24685
G1 X230.835 Y165.872 E.00529
G1 X230.721 Y165.91 E.00374
G1 X19.279 Y165.91 E6.62963
G1 X19.128 Y165.835 E.00529
M73 Q4 S66
G1 X19.09 Y165.721 E.00374
G1 X19.09 Y157.849 E.24685
G1 X15.279 Y157.849 E.11951
G1 X15.148 Y157.796 E.00443
G1 X15.113 Y157.715 E.00274
M204 S1000
G1 X14.704 Y157.557 F10800
;WIPE_START
G1 F8640
G1 X15.101 Y154.424 E-.76
;WIPE_END
G1 E-.04 F2100
G1 Z.6 F720
G1 X16.332 Y66.059 F10800
G1 Z.2 F720
G1 E.8 F2100
M204 S800
;TYPE:Perimeter
G1 F1200
G1 X15.935 Y66.397 E.01633
G1 X15.455 Y66.641 E.01689
G1 X14.961 Y66.748 E.01584
G1 X14.613 Y66.785 E.01097
G1 X14.186 Y66.734 E.01349
G1 X13.745 Y66.588 E.01458
G1 X13.281 Y66.313 E.01689
G1 X12.789 Y65.797 E.02238
G1 X12.523 Y65.292 E.0179
G1 X12.412 Y64.876 E.01349
G1 X12.382 Y64.553 E.01016
G1 X12.432 Y64.02 E.01681
G1 X12.562 Y63.609 E.01349
G1 X12.766 Y63.231 E.01349
G1 X13.038 Y62.897 E.01349
G1 X13.367 Y62.62 E.01349
G1 X13.841 Y62.374 E.01676
G1 X14.166 Y62.272 E.01069
G1 X14.71 Y62.215 E.01713
G1 X15.147 Y62.266 E.01381
G1 X15.557 Y62.395 E.01349
G1 X15.963 Y62.622 E.01458
G1 X16.367 Y62.978 E.01689
G1 X16.754 Y63.578 E.02238
G1 X16.921 Y64.124 E.0179
G1 X16.951 Y64.553 E.01349
G1 X16.901 Y64.98 E.01349
G1 X16.771 Y65.391 E.01349
G1 X16.567 Y65.769 E.01349
G1 X16.369 Y66.012 E.00982
M204 S1000
G1 X15.979 Y65.877 F10800
M204 S800
;TYPE:External perimeter
G1 F1200
G1 X15.764 Y66.061 E.00887
G1 X15.284 Y66.305 E.01689
G1 X14.696 Y66.408 E.01872
G1 X14.291 Y66.372 E.01274
G1 X13.937 Y66.263 E.01163
G1 X13.473 Y65.989 E.01689
G1 X13.072 Y65.547 E.01872
G1 X12.885 Y65.186 E.01274
G1 X12.788 Y64.84 E.01127
G1 X12.757 Y64.518 E.01016
G1 X12.794 Y64.125 E.01238
G1 X12.898 Y63.781 E.01127
G1 X13.064 Y63.462 E.01127
G1 X13.287 Y63.18 E.01127
G1 X13.559 Y62.945 E.01127
G1 X13.969 Y62.729 E.01453
G1 X14.214 Y62.646 E.00812
G1 X14.675 Y62.591 E.01456
G1 X15.042 Y62.628 E.01155
G1 X15.386 Y62.731 E.01127
G1 X15.714 Y62.905 E.01163
G1 X16.118 Y63.261 E.01689
G1 X16.43 Y63.77 E.01872
G1 X16.546 Y64.16 E.01274
G1 X16.576 Y64.518 E.01127
G1 X16.539 Y64.875 E.01127
G1 X16.435 Y65.219 E.01127
G1 X16.269 Y65.538 E.01127
G1 X16.025 Y65.838 E.01213
M204 S1000
G1 X16.055 Y66.15 F10800
;WIPE_START
G1 F8640
G1 X15.764 Y66.061 E-.07917
G1 X15.284 Y66.305 E-.12438
G1 X14.696 Y66.408 E-.13783
G1 X14.291 Y66.372 E-.09381
G1 X13.937 Y66.263 E-.08567
G1 X13.473 Y65.989 E-.12437
G1 X13.139 Y65.621 E-.11477
;WIPE_END
G1 E-.04 F2100
G1 Z.6 F720
G1 X16.908 Y144.924 F10800
G1 Z.2 F720
G1 E.8 F2100
M204 S800
;TYPE:Perimeter
G1 F1200
G1 X16.754 Y145.422 E.01633
G1 X16.48 Y145.885 E.01689
G1 X15.963 Y146.378 E.02238
G1 X15.458 Y146.644 E.0179
G1 X15.043 Y146.754 E.01349
G1 X14.578 Y146.78 E.01458
G1 X14.046 Y146.696 E.01689
G1 X13.398 Y146.397 E.02238
G1 X12.965 Y146.025 E.0179
G1 X12.709 Y145.679 E.01349
G1 X12.523 Y145.292 E.01349
G1 X12.412 Y144.876 E.01349
G1 X12.382 Y144.553 E.01016
G1 X12.432 Y144.02 E.01681
G1 X12.562 Y143.609 E.01349
G1 X12.766 Y143.231 E.01349
G1 X13.038 Y142.897 E.01349
G1 X13.367 Y142.62 E.01349
G1 X13.841 Y142.374 E.01676
G1 X14.166 Y142.272 E.01068
G1 X14.71 Y142.215 E.01713
G1 X15.147 Y142.266 E.01381
G1 X15.557 Y142.395 E.01349
G1 X15.963 Y142.622 E.01458
G1 X16.367 Y142.978 E.01689
G1 X16.754 Y143.578 E.02238
G1 X16.921 Y144.124 E.0179
G1 X16.951 Y144.553 E.01349
G1 X16.915 Y144.864 E.00983
M204 S1000
G1 X16.53 Y144.904 F10800
M204 S800
;TYPE:External perimeter
G1 F1200
G1 X16.43 Y145.23 E.01068
G1 X16.155 Y145.693 E.01689
G1 X15.714 Y146.095 E.01872
G1 X15.353 Y146.282 E.01274
G1 X14.811 Y146.397 E.01737
G1 X14.637 Y146.408 E.00547
G1 X14.105 Y146.324 E.01689
G1 X13.569 Y146.061 E.01872
G1 X13.263 Y145.794 E.01274
G1 X13.045 Y145.508 E.01127
G1 X12.885 Y145.186 E.01127
G1 X12.788 Y144.84 E.01127
G1 X12.757 Y144.518 E.01016
G1 X12.794 Y144.125 E.01238
G1 X12.898 Y143.781 E.01127
G1 X13.064 Y143.462 E.01127
G1 X13.287 Y143.18 E.01127
G1 X13.559 Y142.945 E.01127
G1 X13.969 Y142.729 E.01453
G1 X14.214 Y142.646 E.00812
G1 X14.675 Y142.591 E.01456
G1 X15.042 Y142.628 E.01155
G1 X15.386 Y142.731 E.01127
G1 X15.714 Y142.905 E.01163
G1 X16.118 Y143.261 E.01689
G1 X16.43 Y143.77 E.01872
G1 X16.546 Y144.16 E.01274
G1 X16.576 Y144.518 E.01127
G1 X16.542 Y144.846 E.01034
M204 S1000
G1 X16.784 Y145.131 F10800
;WIPE_START
G1 F8640
G1 X16.43 Y145.23 E-.09236
G1 X16.155 Y145.693 E-.12437
