; generated by PrusaSlicer 2.6.0+MacOS-x64 on 2023-10-04 at 01:59:06 UTC


;
;
; 

; external perimeters extrusion width = 0.60mm
; perimeters extrusion width = 0.50mm
; infill extrusion width = 0.50mm
; solid infill extrusion width = 0.50mm
; top infill extrusion width = 0.45mm
; support material extrusion width = 0.38mm
; first layer extrusion width = 0.42mm

M73 P0 R229
M73 Q0 S230
M201 X1000 Y1000 Z200 E5000 ; sets maximum accelerations, mm/sec^2
M203 X200 Y200 Z12 E120 ; sets maximum feedrates, mm / sec
M204 S1250 T1250 ; sets acceleration (S) and retract acceleration (R), mm/sec^2
M205 X8.00 Y8.00 Z0.40 E4.50 ; sets the jerk limits, mm/sec
M205 S0 T0 ; sets the minimum extruding and travel feed rate, mm/sec
;TYPE:Custom
M862.3 P "MK3S" ; printer model check
M862.1 P0.4 ; nozzle diameter check
M115 U3.12.2 ; tell printer latest fw version
G90 ; use absolute coordinates
M83 ; extruder relative mode
M104 S215 ; set extruder temp
M140 S60 ; set bed temp
M190 S60 ; wait for bed temp
M109 S215 ; wait for extruder temp
G28 W ; home all without mesh bed level
G80 ; mesh bed leveling

G1 Z0.2 F720
G1 Y-3 F1000 ; go outside print area
G92 E0
G1 X60 E9 F1000 ; intro line
G1 X100 E12.5 F1000 ; intro line

G92 E0
M221 S95

; Don't change E values below. Excessive value can damage the printer.

M907 E538 ; set extruder motor current
G21 ; set units to millimeters
G90 ; use absolute coordinates
M83 ; use relative distances for extrusion
M900 K0.05 ; Filament gcode LA 1.5
M900 K30 ; Filament gcode LA 1.0
M107
;LAYER_CHANGE
;Z:0.2
;HEIGHT:0.2
;BEFORE_LAYER_CHANGE
G92 E0.0
;0.2


M73 P0 R228
G1 E-.8 F2100
G1 Z.4 F720
;AFTER_LAYER_CHANGE
;0.2
G1 X83 Y31.702 F10800
G1 Z.2 F720
G1 E.8 F2100
M204 S800
;TYPE:Skirt/Brim
;WIDTH:0.42
G1 F1200
G1 X92.263 Y8.546 E.78198
G1 X93.112 Y7.478 E.04278
G1 X94.47 Y7.051 E.04463
G1 X155.94 Y7.051 E1.92735
G1 X157.247 Y7.443 E.04278
G1 X158.271 Y8.962 E.05744
G1 X162.948 Y32.585 E.75506
G1 X162.947 Y47.811 E.4774
G1 X158.316 Y209.904 E5.08439
G1 X157.887 Y211.199 E.04277
G1 X156.817 Y212.045 E.04277
G1 X155.94 Y212.213 E.028
G1 X94.47 Y212.213 E1.92735
G1 X93.163 Y211.822 E.04277
G1 X92.286 Y210.776 E.0428
G1 X92.096 Y209.97 E.02596
G1 X82.834 Y45.561 E5.1631
G1 X82.83 Y32.585 E.40685
M73 Q0 S229
G1 X82.989 Y31.761 E.02631
M204 S1000
; printing object corner.stl id:0 copy 0
;WIPE_START
G1 F8640
G1 X84.274 Y28.544 E-.8
;WIPE_END
G1 Z.6 F720
G1 X155.94 Y32.585 F10800
G1 Z.2 F720
G1 E.8 F2100
M204 S800
;TYPE:Support material
G1 F1200
G1 X160.571 Y32.585 E.1452
G1 X160.571 Y47.743 E.47527
G1 X155.94 Y47.743 E.1452
G1 X155.94 Y209.836 E5.08231
G1 X94.47 Y209.836 E1.92735
G1 X94.47 Y45.427 E5.15493
G1 X85.207 Y45.427 E.29043
G1 X85.207 Y32.585 E.40265
G1 X94.47 Y32.585 E.29043
G1 X94.47 Y9.429 E.72604
G1 X155.94 Y9.429 E1.92735
G1 X155.94 Y32.528 E.72425
M204 S1000
M73 P0 R227
G1 X98.247 Y175.062 F10800
M204 S800
G1 F1200
G1 X106.719 Y175.062 E.26563
G1 X107.053 Y175.396 E.01481
G1 X107.053 Y183.868 E.26563
G1 X106.719 Y184.202 E.01481
G1 X98.247 Y184.202 E.26563
G1 X97.913 Y183.868 E.01481
G1 X97.913 Y175.396 E.26563
G1 X98.207 Y175.102 E.01304
M204 S1000
;WIPE_START
G1 F8640
G1 X97.913 Y175.396 E-.096
G1 X97.913 Y178.445 E-.704
;WIPE_END
G1 Z.6 F720
G1 X160.178 Y47.573 F10800
G1 Z.2 F720
G1 E.8 F2100
M204 S800
G1 F1200
G1 X160.178 Y32.924 E.45931
G1 X159.759 Y32.924 E.01314
G1 X159.759 Y47.403 E.45398
G1 X159.34 Y47.403 E.01314
G1 X159.34 Y32.924 E.45398
G1 X158.921 Y32.924 E.01314
G1 X158.921 Y47.403 E.45398
G1 X158.502 Y47.403 E.01314
G1 X158.502 Y32.924 E.45398
G1 X158.083 Y32.924 E.01314
G1 X158.083 Y47.403 E.45398
G1 X157.664 Y47.403 E.01314
G1 X157.664 Y32.924 E.45398
G1 X157.245 Y32.924 E.01314
G1 X157.245 Y47.403 E.45398
G1 X156.826 Y47.403 E.01314
G1 X156.826 Y32.924 E.45398
G1 X156.407 Y32.924 E.01314
G1 X156.407 Y47.403 E.45398
G1 X155.988 Y47.403 E.01314
G1 X155.988 Y32.924 E.45398
G1 X155.601 Y32.924 E.01213
G1 X155.601 Y9.768 E.72604
G1 X155.57 Y9.768 E.00097
G1 X155.569 Y209.497 E6.26236
G1 X155.151 Y209.497 E.01311
G1 X155.151 Y9.768 E6.26236
G1 X154.732 Y9.768 E.01314
M73 Q0 S228
G1 X154.732 Y209.497 E6.26236
G1 X154.313 Y209.497 E.01314
G1 X154.313 Y9.768 E6.26236
G1 X153.894 Y9.768 E.01314
G1 X153.894 Y209.497 E6.26236
G1 X153.475 Y209.497 E.01314
M73 P0 R226
G1 X153.475 Y9.768 E6.26236
G1 X153.056 Y9.768 E.01314
G1 X153.056 Y209.497 E6.26236
G1 X152.637 Y209.497 E.01314
M73 P1 R226
M73 Q1 S228
G1 X152.637 Y9.768 E6.26236
G1 X152.218 Y9.768 E.01314
M73 Q1 S227
G1 X152.218 Y209.497 E6.26236
G1 X151.799 Y209.497 E.01314
G1 X151.799 Y9.768 E6.26236
G1 X151.38 Y9.768 E.01314
G1 X151.38 Y209.497 E6.26236
G1 X150.961 Y209.497 E.01314
M73 P1 R225
G1 X150.961 Y9.768 E6.26236
G1 X150.542 Y9.768 E.01314
G1 X150.542 Y209.497 E6.26236
G1 X150.123 Y209.497 E.01314
G1 X150.123 Y9.768 E6.26236
G1 X149.704 Y9.768 E.01314
M73 Q1 S226
G1 X149.704 Y209.497 E6.26236
G1 X149.285 Y209.497 E.01314
G1 X149.285 Y9.768 E6.26236
G1 X148.866 Y9.768 E.01314
G1 X148.866 Y209.497 E6.26236
G1 X148.447 Y209.497 E.01314
M73 P1 R224
G1 X148.447 Y9.768 E6.26236
G1 X148.028 Y9.768 E.01314
G1 X148.028 Y209.497 E6.26236
G1 X147.609 Y209.497 E.01314
G1 X147.609 Y9.768 E6.26236
G1 X147.19 Y9.768 E.01314
M73 P2 R224
M73 Q2 S225
G1 X147.19 Y209.497 E6.26236
G1 X146.771 Y209.497 E.01314
G1 X146.771 Y9.768 E6.26236
G1 X146.352 Y9.768 E.01314
G1 X146.352 Y209.497 E6.26236
G1 X145.933 Y209.497 E.01314
M73 P2 R223
G1 X145.933 Y9.768 E6.26236
G1 X145.514 Y9.768 E.01314
G1 X145.514 Y209.497 E6.26236
G1 X145.095 Y209.497 E.01314
G1 X145.095 Y9.768 E6.26236
G1 X144.676 Y9.768 E.01314
M73 Q2 S224
G1 X144.676 Y209.497 E6.26236
G1 X144.257 Y209.497 E.01314
G1 X144.257 Y9.768 E6.26236
G1 X143.838 Y9.768 E.01314
G1 X143.838 Y209.497 E6.26236
G1 X143.419 Y209.497 E.01314
M73 P2 R222
G1 X143.419 Y9.768 E6.26236
G1 X143 Y9.768 E.01314
G1 X143 Y209.497 E6.26236
G1 X142.581 Y209.497 E.01314
G1 X142.581 Y9.768 E6.26236
G1 X142.162 Y9.768 E.01314
M73 Q2 S223
G1 X142.162 Y209.497 E6.26236
G1 X141.743 Y209.497 E.01314
G1 X141.743 Y9.768 E6.26236
G1 X141.324 Y9.768 E.01314
M73 P3 R222
M73 Q3 S223
G1 X141.324 Y209.497 E6.26236
G1 X140.905 Y209.497 E.01314
M73 P3 R221
G1 X140.905 Y9.768 E6.26236
G1 X140.486 Y9.768 E.01314
G1 X140.486 Y209.497 E6.26236
G1 X140.067 Y209.497 E.01314
G1 X140.067 Y9.768 E6.26236
G1 X139.648 Y9.768 E.01314
M73 Q3 S222
G1 X139.648 Y209.497 E6.26236
G1 X139.229 Y209.497 E.01314
G1 X139.229 Y9.768 E6.26236
G1 X138.81 Y9.768 E.01314
G1 X138.81 Y209.497 E6.26236
G1 X138.391 Y209.497 E.01314
M73 P3 R220
G1 X138.391 Y9.768 E6.26236
G1 X137.972 Y9.768 E.01314
G1 X137.972 Y209.497 E6.26236
G1 X137.553 Y209.497 E.01314
G1 X137.553 Y9.768 E6.26236
G1 X137.135 Y9.768 E.01311
M73 Q3 S221
G1 X137.135 Y209.497 E6.26236
G1 X136.716 Y209.497 E.01314
G1 X136.716 Y9.768 E6.26236
G1 X136.297 Y9.768 E.01314
G1 X136.297 Y209.497 E6.26236
G1 X135.878 Y209.497 E.01314
M73 P3 R219
G1 X135.878 Y9.768 E6.26236
G1 X135.459 Y9.768 E.01314
M73 P4 R219
M73 Q4 S221
G1 X135.459 Y209.497 E6.26236
G1 X135.04 Y209.497 E.01314
G1 X135.04 Y9.768 E6.26236
G1 X134.621 Y9.768 E.01314
M73 Q4 S220
G1 X134.621 Y209.497 E6.26236
G1 X134.202 Y209.497 E.01314
G1 X134.202 Y9.768 E6.26236
G1 X133.783 Y9.768 E.01314
G1 X133.783 Y209.497 E6.26236
G1 X133.364 Y209.497 E.01314
M73 P4 R218
G1 X133.364 Y9.768 E6.26236
G1 X132.945 Y9.768 E.01314
G1 X132.945 Y209.497 E6.26236
G1 X132.526 Y209.497 E.01314
G1 X132.526 Y9.768 E6.26236
G1 X132.107 Y9.768 E.01314
M73 Q4 S219
G1 X132.107 Y209.497 E6.26236
G1 X131.688 Y209.497 E.01314
G1 X131.688 Y9.768 E6.26236
G1 X131.269 Y9.768 E.01314
G1 X131.269 Y209.497 E6.26236
G1 X130.85 Y209.497 E.01314
M73 P4 R217
G1 X130.85 Y9.768 E6.26236
G1 X130.431 Y9.768 E.01314
G1 X130.431 Y209.497 E6.26236
G1 X130.012 Y209.497 E.01314
M73 P5 R217
G1 X130.012 Y9.768 E6.26236
G1 X129.593 Y9.768 E.01314
M73 Q5 S218
G1 X129.593 Y209.497 E6.26236
G1 X129.174 Y209.497 E.01314
G1 X129.174 Y9.768 E6.26236
G1 X128.755 Y9.768 E.01314
G1 X128.755 Y209.497 E6.26236
G1 X128.336 Y209.497 E.01314
M73 P5 R216
G1 X128.336 Y9.768 E6.26236
G1 X127.917 Y9.768 E.01314
G1 X127.917 Y209.497 E6.26236
G1 X127.498 Y209.497 E.01314
G1 X127.498 Y9.768 E6.26236
G1 X127.079 Y9.768 E.01314
M73 Q5 S217
G1 X127.079 Y209.497 E6.26236
G1 X126.66 Y209.497 E.01314
G1 X126.66 Y9.768 E6.26236
G1 X126.241 Y9.768 E.01314
G1 X126.241 Y209.497 E6.26236
G1 X125.822 Y209.497 E.01314
M73 P5 R215
G1 X125.822 Y9.768 E6.26236
G1 X125.403 Y9.768 E.01314
G1 X125.403 Y209.497 E6.26236
G1 X124.984 Y209.497 E.01314
G1 X124.984 Y9.768 E6.26236
G1 X124.565 Y9.768 E.01314
M73 Q5 S216
G1 X124.565 Y209.497 E6.26236
G1 X124.146 Y209.497 E.01314
M73 P6 R215
G1 X124.146 Y9.768 E6.26236
G1 X123.727 Y9.768 E.01314
M73 Q6 S216
G1 X123.727 Y209.497 E6.26236
G1 X123.308 Y209.497 E.01314
M73 P6 R214
G1 X123.308 Y9.768 E6.26236
G1 X122.889 Y9.768 E.01314
G1 X122.889 Y209.497 E6.26236
G1 X122.47 Y209.497 E.01314
G1 X122.47 Y9.768 E6.26236
G1 X122.051 Y9.768 E.01314
M73 Q6 S215
G1 X122.051 Y209.497 E6.26236
G1 X121.632 Y209.497 E.01314
G1 X121.632 Y9.768 E6.26236
G1 X121.213 Y9.768 E.01314
G1 X121.213 Y209.497 E6.26236
G1 X120.794 Y209.497 E.01314
M73 P6 R213
G1 X120.794 Y9.768 E6.26236
G1 X120.375 Y9.768 E.01314
G1 X120.375 Y209.497 E6.26236
G1 X119.956 Y209.497 E.01314
G1 X119.956 Y9.768 E6.26236
G1 X119.537 Y9.768 E.01314
M73 Q6 S214
G1 X119.537 Y209.497 E6.26236
G1 X119.118 Y209.497 E.01314
G1 X119.119 Y9.768 E6.26236
G1 X118.7 Y9.768 E.01314
G1 X118.7 Y209.497 E6.26236
G1 X118.281 Y209.497 E.01314
M73 P7 R212
M73 Q7 S214
G1 X118.281 Y9.768 E6.26236
G1 X117.862 Y9.768 E.01314
G1 X117.862 Y209.497 E6.26236
G1 X117.443 Y209.497 E.01314
G1 X117.443 Y9.768 E6.26236
G1 X117.024 Y9.768 E.01314
M73 Q7 S213
G1 X117.024 Y209.497 E6.26236
G1 X116.605 Y209.497 E.01314
G1 X116.605 Y9.768 E6.26236
G1 X116.186 Y9.768 E.01314
G1 X116.186 Y209.497 E6.26236
G1 X115.767 Y209.497 E.01314
M73 P7 R211
G1 X115.767 Y9.768 E6.26236
G1 X115.348 Y9.768 E.01314
G1 X115.348 Y209.497 E6.26236
G1 X114.929 Y209.497 E.01314
G1 X114.929 Y9.768 E6.26236
G1 X114.51 Y9.768 E.01314
M73 Q7 S212
G1 X114.51 Y209.497 E6.26236
G1 X114.091 Y209.497 E.01314
G1 X114.091 Y9.768 E6.26236
G1 X113.672 Y9.768 E.01314
G1 X113.672 Y209.497 E6.26236
G1 X113.253 Y209.497 E.01314
M73 P7 R210
G1 X113.253 Y9.768 E6.26236
G1 X112.834 Y9.768 E.01314
G1 X112.834 Y209.497 E6.26236
G1 X112.415 Y209.497 E.01314
M73 P8 R210
M73 Q8 S212
G1 X112.415 Y9.768 E6.26236
G1 X111.996 Y9.768 E.01314
M73 Q8 S211
G1 X111.996 Y209.497 E6.26236
G1 X111.577 Y209.497 E.01314
G1 X111.577 Y9.768 E6.26236
G1 X111.158 Y9.768 E.01314
G1 X111.158 Y209.497 E6.26236
G1 X110.739 Y209.497 E.01314
M73 P8 R209
G1 X110.739 Y9.768 E6.26236
G1 X110.32 Y9.768 E.01314
G1 X110.32 Y209.497 E6.26236
G1 X109.901 Y209.497 E.01314
G1 X109.901 Y9.768 E6.26236
G1 X109.482 Y9.768 E.01314
M73 Q8 S210
G1 X109.482 Y209.497 E6.26236
G1 X109.063 Y209.497 E.01314
G1 X109.063 Y9.768 E6.26236
G1 X108.644 Y9.768 E.01314
G1 X108.644 Y209.497 E6.26236
G1 X108.225 Y209.497 E.01314
M73 P8 R208
G1 X108.225 Y9.768 E6.26236
G1 X107.806 Y9.768 E.01314
G1 X107.806 Y209.497 E6.26236
G1 X107.387 Y209.497 E.01314
G1 X107.387 Y9.768 E6.26236
G1 X106.968 Y9.768 E.01314
M73 P9 R208
M73 Q8 S209
G1 X106.968 Y174.831 E5.17543
G1 X106.86 Y174.723 E.00479
M73 Q9 S209
G1 X106.549 Y174.723 E.00975
G1 X106.549 Y9.768 E5.17205
G1 X106.13 Y9.768 E.01314
G1 X106.13 Y174.723 E5.17205
G1 X105.711 Y174.723 E.01314
M73 P9 R207
G1 X105.711 Y9.768 E5.17205
G1 X105.292 Y9.768 E.01314
G1 X105.292 Y174.723 E5.17205
G1 X104.873 Y174.723 E.01314
G1 X104.873 Y9.768 E5.17205
G1 X104.454 Y9.768 E.01314
G1 X104.454 Y174.723 E5.17205
G1 X104.035 Y174.723 E.01314
M73 Q9 S208
G1 X104.035 Y9.768 E5.17205
G1 X103.616 Y9.768 E.01314
G1 X103.616 Y174.723 E5.17205
G1 X103.197 Y174.723 E.01314
G1 X103.197 Y9.768 E5.17205
G1 X102.778 Y9.768 E.01314
M73 P9 R206
G1 X102.778 Y174.723 E5.17205
G1 X102.359 Y174.723 E.01314
G1 X102.359 Y9.768 E5.17205
G1 X101.94 Y9.768 E.01314
G1 X101.94 Y174.723 E5.17205
G1 X101.521 Y174.723 E.01314
G1 X101.521 Y9.768 E5.17205
G1 X101.102 Y9.768 E.01314
M73 Q9 S207
G1 X101.102 Y174.723 E5.17205
G1 X100.684 Y174.723 E.01311
G1 X100.684 Y9.768 E5.17205
G1 X100.265 Y9.768 E.01314
G1 X100.265 Y174.723 E5.17205
G1 X99.846 Y174.723 E.01314
M73 P10 R206
G1 X99.846 Y9.768 E5.17205
G1 X99.427 Y9.768 E.01314
M73 P10 R205
M73 Q10 S207
G1 X99.427 Y174.723 E5.17205
G1 X99.008 Y174.723 E.01314
G1 X99.008 Y9.768 E5.17205
G1 X98.589 Y9.768 E.01314
G1 X98.589 Y174.723 E5.17205
G1 X98.17 Y174.723 E.01314
M73 Q10 S206
G1 X98.17 Y9.768 E5.17205
G1 X97.751 Y9.768 E.01314
G1 X97.751 Y175.079 E5.18321
G1 X97.574 Y175.256 E.00785
G1 X97.574 Y184.009 E.27444
G1 X97.751 Y184.186 E.00785
G1 X97.751 Y209.497 E.79361
G1 X98.17 Y209.497 E.01314
G1 X98.17 Y184.542 E.78245
G1 X98.589 Y184.542 E.01314
G1 X98.589 Y209.497 E.78245
G1 X99.008 Y209.497 E.01314
G1 X99.008 Y184.542 E.78245
G1 X99.427 Y184.542 E.01314
G1 X99.427 Y209.497 E.78245
G1 X99.846 Y209.497 E.01314
G1 X99.846 Y184.542 E.78245
G1 X100.265 Y184.542 E.01314
G1 X100.265 Y209.497 E.78245
G1 X100.684 Y209.497 E.01314
G1 X100.684 Y184.542 E.78245
G1 X101.102 Y184.542 E.01311
G1 X101.102 Y209.497 E.78245
G1 X101.521 Y209.497 E.01314
M73 P10 R204
G1 X101.521 Y184.542 E.78245
G1 X101.94 Y184.542 E.01314
G1 X101.94 Y209.497 E.78245
G1 X102.359 Y209.497 E.01314
G1 X102.359 Y184.542 E.78245
G1 X102.778 Y184.542 E.01314
G1 X102.778 Y209.497 E.78245
G1 X103.197 Y209.497 E.01314
G1 X103.197 Y184.542 E.78245
G1 X103.616 Y184.542 E.01314
G1 X103.616 Y209.497 E.78245
G1 X104.035 Y209.497 E.01314
G1 X104.035 Y184.542 E.78245
G1 X104.454 Y184.542 E.01314
G1 X104.454 Y209.497 E.78245
G1 X104.873 Y209.497 E.01314
G1 X104.873 Y184.542 E.78245
G1 X105.292 Y184.542 E.01314
G1 X105.292 Y209.497 E.78245
G1 X105.711 Y209.497 E.01314
G1 X105.711 Y184.542 E.78245
G1 X106.13 Y184.542 E.01314
G1 X106.13 Y209.497 E.78245
G1 X106.549 Y209.497 E.01314
G1 X106.549 Y184.542 E.78245
G1 X106.86 Y184.542 E.00975
G1 X106.968 Y184.433 E.00481
G1 X106.968 Y209.666 E.79116
M204 S1000
G1 X97.332 Y209.666 F10800
M204 S800
G1 F1200
G1 X97.332 Y9.768 E6.26766
G1 X96.913 Y9.768 E.01314
M73 Q10 S205
G1 X96.913 Y209.497 E6.26236
G1 X96.494 Y209.497 E.01314
G1 X96.494 Y9.768 E6.26236
G1 X96.075 Y9.768 E.01314
G1 X96.075 Y209.497 E6.26236
G1 X95.656 Y209.497 E.01314
G1 X95.656 Y9.768 E6.26236
G1 X95.237 Y9.768 E.01314
M73 P10 R203
G1 X95.237 Y209.497 E6.26236
G1 X94.818 Y209.497 E.01314
M73 P11 R203
G1 X94.818 Y9.768 E6.26236
G1 X94.809 Y32.924 E.72604
M73 Q11 S204
G1 X94.399 Y32.924 E.01286
G1 X94.399 Y45.088 E.38139
G1 X93.98 Y45.088 E.01314
G1 X93.98 Y32.924 E.38139
G1 X93.561 Y32.924 E.01314
G1 X93.561 Y45.088 E.38139
G1 X93.142 Y45.088 E.01314
G1 X93.142 Y32.924 E.38139
G1 X92.723 Y32.924 E.01314
G1 X92.723 Y45.088 E.38139
G1 X92.304 Y45.088 E.01314
G1 X92.304 Y32.924 E.38139
G1 X91.885 Y32.924 E.01314
G1 X91.885 Y45.088 E.38139
G1 X91.466 Y45.088 E.01314
G1 X91.466 Y32.924 E.38139
G1 X91.047 Y32.924 E.01314
G1 X91.047 Y45.088 E.38139
G1 X90.628 Y45.088 E.01314
G1 X90.628 Y32.924 E.38139
G1 X90.209 Y32.924 E.01314
G1 X90.209 Y45.088 E.38139
G1 X89.79 Y45.088 E.01314
G1 X89.79 Y32.924 E.38139
G1 X89.371 Y32.924 E.01314
G1 X89.371 Y45.088 E.38139
G1 X88.952 Y45.088 E.01314
G1 X88.952 Y32.924 E.38139
G1 X88.533 Y32.924 E.01314
G1 X88.533 Y45.088 E.38139
G1 X88.114 Y45.088 E.01314
G1 X88.114 Y32.924 E.38139
G1 X87.695 Y32.924 E.01314
G1 X87.695 Y45.088 E.38139
G1 X87.276 Y45.088 E.01314
G1 X87.276 Y32.924 E.38139
G1 X86.857 Y32.924 E.01314
G1 X86.857 Y45.088 E.38139
G1 X86.438 Y45.088 E.01314
G1 X86.438 Y32.924 E.38139
G1 X86.019 Y32.924 E.01314
G1 X86.019 Y45.088 E.38139
G1 X85.6 Y45.088 E.01314
G1 X85.6 Y32.754 E.38672
M204 S1000
;WIPE_START
G1 F8640
G1 X85.6 Y36.219 E-.8
;WIPE_END
G1 Z.6 F720
G1 X102.636 Y177.207 F10800
G1 Z.2 F720
G1 E.8 F2100
M204 S800
G1 F1200
G1 X102.938 Y177.246 E.00955
G1 X103.234 Y177.321 E.00957
G1 X103.654 Y177.503 E.01435
G1 X104.032 Y177.76 E.01433
G1 X104.355 Y178.084 E.01434
G1 X104.612 Y178.462 E.01433
