; generated by PrusaSlicer 2.6.0+MacOS-x64 on 2024-01-02 at 12:50:24 UTC


;
;
; 

; external perimeters extrusion width = 0.60mm
; perimeters extrusion width = 0.50mm
; infill extrusion width = 0.50mm
; solid infill extrusion width = 0.50mm
; top infill extrusion width = 0.45mm
; support material extrusion width = 0.38mm
; first layer extrusion width = 0.42mm

; external perimeters extrusion width = 0.60mm
; perimeters extrusion width = 0.50mm
; infill extrusion width = 0.50mm
; solid infill extrusion width = 0.50mm
; top infill extrusion width = 0.45mm
; support material extrusion width = 0.38mm
; first layer extrusion width = 0.42mm

M73 P0 R8
M73 Q0 S8
M201 X1000 Y1000 Z200 E5000 ; sets maximum accelerations, mm/sec^2
M203 X200 Y200 Z12 E120 ; sets maximum feedrates, mm / sec
M204 S1250 T1250 ; sets acceleration (S) and retract acceleration (R), mm/sec^2
M205 X8.00 Y8.00 Z0.40 E4.50 ; sets the jerk limits, mm/sec
M205 S0 T0 ; sets the minimum extruding and travel feed rate, mm/sec
;TYPE:Custom
M862.3 P "MK3S" ; printer model check
M862.1 P0.4 ; nozzle diameter check
M115 U3.12.2 ; tell printer latest fw version
G90 ; use absolute coordinates
M83 ; extruder relative mode
M104 S215 ; set extruder temp
M140 S60 ; set bed temp
M190 S60 ; wait for bed temp
M109 S215 ; wait for extruder temp
G28 W ; home all without mesh bed level
G80 ; mesh bed leveling

G1 Z0.2 F720
G1 Y-3 F1000 ; go outside print area
G92 E0
G1 X60 E9 F1000 ; intro line
G1 X100 E12.5 F1000 ; intro line

G92 E0
M221 S95

; Don't change E values below. Excessive value can damage the printer.

M907 E538 ; set extruder motor current
G21 ; set units to millimeters
G90 ; use absolute coordinates
M83 ; use relative distances for extrusion
M900 K0.05 ; Filament gcode LA 1.5
M900 K30 ; Filament gcode LA 1.0
M107
;LAYER_CHANGE
;Z:0.2
;HEIGHT:0.2
;BEFORE_LAYER_CHANGE
G92 E0.0
;0.2


G1 E-.8 F2100
M73 P1 R8
M73 Q1 S8
G1 Z.4 F720
;AFTER_LAYER_CHANGE
;0.2
G1 X130.974 Y96.912 F10800
G1 Z.2 F720
G1 E.8 F2100
M204 S800
;TYPE:Skirt/Brim
;WIDTH:0.42
G1 F1200
G1 X132.093 Y95.957 E.04613
G1 X133.256 Y95.7 E.03734
G1 X143.256 Y95.7 E.31354
G1 X144.673 Y96.093 E.04611
G1 X145.686 Y97.159 E.04611
G1 X146.01 Y98.454 E.04186
G1 X146.006 Y108.602 E.31818
G1 X145.25 Y122.648 E.44104
G1 X144.782 Y124.042 E.04611
G1 X143.663 Y124.997 E.04613
G1 X142.5 Y125.254 E.03734
G1 X132.5 Y125.254 E.31354
G1 X131.083 Y124.861 E.04611
G1 X130.069 Y123.795 E.04613
G1 X129.746 Y122.5 E.04185
G1 X129.75 Y112.352 E.31818
G1 X130.506 Y98.306 E.44104
M73 Q2 S8
G1 X130.955 Y96.969 E.04422
M204 S1000
M73 P2 R8
G1 X131.322 Y97.101 F10800
M204 S800
G1 F1200
G1 X131.343 Y97.042 E.00196
G1 X132.435 Y96.223 E.0428
G1 X133.256 Y96.077 E.02615
G1 X143.256 Y96.077 E.31354
G1 X144.563 Y96.469 E.04278
G1 X145.439 Y97.514 E.04275
G1 X145.633 Y98.454 E.03009
G1 X145.633 Y108.454 E.31354
G1 X144.874 Y122.628 E.44505
G1 X144.412 Y123.912 E.04279
G1 X143.321 Y124.731 E.04277
G1 X142.5 Y124.877 E.02615
G1 X132.5 Y124.877 E.31354
G1 X131.193 Y124.485 E.04278
G1 X130.317 Y123.44 E.04275
G1 X130.123 Y122.5 E.03009
G1 X130.123 Y112.5 E.31354
G1 X130.882 Y98.326 E.44505
G1 X131.302 Y97.157 E.03895
M204 S1000
; printing object louver_hole.stl id:0 copy 0
;WIPE_START
G1 F8640
G1 X131.343 Y97.042 E-.02819
G1 X132.435 Y96.223 E-.31518
G1 X133.256 Y96.077 E-.19255
G1 X134.4 Y96.077 E-.26408
;WIPE_END
G1 Z.6 F720
M73 Q3 S8
G1 X142.469 Y107.667 F10800
G1 Z.2 F720
G1 E.8 F2100
M204 S800
;TYPE:Perimeter
;WIDTH:0.419999
M73 P3 R8
G1 F1200
G1 X134.043 Y107.667 E.26419
G1 X134.043 Y99.241 E.26419
G1 X142.469 Y99.241 E.26419
G1 X142.469 Y107.607 E.26231
M204 S1000
G1 X142.846 Y108.044 F10800
M204 S800
;TYPE:External perimeter
G1 F1200
G1 X133.666 Y108.044 E.28783
G1 X133.666 Y98.864 E.28783
G1 X142.846 Y98.864 E.28783
G1 X142.846 Y107.984 E.28595
M204 S1000
G1 X142.459 Y107.941 F10800
;WIPE_START
G1 F8640
G1 X139.381 Y108.007 E-.8
;WIPE_END
G1 Z.6 F720
G1 X142.299 Y100.186 F10800
G1 Z.2 F720
G1 E.8 F2100
M204 S800
;TYPE:Solid infill
;WIDTH:0.425897
G1 F1200
G1 X141.694 Y99.581 E.02725
G1 X141.152 Y99.581 E.01726
G1 X142.129 Y100.558 E.044
G1 X142.129 Y101.099 E.01723
G1 X140.611 Y99.581 E.06836
G1 X140.069 Y99.581 E.01726
G1 X142.129 Y101.641 E.09277
G1 X142.129 Y102.182 E.01723
G1 X139.527 Y99.581 E.11716
G1 X138.986 Y99.581 E.01723
G1 X142.129 Y102.724 E.14155
G1 X142.129 Y103.266 E.01726
M73 Q4 S8
G1 X138.444 Y99.581 E.16595
G1 X137.903 Y99.581 E.01723
M73 P4 R8
G1 X142.129 Y103.807 E.19032
G1 X142.129 Y104.349 E.01726
G1 X137.361 Y99.581 E.21473
G1 X136.819 Y99.581 E.01726
G1 X142.129 Y104.89 E.23911
G1 X142.129 Y105.432 E.01726
G1 X136.278 Y99.581 E.2635
G1 X135.736 Y99.581 E.01726
G1 X142.129 Y105.974 E.28791
G1 X142.129 Y106.515 E.01723
G1 X135.195 Y99.581 E.31227
G1 X134.653 Y99.581 E.01726
G1 X142.129 Y107.057 E.33668
G1 X142.129 Y107.328 E.00863
G1 X141.858 Y107.328 E.00863
G1 X134.382 Y99.851 E.33671
G1 X134.382 Y100.393 E.01726
G1 X141.317 Y107.328 E.31232
G1 X140.775 Y107.328 E.01726
G1 X134.382 Y100.935 E.28791
G1 X134.382 Y101.476 E.01723
G1 X140.234 Y107.328 E.26355
G1 X139.692 Y107.328 E.01726
M73 P5 R8
M73 Q5 S8
G1 X134.382 Y102.018 E.23914
G1 X134.382 Y102.559 E.01723
G1 X139.15 Y107.328 E.21475
G1 X138.609 Y107.328 E.01723
G1 X134.382 Y103.101 E.19036
G1 X134.382 Y103.643 E.01726
G1 X138.067 Y107.328 E.16595
G1 X137.526 Y107.328 E.01723
G1 X134.382 Y104.184 E.14159
G1 X134.382 Y104.726 E.01726
G1 X136.984 Y107.328 E.11718
G1 X136.442 Y107.328 E.01726
G1 X134.382 Y105.268 E.09277
G1 X134.382 Y105.809 E.01723
G1 X135.901 Y107.328 E.06841
G1 X135.359 Y107.328 E.01726
G1 X134.382 Y106.351 E.044
G1 X134.382 Y106.892 E.01723
G1 X134.987 Y107.497 E.02725
M204 S1000
; stop printing object louver_hole.stl id:0 copy 0
; printing object louver_hole.stl id:1 copy 0
;WIPE_START
G1 F8640
G1 X134.382 Y106.892 E-.19756
G1 X134.382 Y106.351 E-.12492
G1 X135.359 Y107.328 E-.31904
G1 X135.901 Y107.328 E-.12515
G1 X135.799 Y107.226 E-.03333
;WIPE_END
G1 Z.6 F720
G1 X141.713 Y121.713 F10800
G1 Z.2 F720
G1 E.8 F2100
M204 S800
;TYPE:Perimeter
;WIDTH:0.419999
G1 F1200
G1 X133.287 Y121.713 E.26419
G1 X133.287 Y113.287 E.26419
G1 X141.713 Y113.287 E.26419
G1 X141.713 Y121.653 E.26231
M204 S1000
G1 X142.09 Y122.09 F10800
M204 S800
;TYPE:External perimeter
G1 F1200
G1 X132.91 Y122.09 E.28783
G1 X132.91 Y112.91 E.28783
M73 Q6 S8
G1 X142.09 Y112.91 E.28783
M73 P6 R8
G1 X142.09 Y122.03 E.28595
M204 S1000
G1 X141.704 Y121.986 F10800
;WIPE_START
G1 F8640
G1 X138.625 Y122.053 E-.8
;WIPE_END
G1 Z.6 F720
G1 X141.543 Y114.232 F10800
G1 Z.2 F720
G1 E.8 F2100
M204 S800
;TYPE:Solid infill
;WIDTH:0.425897
G1 F1200
G1 X140.938 Y113.626 E.02727
G1 X140.397 Y113.626 E.01723
G1 X141.374 Y114.603 E.044
G1 X141.374 Y115.145 E.01726
G1 X139.855 Y113.626 E.06841
G1 X139.313 Y113.626 E.01726
G1 X141.374 Y115.687 E.09282
G1 X141.374 Y116.228 E.01723
G1 X138.772 Y113.626 E.11718
G1 X138.23 Y113.626 E.01726
G1 X141.374 Y116.77 E.14159
G1 X141.374 Y117.312 E.01726
G1 X137.688 Y113.626 E.166
G1 X137.147 Y113.626 E.01723
G1 X141.374 Y117.853 E.19036
G1 X141.374 Y118.395 E.01726
G1 X136.605 Y113.626 E.21477
G1 X136.064 Y113.626 E.01723
G1 X141.374 Y118.936 E.23914
G1 X141.374 Y119.478 E.01726
G1 X135.522 Y113.626 E.26355
G1 X134.98 Y113.626 E.01726
G1 X141.374 Y120.02 E.28795
G1 X141.374 Y120.561 E.01723
M73 Q7 S8
G1 X134.439 Y113.626 E.31232
G1 X133.897 Y113.626 E.01726
M73 P7 R8
G1 X141.374 Y121.103 E.33673
G1 X141.374 Y121.374 E.00863
G1 X141.103 Y121.374 E.00863
G1 X133.626 Y113.897 E.33673
G1 X133.626 Y114.439 E.01726
G1 X140.561 Y121.374 E.31232
G1 X140.019 Y121.374 E.01726
G1 X133.626 Y114.981 E.28791
G1 X133.626 Y115.522 E.01723
G1 X139.478 Y121.374 E.26355
G1 X138.936 Y121.374 E.01726
G1 X133.626 Y116.064 E.23914
G1 X133.626 Y116.605 E.01723
G1 X138.395 Y121.374 E.21477
G1 X137.853 Y121.374 E.01726
G1 X133.626 Y117.147 E.19036
G1 X133.626 Y117.689 E.01726
G1 X137.311 Y121.374 E.16595
G1 X136.77 Y121.374 E.01723
G1 X133.626 Y118.23 E.14159
G1 X133.626 Y118.772 E.01726
G1 X136.228 Y121.374 E.11718
G1 X135.687 Y121.374 E.01723
G1 X133.626 Y119.313 E.09282
G1 X133.626 Y119.855 E.01726
G1 X135.145 Y121.374 E.06841
M73 Q8 S8
G1 X134.603 Y121.374 E.01726
G1 X133.626 Y120.397 E.044
G1 X133.626 Y120.938 E.01723
G1 X134.231 Y121.543 E.02725
M204 S1000
; stop printing object louver_hole.stl id:1 copy 0
M106 S84.15
;LAYER_CHANGE
;Z:0.5
;HEIGHT:0.3
;BEFORE_LAYER_CHANGE
G92 E0.0
;0.5


;WIPE_START
M73 P8 R8
G1 F8640
G1 X133.626 Y120.938 E-.19756
G1 X133.626 Y120.397 E-.12492
G1 X134.603 Y121.374 E-.31904
G1 X135.145 Y121.374 E-.12515
G1 X135.043 Y121.272 E-.03333
;WIPE_END
G1 Z.6 F720
;AFTER_LAYER_CHANGE
;0.5
G1 X135.043 Y125.254 F10800
G1 Z.5 F720
G1 E.8 F2100
;TYPE:Skirt/Brim
;WIDTH:0.42
G1 F2700
G1 X132.5 Y125.254 E.11279
G1 X131.083 Y124.861 E.06522
G1 X130.069 Y123.795 E.06526
G1 X129.746 Y122.5 E.0592
G1 X129.75 Y112.352 E.45011
G1 X130.506 Y98.306 E.62391
G1 X130.974 Y96.912 E.06522
G1 X132.093 Y95.957 E.06525
G1 X133.256 Y95.7 E.05283
G1 X143.256 Y95.7 E.44355
G1 X144.673 Y96.093 E.06522
G1 X145.686 Y97.159 E.06523
G1 X146.01 Y98.454 E.05921
G1 X146.006 Y108.602 E.45011
G1 X145.25 Y122.648 E.62391
G1 X144.782 Y124.042 E.06522
G1 X143.663 Y124.997 E.06525
G1 X142.5 Y125.254 E.05283
G1 X135.103 Y125.254 E.32809
G1 X135.103 Y124.877 F10800
G1 F2700
G1 X132.5 Y124.877 E.11546
G1 X131.193 Y124.485 E.06052
G1 X130.317 Y123.44 E.06048
G1 X130.123 Y122.5 E.04257
G1 X130.123 Y112.5 E.44355
G1 X130.882 Y98.326 E.62959
G1 X131.343 Y97.042 E.06051
G1 X132.435 Y96.223 E.06054
G1 X133.256 Y96.077 E.03699
G1 X143.256 Y96.077 E.44355
G1 X144.563 Y96.469 E.06052
G1 X145.439 Y97.514 E.06048
G1 X145.633 Y98.454 E.04257
G1 X145.633 Y108.454 E.44355
G1 X144.874 Y122.628 E.62959
G1 X144.412 Y123.912 E.06053
G1 X143.321 Y124.731 E.06051
G1 X142.5 Y124.877 E.03699
G1 X135.163 Y124.877 E.32543
; printing object louver_hole.stl id:0 copy 0
;WIPE_START
G1 F8640
G1 X132.5 Y124.877 E-.61489
G1 X131.732 Y124.647 E-.18511
;WIPE_END
G1 Z.9 F720
G1 X142.47 Y107.668 F10800
G1 Z.5 F720
M73 Q9 S8
G1 E.8 F2100
M204 S800
;TYPE:Perimeter
;WIDTH:0.5
G1 F1800
G1 X134.041 Y107.668 E.45797
G1 X134.041 Y99.24 E.45792
M73 P9 R8
G1 X142.47 Y99.24 E.45797
G1 X142.47 Y107.608 E.45466
M204 S1000
G1 X142.956 Y108.154 F10800
M204 S800
;TYPE:External perimeter
;WIDTH:0.6
G1 F1799.998

G1 X142.356 Y108.154 E.04008
G1 X134.156 Y108.154 E.5478
G1 X133.556 Y108.154 E.04008
G1 X133.556 Y107.554 E.04008
G1 X133.556 Y99.354 E.5478
G1 X133.556 Y98.754 E.04008
G1 X134.156 Y98.754 E.04008
G1 X142.356 Y98.754 E.5478
G1 X142.956 Y98.754 E.04008
G1 X142.956 Y99.354 E.04008
G1 X142.956 Y107.494 E.5438
G1 X142.956 Y108.094 E.04008

M204 S1000
G1 X142.569 Y108.051 F10800
;WIPE_START
G1 F8640
G1 X139.491 Y108.116 E-.8
;WIPE_END
G1 Z.9 F720
G1 X134.552 Y99.667 F10800
G1 Z.5 F720
G1 E.8 F2100
;TYPE:Solid infill
;WIDTH:0.605691
G1 F4800
G1 X134.504 Y99.619 E.00458
G1 X134.438 Y99.637 E.00462
G1 X134.421 Y99.702 E.00454
G1 X134.469 Y99.75 E.00458
G1 X134.534 Y99.732 E.00455
;WIDTH:0.5
G1 X134.433 Y100.428 E.03821
G1 X135.23 Y99.632 E.0612
G1 X135.846 Y99.632 E.03347
G1 X134.433 Y101.044 E.10853
G1 X134.433 Y101.66 E.03347
G1 X136.462 Y99.632 E.15587
G1 X137.078 Y99.632 E.03347
G1 X134.433 Y102.276 E.2032
G1 X134.433 Y102.892 E.03347
G1 X137.694 Y99.632 E.25053
G1 X138.31 Y99.632 E.03347
G1 X134.433 Y103.509 E.2979
G1 X134.433 Y104.125 E.03347
G1 X138.926 Y99.632 E.34523
G1 X139.542 Y99.632 E.03347
G1 X134.433 Y104.741 E.39257
G1 X134.433 Y105.357 E.03347
G1 X140.158 Y99.632 E.4399
G1 X140.774 Y99.632 E.03347
G1 X134.433 Y105.973 E.48723
G1 X134.433 Y106.589 E.03347
G1 X141.391 Y99.632 E.5346
G1 X142.007 Y99.632 E.03347
G1 X134.433 Y107.205 E.58193
G1 X134.358 Y107.316 E.00728
;WIDTH:0.45219
G1 X134.283 Y107.427 E.00648
;WIDTH:0.404381
G1 X134.538 Y107.444 E.01084
;WIDTH:0.5
G1 X134.978 Y107.276 E.02559
G1 X142.078 Y100.176 E.54555
G1 X142.078 Y100.792 E.03347
M73 Q10 S8
G1 X135.594 Y107.276 E.49822
G1 X136.21 Y107.276 E.03347
M73 P10 R8
G1 X142.078 Y101.408 E.45089
G1 X142.078 Y102.024 E.03347
G1 X136.826 Y107.276 E.40355
G1 X137.442 Y107.276 E.03347
G1 X142.078 Y102.641 E.35618
G1 X142.078 Y103.257 E.03347
G1 X138.058 Y107.276 E.30885
G1 X138.674 Y107.276 E.03347
G1 X142.078 Y103.873 E.26152
G1 X142.078 Y104.489 E.03347
G1 X139.29 Y107.276 E.21419
G1 X139.906 Y107.276 E.03347
G1 X142.078 Y105.105 E.16685
G1 X142.078 Y105.721 E.03347
G1 X140.522 Y107.276 E.11952
G1 X141.139 Y107.276 E.03352
G1 X142.078 Y106.337 E.07215
G1 X142.078 Y106.953 E.03347
G1 X141.755 Y107.276 E.02482
; stop printing object louver_hole.stl id:0 copy 0
; printing object louver_hole.stl id:1 copy 0
;WIPE_START
G1 F8640
G1 X142.078 Y106.953 E-.10547
G1 X142.078 Y106.337 E-.14224
G1 X141.139 Y107.276 E-.30663
G1 X140.522 Y107.276 E-.14247
G1 X140.838 Y106.96 E-.10319
;WIPE_END
G1 Z.9 F720
G1 X141.714 Y121.714 F10800
G1 Z.5 F720
G1 E.8 F2100
M204 S800
;TYPE:Perimeter
G1 F1800
G1 X133.286 Y121.714 E.45792
G1 X133.286 Y113.286 E.45792
M73 P10 R7
G1 X141.714 Y113.286 E.45792
G1 X141.714 Y121.654 E.45466
M204 S1000
G1 X142.2 Y122.2 F10800
M204 S800
;TYPE:External perimeter
;WIDTH:0.6
M73 Q10 S7
G1 F1799.998

G1 X141.6 Y122.2 E.04008
G1 X133.4 Y122.2 E.5478
G1 X132.8 Y122.2 E.04008
G1 X132.8 Y121.6 E.04008
G1 X132.8 Y113.4 E.5478
G1 X132.8 Y112.8 E.04008
G1 X133.4 Y112.8 E.04008
G1 X141.6 Y112.8 E.5478
G1 X142.2 Y112.8 E.04008
G1 X142.2 Y113.4 E.04008
G1 X142.2 Y121.54 E.5438
G1 X142.2 Y122.14 E.04008

M204 S1000
G1 X141.814 Y122.096 F10800
;WIPE_START
G1 F8640
G1 X138.735 Y122.162 E-.8
;WIPE_END
G1 Z.9 F720
G1 X133.796 Y113.713 F10800
G1 Z.5 F720
G1 E.8 F2100
;TYPE:Solid infill
;WIDTH:0.605691
G1 F4800
G1 X133.748 Y113.665 E.00458
G1 X133.683 Y113.683 E.00455
M73 Q11 S7
G1 X133.665 Y113.748 E.00455
G1 X133.713 Y113.796 E.00458
G1 X133.778 Y113.778 E.00455
;WIDTH:0.5
G1 X133.678 Y114.474 E.0382
G1 X134.474 Y113.678 E.06116
G1 X135.09 Y113.678 E.03347
G1 X133.678 Y115.09 E.1085
G1 X133.678 Y115.706 E.03347
M73 P11 R7
G1 X135.706 Y113.678 E.15583
G1 X136.322 Y113.678 E.03347
G1 X133.678 Y116.322 E.20316
G1 X133.678 Y116.938 E.03347
G1 X136.938 Y113.678 E.25049
G1 X137.554 Y113.678 E.03347
G1 X133.678 Y117.554 E.29782
G1 X133.678 Y118.171 E.03352
G1 X138.171 Y113.678 E.34523
G1 X138.787 Y113.678 E.03347
G1 X133.678 Y118.787 E.39257
G1 X133.678 Y119.403 E.03347
G1 X139.403 Y113.678 E.4399
G1 X140.019 Y113.678 E.03347
G1 X133.678 Y120.019 E.48723
G1 X133.678 Y120.635 E.03347
G1 X140.635 Y113.678 E.53456
G1 X141.251 Y113.678 E.03347
G1 X133.678 Y121.251 E.5819
G1 X133.602 Y121.362 E.00731
;WIDTH:0.45219
G1 X133.527 Y121.473 E.00648
;WIDTH:0.404381
G1 X133.782 Y121.49 E.01084
;WIDTH:0.5
G1 X134.222 Y121.322 E.02559
G1 X141.322 Y114.222 E.54555
G1 X141.322 Y114.838 E.03347
G1 X134.838 Y121.322 E.49822
G1 X135.454 Y121.322 E.03347
G1 X141.322 Y115.454 E.45089
G1 X141.322 Y116.07 E.03347
G1 X136.07 Y121.322 E.40355
G1 X136.686 Y121.322 E.03347
G1 X141.322 Y116.686 E.35622
G1 X141.322 Y117.303 E.03352
G1 X137.303 Y121.322 E.30881
G1 X137.919 Y121.322 E.03347
G1 X141.322 Y117.919 E.26148
G1 X141.322 Y118.535 E.03347
G1 X138.535 Y121.322 E.21415
G1 X139.151 Y121.322 E.03347
G1 X141.322 Y119.151 E.16682
G1 X141.322 Y119.767 E.03347
G1 X139.767 Y121.322 E.11948
G1 X140.383 Y121.322 E.03347
G1 X141.322 Y120.383 E.07215
G1 X141.322 Y120.999 E.03347
G1 X140.999 Y121.322 E.02482
; stop printing object louver_hole.stl id:1 copy 0
M106 S170.85
;LAYER_CHANGE
;Z:0.8
;HEIGHT:0.3
;BEFORE_LAYER_CHANGE
G92 E0.0
;0.8


;WIPE_START
G1 F8640
G1 X141.322 Y120.999 E-.10547
G1 X141.322 Y120.383 E-.14224
G1 X140.383 Y121.322 E-.30663
G1 X139.767 Y121.322 E-.14224
G1 X140.084 Y121.005 E-.10342
;WIPE_END
G1 Z.9 F720
;AFTER_LAYER_CHANGE
;0.8
G1 X140.084 Y125.254 F10800
G1 Z.8 F720
G1 E.8 F2100
;TYPE:Skirt/Brim
;WIDTH:0.42
G1 F2700
G1 X132.5 Y125.254 E.33639
G1 X131.083 Y124.861 E.06522
G1 X130.069 Y123.795 E.06526
G1 X129.746 Y122.5 E.0592
G1 X129.75 Y112.352 E.45011
G1 X130.506 Y98.306 E.62391
G1 X130.974 Y96.912 E.06522
G1 X132.093 Y95.957 E.06525
G1 X133.256 Y95.7 E.05283
