; generated by PrusaSlicer 2.8.0+MacOS-arm64 on 2024-10-10 at 00:22:56 UTC


;
;
; 

; external perimeters extrusion width = 0.60mm
; perimeters extrusion width = 0.50mm
; infill extrusion width = 0.50mm
; solid infill extrusion width = 0.50mm
; top infill extrusion width = 0.45mm
; first layer extrusion width = 0.42mm

M73 P0 R383
M73 Q0 S384
M201 X1000 Y1000 Z200 E5000 ; sets maximum accelerations, mm/sec^2
M203 X200 Y200 Z12 E120 ; sets maximum feedrates, mm / sec
M204 S1250 T1250 ; sets acceleration (S) and retract acceleration (R), mm/sec^2
M205 X8.00 Y8.00 Z0.40 E4.50 ; sets the jerk limits, mm/sec
M205 S0 T0 ; sets the minimum extruding and travel feed rate, mm/sec

; printing object stand.stl id:0 copy 0
; stop printing object stand.stl id:0 copy 0

;TYPE:Custom
M862.3 P "MK3S" ; printer model check
M862.1 P0.4 ; nozzle diameter check
M115 U3.12.2 ; tell printer latest fw version
G90 ; use absolute coordinates
M83 ; extruder relative mode
M104 S215 ; set extruder temp
M140 S60 ; set bed temp
M190 S60 ; wait for bed temp
M109 S215 ; wait for extruder temp
G28 W ; home all without mesh bed level
G80 ; mesh bed leveling

G1 Z0.2 F720
G1 Y-3 F1000 ; go outside print area
G92 E0
G1 X60 E9 F1000 ; intro line
G1 X100 E12.5 F1000 ; intro line

G92 E0
M221 S95

; Don't change E values below. Excessive value can damage the printer.

M907 E538 ; set extruder motor current
G21 ; set units to millimeters
G90 ; use absolute coordinates
M83 ; use relative distances for extrusion
M900 K0.05 ; Filament gcode LA 1.5
M900 K30 ; Filament gcode LA 1.0
M107
;LAYER_CHANGE
;Z:0.2
;HEIGHT:0.2
G1 E-.8 F2100
G1 Z.6 F720
G1 X66.285 Y59.169 F10800
G1 Z.2 F720
G1 E.8 F2100
M204 S800
;TYPE:Skirt/Brim
;WIDTH:0.42
G1 F1200
G1 X67.952 Y57.301 E.0785
G1 X73.294 Y51.754 E.24146
G1 X78.723 Y46.526 E.23632
M73 Q0 S383
G1 X84.391 Y41.464 E.23827
G1 X90.22 Y36.645 E.23713
G1 X96.255 Y32.037 E.23808
G1 X102.266 Y27.811 E.23039
G1 X108.438 Y23.829 E.2303
G1 X114.759 Y20.115 E.22987
G1 X120.96 Y16.817 E.22022
G1 X127.263 Y13.813 E.21892
G1 X133.562 Y11.161 E.21429
G1 X139.939 Y8.835 E.21283
G1 X146.052 Y6.951 E.20057
G1 X152.197 Y5.412 E.19862
G1 X158.243 Y4.259 E.19298
G1 X164.31 Y3.485 E.19177
G1 X169.952 Y3.134 E.17724
G1 X174.859 Y3.164 E.15386
G1 X175.732 Y3.176 E.02737
G1 X181.174 Y3.627 E.17122
G1 X186.407 Y4.483 E.16626
G1 X191.41 Y5.742 E.16176
G1 X195.968 Y7.326 E.1513
G1 X200.444 Y9.362 E.15418
G1 X204.628 Y11.786 E.15161
G1 X208.5 Y14.59 E.14989
G1 X212.203 Y17.924 E.15623
G1 X215.376 Y21.465 E.14908
G1 X218.18 Y25.338 E.14992
G1 X220.604 Y29.522 E.15161
G1 X222.639 Y33.998 E.15417
G1 X224.28 Y38.744 E.15745
G1 X225.483 Y43.559 E.15561
G1 X226.36 Y48.964 E.17169
G1 X226.796 Y54.396 E.17086
G1 X226.832 Y60.014 E.17615
G1 X226.467 Y65.797 E.18168
G1 X225.707 Y71.723 E.18733
G1 X224.554 Y77.769 E.19298
G1 X223.046 Y83.8 E.19492
G1 X221.095 Y90.133 E.20778
G1 X218.805 Y96.404 E.20932
G1 X216.152 Y102.702 E.21427
G1 X213.149 Y109.005 E.21891
G1 X209.806 Y115.288 E.22315
G1 X206.136 Y121.528 E.22698
G1 X202.204 Y127.627 E.22753
G1 X197.878 Y133.78 E.23583
G1 X193.321 Y139.746 E.23539
G1 X188.502 Y145.575 E.23713
G1 X183.44 Y151.243 E.23827
G1 X178.154 Y156.73 E.23889
G1 X172.665 Y162.014 E.23889
G1 X166.994 Y167.074 E.2383
G1 X161.228 Y171.838 E.23451
G1 X155.262 Y176.395 E.23539
G1 X149.182 Y180.673 E.23309
G1 X143.01 Y184.654 E.23028
G1 X136.771 Y188.323 E.22694
G1 X130.488 Y191.667 E.22316
G1 X124.092 Y194.712 E.22211
G1 X117.886 Y197.323 E.2111
G1 X111.615 Y199.613 E.20932
G1 X105.396 Y201.532 E.20406
G1 X99.251 Y203.071 E.19862
G1 X93.205 Y204.224 E.19298
G1 X87.279 Y204.985 E.18733
G1 X81.344 Y205.354 E.18645
G1 X75.878 Y205.314 E.17139
G1 X70.446 Y204.877 E.17087
G1 X65.222 Y204.038 E.16589
G1 X60.226 Y202.797 E.16141
G1 X55.48 Y201.157 E.15744
G1 X51.004 Y199.122 E.15417
G1 X46.633 Y196.576 E.1586
G1 X42.948 Y193.893 E.14292
G1 X39.407 Y190.721 E.14906
G1 X36.215 Y187.195 E.14913
G1 X33.268 Y183.146 E.15702
G1 X30.844 Y178.962 E.15161
G1 X28.808 Y174.486 E.15418
G1 X27.224 Y169.927 E.15133
G1 X25.928 Y164.744 E.16751
G1 X25.088 Y159.52 E.1659
G1 X24.652 Y154.088 E.17086
G1 X24.612 Y148.621 E.17142
G1 X24.981 Y142.687 E.18642
G1 X25.741 Y136.761 E.18733
G1 X26.894 Y130.715 E.19298
G1 X28.402 Y124.684 E.19492
G1 X30.353 Y118.351 E.20778
G1 X32.643 Y112.08 E.20932
G1 X35.254 Y105.873 E.21113
G1 X38.299 Y99.478 E.22208
G1 X41.642 Y93.195 E.22315
G1 X45.312 Y86.956 E.22695
G1 X49.244 Y80.857 E.22753
M73 P0 R382
G1 X53.57 Y74.703 E.23586
G1 X58.127 Y68.738 E.23536
G1 X62.946 Y62.909 E.23713
G1 X66.245 Y59.214 E.15531
M204 S1000
;WIPE_START
G1 F8640
G1 X66.285 Y59.169 E-.0139
G1 X67.952 Y57.301 E-.5781
G1 X68.577 Y56.652 E-.208
;WIPE_END
G1 Z.6 F720
; printing object stand.stl id:0 copy 0
G1 X102.417 Y125.699 F10800
G1 Z.2 F720
G1 E.8 F2100
M204 S800
;TYPE:Perimeter
;WIDTH:0.419999
G1 F1200
G1 X102.093 Y126.274 E.02069
G1 X101.539 Y126.917 E.02661
G1 X101.042 Y127.312 E.01991
G1 X100.39 Y127.664 E.02323
G1 X99.907 Y127.833 E.01604
G1 X99.196 Y127.961 E.02265
G1 X98.455 Y127.955 E.02323
G1 X97.95 Y127.872 E.01605
G1 X97.264 Y127.64 E.02271
G1 X96.618 Y127.279 E.0232
G1 X96.051 Y126.803 E.02321
G1 X95.583 Y126.228 E.02325
G1 X95.231 Y125.576 E.02323
G1 X95.007 Y124.871 E.02319
G1 X94.92 Y124.135 E.02324
G1 X94.972 Y123.396 E.02323
G1 X95.166 Y122.666 E.02368
G1 X95.482 Y122.013 E.02275
G1 X95.878 Y121.474 E.02097
G1 X96.465 Y120.914 E.02544
G1 X97.093 Y120.521 E.02323
G1 X97.564 Y120.322 E.01603
G1 X98.267 Y120.15 E.02269
G1 X98.767 Y120.105 E.01574
G1 X99.496 Y120.159 E.02292
G1 X100.214 Y120.348 E.02328
G1 X100.973 Y120.725 E.02657
G1 X101.478 Y121.108 E.01987
G1 X101.981 Y121.652 E.02323
G1 X102.266 Y122.078 E.01607
G1 X102.49 Y122.531 E.01585
G1 X102.7 Y123.211 E.02231
G1 X102.788 Y123.946 E.02321
G1 X102.768 Y124.458 E.01607
G1 X102.625 Y125.167 E.02268
G1 X102.45 Y125.641 E.01584
G1 X102.447 Y125.647 E.00021
M204 S1000
G1 X102.083 Y125.533 F10800
M204 S800
;TYPE:External perimeter
G1 F1200
G1 X101.766 Y126.087 E.02001
G1 X101.33 Y126.597 E.02104
G1 X100.807 Y127.016 E.02101
G1 X100.215 Y127.329 E.021
G1 X99.758 Y127.483 E.01512
G1 X99.133 Y127.589 E.01988
G1 X98.462 Y127.578 E.02104
G1 X97.988 Y127.493 E.0151
G1 X97.385 Y127.283 E.02002
G1 X96.807 Y126.952 E.02088
G1 X96.297 Y126.517 E.02102
G1 X95.878 Y125.994 E.02101
G1 X95.565 Y125.402 E.021
G1 X95.368 Y124.762 E.021
G1 X95.295 Y124.096 E.02101
G1 X95.348 Y123.428 E.02101
G1 X95.526 Y122.777 E.02116
G1 X95.82 Y122.18 E.02087
G1 X96.178 Y121.702 E.01872
G1 X96.718 Y121.194 E.02325
G1 X97.289 Y120.844 E.021
G1 X97.735 Y120.662 E.0151
G1 X98.356 Y120.516 E.02
G1 X98.814 Y120.482 E.0144
G1 X99.467 Y120.535 E.02054
G1 X100.113 Y120.711 E.02099
G1 X100.745 Y121.025 E.02213
G1 X101.252 Y121.41 E.01996
G1 X101.701 Y121.904 E.02093
G1 X101.961 Y122.304 E.01496
G1 X102.156 Y122.712 E.01418
G1 X102.34 Y123.323 E.02001
G1 X102.413 Y123.986 E.02091
G1 X102.388 Y124.467 E.0151
G1 X102.256 Y125.088 E.01991
G1 X102.107 Y125.478 E.01309
M204 S1000
;WIPE_START
G1 F8640
G1 X102.083 Y125.533 E-.01386
G1 X101.766 Y126.087 E-.14738
G1 X101.33 Y126.597 E-.15493
G1 X100.807 Y127.016 E-.15474
G1 X100.215 Y127.329 E-.15462
G1 X99.758 Y127.483 E-.11135
G1 X99.488 Y127.529 E-.06312
;WIPE_END
G1 Z.6 F720
G1 X65.186 Y64.868 F10800
G1 Z.2 F720
G1 E.8 F2100
M204 S800
;TYPE:Perimeter
G1 F1200
G1 X70.162 Y59.294 E.23428
G1 X75.369 Y53.887 E.23536
G1 X80.776 Y48.68 E.23536
G1 X86.362 Y43.694 E.23477
G1 X92.104 Y38.948 E.23357
G1 X97.979 Y34.462 E.23177
G1 X103.965 Y30.254 E.22942
G1 X110.037 Y26.339 E.22653
G1 X116.171 Y22.734 E.22308
G1 X122.342 Y19.452 E.21915
G1 X128.526 Y16.508 E.21475
G1 X134.698 Y13.911 E.20995
G1 X140.834 Y11.673 E.20479
G1 X146.908 Y9.801 E.19929
G1 X152.897 Y8.304 E.19356
G1 X158.775 Y7.187 E.1876
G1 X164.521 Y6.453 E.18163
G1 X170.109 Y6.106 E.17555
G1 X175.519 Y6.145 E.16963
G1 X180.729 Y6.569 E.1639
G1 X185.718 Y7.377 E.15846
G1 X190.466 Y8.564 E.15345
G1 X194.956 Y10.125 E.14905
G1 X199.171 Y12.052 E.14531
G1 X203.096 Y14.337 E.1424
G1 X206.716 Y16.972 E.14039
G1 X210.019 Y19.946 E.13936
G1 X212.994 Y23.249 E.13938
G1 X215.629 Y26.87 E.14041
G1 X217.914 Y30.794 E.14237
G1 X219.841 Y35.009 E.14531
G1 X221.401 Y39.5 E.14907
G1 X222.588 Y44.248 E.15345
G1 X223.396 Y49.237 E.15846
G1 X223.821 Y54.446 E.16387
G1 X223.835 Y56.321 E.05879
G1 X223.86 Y59.856 E.11084
G1 X223.513 Y65.445 E.17558
G1 X222.779 Y71.19 E.18159
G1 X221.661 Y77.069 E.18764
G1 X220.164 Y83.058 E.19356
G1 X218.293 Y89.132 E.19928
G1 X216.055 Y95.267 E.20476
G1 X213.458 Y101.44 E.20998
G1 X210.513 Y107.624 E.21476
G1 X207.232 Y113.795 E.21914
G1 X203.627 Y119.929 E.22308
G1 X199.712 Y126.001 E.22653
G1 X195.503 Y131.987 E.22944
G1 X191.017 Y137.862 E.23177
G1 X186.272 Y143.604 E.23355
G1 X181.286 Y149.19 E.23477
G1 X176.079 Y154.597 E.23536
G1 X170.672 Y159.804 E.23536
G1 X165.086 Y164.79 E.23477
G1 X159.344 Y169.535 E.23355
G1 X153.469 Y174.021 E.23177
G1 X147.483 Y178.23 E.22944
G1 X141.411 Y182.144 E.22651
G1 X135.277 Y185.75 E.2231
G1 X129.106 Y189.031 E.21914
G1 X122.922 Y191.976 E.21476
G1 X116.749 Y194.573 E.20998
G1 X110.614 Y196.811 E.20476
G1 X104.54 Y198.682 E.19928
G1 X98.551 Y200.179 E.19356
G1 X92.673 Y201.297 E.1876
G1 X86.927 Y202.03 E.18162
G1 X81.339 Y202.378 E.17555
G1 X75.929 Y202.339 E.16963
G1 X70.719 Y201.914 E.1639
G1 X65.73 Y201.106 E.15846
G1 X60.982 Y199.919 E.15345
G1 X56.492 Y198.359 E.14904
G1 X52.277 Y196.432 E.14531
G1 X48.352 Y194.146 E.14242
G1 X44.732 Y191.512 E.14037
G1 X41.428 Y188.537 E.1394
G1 X38.454 Y185.234 E.13936
G1 X35.819 Y181.614 E.14039
G1 X33.534 Y177.689 E.1424
G1 X31.607 Y173.474 E.14531
G1 X30.047 Y168.984 E.14904
G1 X28.86 Y164.235 E.15348
M73 Q0 S382
G1 X28.052 Y159.247 E.15843
G1 X27.627 Y154.037 E.1639
G1 X27.588 Y148.627 E.16963
G1 X27.935 Y143.038 E.17558
G1 X28.669 Y137.293 E.18159
G1 X29.787 Y131.414 E.18764
G1 X31.284 Y125.426 E.19353
G1 X33.155 Y119.352 E.19928
G1 X35.393 Y113.216 E.20479
G1 X37.99 Y107.044 E.20995
G1 X40.935 Y100.86 E.21476
G1 X44.216 Y94.688 E.21916
G1 X47.821 Y88.554 E.22308
G1 X51.736 Y82.483 E.2265
G1 X55.945 Y76.497 E.22944
G1 X60.431 Y70.621 E.23179
G1 X65.147 Y64.914 E.23213
M204 S1000
G1 X65.147 Y64.914 F10800
G1 X64.895 Y64.628
M204 S800
;TYPE:External perimeter
G1 F1200
G1 X69.885 Y59.037 E.23497
G1 X75.102 Y53.62 E.23581
G1 X80.52 Y48.403 E.23583
G1 X86.116 Y43.408 E.23519
G1 X91.869 Y38.653 E.23402
G1 X97.756 Y34.158 E.23224
G1 X103.754 Y29.941 E.22989
G1 X109.839 Y26.018 E.227
G1 X115.986 Y22.405 E.22356
G1 X122.172 Y19.116 E.21967
G1 X128.372 Y16.163 E.21532
G1 X134.561 Y13.56 E.21052
G1 X140.714 Y11.315 E.20536
G1 X146.807 Y9.438 E.1999
G1 X152.816 Y7.936 E.1942
G1 X158.716 Y6.814 E.18831
G1 X164.485 Y6.078 E.18235
G1 X170.099 Y5.728 E.17636
G1 X175.536 Y5.768 E.17048
G1 X180.774 Y6.195 E.16478
G1 X185.794 Y7.008 E.15945
G1 X190.574 Y8.203 E.15449
G1 X195.097 Y9.774 E.15013
G1 X199.345 Y11.716 E.14645
G1 X203.302 Y14.021 E.14358
G1 X206.954 Y16.679 E.14162
G1 X210.286 Y19.679 E.14058
G1 X213.287 Y23.012 E.14062
G1 X215.945 Y26.663 E.1416
G1 X218.249 Y30.621 E.14359
G1 X220.191 Y34.869 E.14645
G1 X221.763 Y39.392 E.15014
G1 X222.958 Y44.172 E.15449
G1 X223.771 Y49.191 E.15942
G1 X224.198 Y54.43 E.16481
G1 X224.212 Y56.319 E.05923
G1 X224.237 Y59.867 E.11125
G1 X223.888 Y65.481 E.17636
G1 X223.151 Y71.25 E.18235
G1 X222.03 Y77.15 E.1883
G1 X220.528 Y83.159 E.1942
G1 X218.651 Y89.252 E.1999
G1 X216.406 Y95.405 E.20536
G1 X213.802 Y101.594 E.21053
G1 X210.85 Y107.793 E.21528
G1 X207.561 Y113.979 E.21967
G1 X203.948 Y120.127 E.22359
G1 X200.025 Y126.212 E.227
G1 X195.807 Y132.209 E.22988
G1 X191.313 Y138.097 E.23224
G1 X186.558 Y143.85 E.23402
G1 X181.562 Y149.446 E.23521
G1 X176.346 Y154.863 E.23578
G1 X170.928 Y160.08 E.23583
G1 X165.332 Y165.076 E.23521
G1 X159.579 Y169.83 E.234
G1 X153.692 Y174.325 E.23224
G1 X147.694 Y178.542 E.22989
G1 X141.609 Y182.465 E.227
G1 X135.461 Y186.079 E.2236
G1 X129.276 Y189.368 E.21964
G1 X123.076 Y192.32 E.21531
G1 X116.887 Y194.924 E.21053
G1 X110.734 Y197.168 E.20535
G1 X104.641 Y199.045 E.1999
G1 X98.632 Y200.548 E.19421
G1 X92.732 Y201.669 E.1883
G1 X86.963 Y202.406 E.18235
G1 X81.349 Y202.755 E.17636
G1 X75.912 Y202.716 E.17048
G1 X70.673 Y202.289 E.16481
G1 X65.654 Y201.476 E.15942
G1 X60.874 Y200.281 E.15449
G1 X56.351 Y198.709 E.15014
G1 X52.103 Y196.767 E.14645
G1 X48.146 Y194.463 E.14357
G1 X44.494 Y191.805 E.14162
G1 X41.161 Y188.804 E.14062
G1 X38.161 Y185.472 E.14058
M73 P0 R381
G1 X35.503 Y181.82 E.14162
G1 X33.199 Y177.863 E.14357
G1 X31.257 Y173.615 E.14645
G1 X29.685 Y169.092 E.15014
G1 X28.49 Y164.311 E.15452
G1 X27.677 Y159.292 E.15942
G1 X27.25 Y154.054 E.16478
G1 X27.211 Y148.617 E.17048
G1 X27.56 Y143.003 E.17636
G1 X28.297 Y137.234 E.18235
G1 X29.418 Y131.333 E.18833
G1 X30.92 Y125.325 E.19417
G1 X32.797 Y119.232 E.1999
G1 X35.042 Y113.078 E.20539
G1 X37.646 Y106.89 E.2105
G1 X40.598 Y100.69 E.21531
G1 X43.887 Y94.504 E.21967
G1 X47.5 Y88.357 E.22356
G1 X51.423 Y82.272 E.227
G1 X55.64 Y76.274 E.22989
G1 X60.135 Y70.387 E.23224
G1 X64.857 Y64.674 E.23239
M204 S1000
;WIPE_START
G1 F8640
G1 X64.895 Y64.628 E-.01378
G1 X67.162 Y62.088 E-.78622
;WIPE_END
G1 Z.6 F720
G1 X204.969 Y15.91 F10800
G1 Z.2 F720
G1 E.8 F2100
M204 S800
;TYPE:Solid infill
;WIDTH:0.420291
G1 F1200
G1 X213.284 Y24.225 E.36899
G1 X214.711 Y26.186 E.0761
G1 X203.78 Y15.254 E.4851
G1 X202.91 Y14.622 E.03374
G1 X202.199 Y14.208 E.02582
G1 X215.758 Y27.766 E.60167
G1 X216.502 Y29.044 E.0464
G1 X200.922 Y13.464 E.69138
G1 X199.644 Y12.72 E.0464
G1 X217.246 Y30.322 E.78111
G1 X217.612 Y30.951 E.02284
G1 X217.841 Y31.45 E.01723
G1 X198.516 Y12.125 E.85757
G1 X197.533 Y11.676 E.03391
G1 X218.29 Y32.433 E.92111
G1 X218.739 Y33.416 E.03391
G1 X196.55 Y11.226 E.98468
G1 X195.566 Y10.777 E.03394
G1 X219.189 Y34.399 E1.04827
G1 X219.526 Y35.136 E.02543
G1 X219.597 Y35.341 E.00681
G1 X194.625 Y10.369 E1.10816
G1 X193.807 Y10.085 E.02717
G1 X219.881 Y36.159 E1.15706
G1 X220.165 Y36.977 E.02717
G1 X192.989 Y9.8 E1.20598
G1 X192.171 Y9.516 E.02717
G1 X220.45 Y37.795 E1.25491
G1 X220.734 Y38.613 E.02717
G1 X191.353 Y9.232 E1.30381
G1 X190.535 Y8.948 E.02717
G1 X221.018 Y39.431 E1.35271
G1 X221.218 Y40.164 E.02384
M73 Q0 S381
G1 X189.802 Y8.748 E1.39411
G1 X189.09 Y8.57 E.02303
G1 X221.395 Y40.875 E1.43356
G1 X221.573 Y41.587 E.02303
G1 X188.379 Y8.392 E1.47304
G1 X187.667 Y8.215 E.02302
G1 X221.751 Y42.298 E1.51249
G1 X221.929 Y43.01 E.02303
G1 X186.956 Y8.037 E1.55196
G1 X186.244 Y7.859 E.02303
G1 X222.107 Y43.722 E1.59145
G1 X222.273 Y44.421 E.02254
G1 X185.545 Y7.693 E1.62984
G1 X184.908 Y7.59 E.02025
G1 X222.376 Y45.058 E1.66268
G1 X222.479 Y45.694 E.02022
G1 X184.271 Y7.487 E1.69549
G1 X183.634 Y7.384 E.02025
G1 X222.582 Y46.331 E1.72833
G1 X222.685 Y46.968 E.02025
G1 X182.998 Y7.281 E1.76115
G1 X182.361 Y7.178 E.02025
G1 X222.788 Y47.605 E1.79399
G1 X222.891 Y48.242 E.02025
M73 P0 R380
G1 X181.724 Y7.074 E1.82685
G1 X181.087 Y6.971 E.02025
G1 X222.994 Y48.879 E1.85968
G1 X223.077 Y49.495 E.0195
G1 X180.471 Y6.889 E1.89068
G1 X179.89 Y6.842 E.01829
G1 X223.124 Y50.076 E1.91855
G1 X223.172 Y50.657 E.01829
G1 X179.309 Y6.794 E1.94646
G1 X178.728 Y6.747 E.01829
G1 X223.219 Y51.238 E1.97433
G1 X223.266 Y51.819 E.01829
G1 X178.147 Y6.699 E2.00222
G1 X177.566 Y6.652 E.01829
G1 X223.314 Y52.4 E2.03011
G1 X223.361 Y52.981 E.01829
G1 X176.985 Y6.605 E2.05798
G1 X176.404 Y6.557 E.01829
M73 Q0 S380
G1 X223.408 Y53.562 E2.08587
G1 X223.456 Y54.143 E.01829
G1 X175.823 Y6.51 E2.11376
G1 X175.261 Y6.482 E.01766
G1 X223.484 Y54.705 E2.13994
G1 X223.487 Y55.242 E.01685
G1 X174.724 Y6.478 E2.16393
G1 X174.186 Y6.474 E.01688
G1 X223.491 Y55.78 E2.18798
G1 X223.495 Y56.317 E.01685
G1 X173.649 Y6.47 E2.21199
G1 X173.111 Y6.467 E.01688
G1 X223.499 Y56.855 E2.23601
G1 X223.503 Y57.392 E.01685
G1 X172.573 Y6.463 E2.26004
G1 X172.036 Y6.459 E.01685
G1 X223.507 Y57.93 E2.28407
G1 X223.511 Y58.467 E.01685
M73 P0 R379
G1 X171.498 Y6.455 E2.3081
G1 X170.961 Y6.451 E.01685
G1 X223.515 Y59.005 E2.33213
G1 X223.519 Y59.543 E.01688
