; generated by PrusaSlicer 2.8.0+MacOS-arm64 on 2024-10-19 at 04:05:07 UTC


;
;
; 

; external perimeters extrusion width = 0.60mm
; perimeters extrusion width = 0.50mm
; infill extrusion width = 0.50mm
; solid infill extrusion width = 0.50mm
; top infill extrusion width = 0.45mm
; first layer extrusion width = 0.42mm

M73 P0 R431
M73 Q0 S432
M201 X1000 Y1000 Z200 E5000 ; sets maximum accelerations, mm/sec^2
M203 X200 Y200 Z12 E120 ; sets maximum feedrates, mm / sec
M204 S1250 T1250 ; sets acceleration (S) and retract acceleration (R), mm/sec^2
M205 X8.00 Y8.00 Z0.40 E4.50 ; sets the jerk limits, mm/sec
M205 S0 T0 ; sets the minimum extruding and travel feed rate, mm/sec

; printing object stand.stl id:0 copy 0
; stop printing object stand.stl id:0 copy 0

;TYPE:Custom
M862.3 P "MK3S" ; printer model check
M862.1 P0.4 ; nozzle diameter check
M115 U3.12.2 ; tell printer latest fw version
G90 ; use absolute coordinates
M83 ; extruder relative mode
M104 S230 ; set extruder temp
M140 S85 ; set bed temp
M190 S85 ; wait for bed temp
M109 S230 ; wait for extruder temp
G28 W ; home all without mesh bed level
G80 ; mesh bed leveling

G1 Z0.2 F720
G1 Y-3 F1000 ; go outside print area
G92 E0
G1 X60 E9 F1000 ; intro line
G1 X100 E12.5 F1000 ; intro line

G92 E0
M221 S95

; Don't change E values below. Excessive value can damage the printer.

M907 E538 ; set extruder motor current
G21 ; set units to millimeters
G90 ; use absolute coordinates
M83 ; use relative distances for extrusion

M900 K0.08 ; Filament gcode LA 1.5
M900 K45 ; Filament gcode LA 1.0




M107
;LAYER_CHANGE
;Z:0.2
;HEIGHT:0.2
G1 E-1 F2100
G1 Z.4 F720
G1 X66.557 Y59.413 F10800
G1 Z.2 F720
G1 E1 F2100
M204 S800
;TYPE:Skirt/Brim
;WIDTH:0.42
G1 F1200
G1 X69.393 Y56.235 E.13355
G1 X74.736 Y50.688 E.24148
G1 X80.164 Y45.46 E.23629
G1 X85.832 Y40.398 E.23827
G1 X91.661 Y35.579 E.23713
G1 X97.696 Y30.971 E.23808
G1 X103.708 Y26.745 E.23041
G1 X109.879 Y22.764 E.23026
G1 X116.2 Y19.049 E.22989
G1 X122.402 Y15.751 E.22024
G1 X128.705 Y12.747 E.21892
G1 X135.003 Y10.095 E.21426
G1 X141.38 Y7.769 E.21283
G1 X147.494 Y5.886 E.20059
G1 X153.638 Y4.346 E.1986
G1 X159.684 Y3.193 E.19298
G1 X165.752 Y2.419 E.1918
G1 X171.393 Y2.068 E.17721
G1 X176.301 Y2.098 E.15389
G1 X177.173 Y2.111 E.02734
G1 X182.615 Y2.561 E.17121
G1 X187.848 Y3.417 E.16626
G1 X192.851 Y4.676 E.16176
G1 X197.409 Y6.26 E.1513
G1 X201.885 Y8.296 E.15418
G1 X206.069 Y10.72 E.15161
G1 X209.942 Y13.524 E.14992
G1 X213.644 Y16.859 E.15623
G1 X216.817 Y20.4 E.14908
G1 X219.621 Y24.272 E.14989
G1 X222.045 Y28.456 E.15161
G1 X224.081 Y32.932 E.15418
M73 Q0 S431
G1 X225.721 Y37.678 E.15744
G1 X226.924 Y42.493 E.15561
G1 X227.801 Y47.898 E.17169
G1 X228.238 Y53.33 E.17087
G1 X228.273 Y58.948 E.17615
G1 X227.909 Y64.731 E.18168
G1 X227.148 Y70.657 E.18733
G1 X225.995 Y76.703 E.19298
G1 X224.487 Y82.734 E.19492
G1 X222.537 Y89.067 E.20777
G1 X220.246 Y95.338 E.20933
G1 X217.594 Y101.637 E.21429
G1 X214.59 Y107.94 E.21892
G1 X211.247 Y114.223 E.22315
G1 X207.578 Y120.462 E.22694
G1 X203.646 Y126.561 E.22753
G1 X199.319 Y132.714 E.23585
G1 X194.762 Y138.68 E.23539
G1 X189.943 Y144.509 E.23713
G1 X184.881 Y150.177 E.23827
G1 X179.595 Y155.664 E.23889
G1 X174.106 Y160.948 E.23889
G1 X168.435 Y166.008 E.2383
G1 X162.67 Y170.773 E.23451
G1 X156.704 Y175.33 E.23539
G1 X150.623 Y179.607 E.2331
G1 X144.451 Y183.588 E.23028
G1 X138.212 Y187.258 E.22695
G1 X131.929 Y190.601 E.22315
G1 X125.534 Y193.646 E.22208
G1 X119.327 Y196.257 E.21113
G1 X113.056 Y198.547 E.20932
G1 X106.837 Y200.466 E.20406
G1 X100.692 Y202.006 E.19863
G1 X94.646 Y203.159 E.19298
G1 X88.72 Y203.919 E.18733
G1 X82.786 Y204.288 E.18642
G1 X77.319 Y204.248 E.17142
G1 X71.887 Y203.812 E.17086
G1 X66.663 Y202.972 E.1659
G1 X61.667 Y201.732 E.1614
G1 X56.921 Y200.091 E.15745
G1 X52.445 Y198.056 E.15417
G1 X48.075 Y195.51 E.15858
G1 X44.389 Y192.828 E.14293
G1 X40.848 Y189.655 E.14908
G1 X37.657 Y186.129 E.14911
G1 X34.709 Y182.08 E.15704
G1 X32.285 Y177.896 E.15161
G1 X30.25 Y173.42 E.15417
G1 X28.666 Y168.862 E.1513
G1 X27.369 Y163.678 E.16755
G1 X26.53 Y158.454 E.16589
G1 X26.093 Y153.022 E.17087
G1 X26.053 Y147.556 E.17139
G1 X26.422 Y141.621 E.18645
G1 X27.183 Y135.695 E.18733
G1 X28.336 Y129.649 E.19298
G1 X29.843 Y123.618 E.19491
G1 X31.794 Y117.285 E.20778
G1 X34.084 Y111.014 E.20932
G1 X36.695 Y104.808 E.2111
G1 X39.741 Y98.412 E.22212
G1 X43.084 Y92.129 E.22315
G1 X46.753 Y85.89 E.22694
G1 X50.685 Y79.791 E.22753
G1 X55.012 Y73.638 E.23585
G1 X59.569 Y67.672 E.23539
G1 X64.387 Y61.843 E.23711
G1 X66.517 Y59.457 E.10028
M204 S1000
;WIPE_START
G1 F8640
G1 X66.557 Y59.413 E-.01373
G1 X69.393 Y56.235 E-.98351
G1 X69.401 Y56.226 E-.00276
;WIPE_END
G1 Z.4 F720
; printing object stand.stl id:0 copy 0
G1 X103.859 Y124.634 F10800
G1 Z.2 F720
G1 E1 F2100
M204 S800
;TYPE:Perimeter
;WIDTH:0.419999
G1 F1200
G1 X103.535 Y125.209 E.02069
G1 X102.98 Y125.852 E.02663
G1 X102.483 Y126.246 E.01989
G1 X101.831 Y126.598 E.02323
G1 X101.349 Y126.768 E.01603
G1 X100.637 Y126.895 E.02268
G1 X99.896 Y126.89 E.02323
G1 X99.391 Y126.806 E.01605
G1 X98.706 Y126.575 E.02267
G1 X98.059 Y126.213 E.02325
G1 X97.492 Y125.737 E.02321
G1 X97.024 Y125.162 E.02325
G1 X96.672 Y124.511 E.0232
G1 X96.449 Y123.805 E.02321
G1 X96.361 Y123.069 E.02324
G1 X96.413 Y122.331 E.0232
G1 X96.607 Y121.601 E.02368
G1 X96.923 Y120.947 E.02277
G1 X97.319 Y120.408 E.02097
G1 X97.907 Y119.848 E.02546
G1 X98.535 Y119.456 E.02321
G1 X99.006 Y119.256 E.01604
G1 X99.708 Y119.084 E.02266
G1 X100.208 Y119.04 E.01574
G1 X100.937 Y119.093 E.02292
G1 X101.655 Y119.282 E.02328
G1 X102.414 Y119.659 E.02657
G1 X102.919 Y120.043 E.01989
G1 X103.422 Y120.586 E.02321
G1 X103.707 Y121.012 E.01607
G1 X103.931 Y121.465 E.01585
G1 X104.142 Y122.145 E.02232
G1 X104.229 Y122.881 E.02324
G1 X104.209 Y123.392 E.01603
G1 X104.066 Y124.101 E.02268
G1 X103.892 Y124.575 E.01583
G1 X103.888 Y124.581 E.00023
M204 S1000
G1 X103.888 Y124.581 F10800
G1 X103.524 Y124.467
M204 S800
;TYPE:External perimeter
G1 F1200
G1 X103.207 Y125.021 E.02001
G1 X102.772 Y125.532 E.02104
G1 X102.249 Y125.95 E.02099
G1 X101.657 Y126.264 E.02101
G1 X101.2 Y126.417 E.01511
G1 X100.574 Y126.523 E.01991
G1 X99.904 Y126.513 E.02101
G1 X99.429 Y126.427 E.01514
G1 X98.827 Y126.217 E.01999
G1 X98.248 Y125.887 E.0209
G1 X97.739 Y125.451 E.02101
G1 X97.32 Y124.928 E.02101
G1 X97.006 Y124.336 E.02101
G1 X96.81 Y123.696 E.02099
G1 X96.736 Y123.03 E.02101
G1 X96.789 Y122.362 E.02101
G1 X96.967 Y121.711 E.02116
G1 X97.261 Y121.115 E.02084
G1 X97.62 Y120.636 E.01877
G1 X98.159 Y120.128 E.02322
G1 X98.73 Y119.778 E.021
M73 P0 R430
G1 X99.176 Y119.596 E.0151
G1 X99.797 Y119.45 E.02
G1 X100.255 Y119.416 E.0144
G1 X100.908 Y119.469 E.02054
G1 X101.554 Y119.646 E.021
G1 X102.186 Y119.959 E.02211
G1 X102.693 Y120.345 E.01998
G1 X103.142 Y120.839 E.02093
G1 X103.402 Y121.238 E.01493
G1 X103.597 Y121.647 E.01421
G1 X103.782 Y122.257 E.01999
G1 X103.854 Y122.92 E.02091
G1 X103.829 Y123.401 E.0151
G1 X103.697 Y124.022 E.01991
G1 X103.548 Y124.412 E.01309
M204 S1000
;WIPE_START
G1 F8640
G1 X103.524 Y124.467 E-.01386
G1 X103.207 Y125.021 E-.14738
G1 X102.772 Y125.532 E-.15495
G1 X102.249 Y125.95 E-.15459
G1 X101.657 Y126.264 E-.15473
G1 X101.2 Y126.417 E-.11128
G1 X100.574 Y126.523 E-.1466
G1 X100.069 Y126.515 E-.11661
;WIPE_END
G1 Z.4 F720
G1 X66.627 Y63.802 F10800
G1 Z.2 F720
G1 E1 F2100
M204 S800
;TYPE:Perimeter
G1 F1200
G1 X71.603 Y58.228 E.23428
G1 X76.81 Y52.821 E.23536
G1 X82.217 Y47.614 E.23536
G1 X87.803 Y42.628 E.23477
G1 X93.545 Y37.883 E.23355
G1 X99.42 Y33.397 E.23177
G1 X105.406 Y29.188 E.22944
G1 X111.478 Y25.273 E.22653
G1 X117.612 Y21.668 E.22308
G1 X123.783 Y18.387 E.21914
G1 X129.967 Y15.442 E.21476
G1 X136.14 Y12.845 E.20998
G1 X142.275 Y10.607 E.20476
G1 X148.349 Y8.736 E.19928
G1 X154.338 Y7.239 E.19356
G1 X160.217 Y6.121 E.18764
G1 X165.962 Y5.387 E.18159
G1 X171.551 Y5.04 E.17558
G1 X176.961 Y5.079 E.16963
G1 X182.17 Y5.504 E.16387
G1 X187.159 Y6.312 E.15846
G1 X191.907 Y7.499 E.15345
G1 X196.398 Y9.059 E.14907
G1 X200.613 Y10.986 E.14531
G1 X204.537 Y13.271 E.14237
G1 X208.158 Y15.906 E.14041
G1 X211.461 Y18.88 E.13936
G1 X214.435 Y22.184 E.13938
G1 X217.07 Y25.804 E.14039
G1 X219.355 Y29.729 E.1424
G1 X221.282 Y33.944 E.14531
G1 X222.843 Y38.434 E.14905
G1 X224.03 Y43.182 E.15345
G1 X224.838 Y48.171 E.15846
G1 X225.262 Y53.381 E.1639
G1 X225.276 Y55.256 E.05879
G1 X225.301 Y58.791 E.11084
G1 X224.954 Y64.379 E.17555
G1 X224.22 Y70.125 E.18163
G1 X223.103 Y76.003 E.1876
G1 X221.606 Y81.992 E.19356
G1 X219.734 Y88.066 E.19929
G1 X217.496 Y94.202 E.20479
G1 X214.899 Y100.374 E.20995
G1 X211.955 Y106.558 E.21475
G1 X208.673 Y112.729 E.21915
G1 X205.068 Y118.863 E.22308
G1 X201.153 Y124.935 E.22653
G1 X196.945 Y130.921 E.22942
G1 X192.459 Y136.796 E.23177
G1 X187.713 Y142.538 E.23357
G1 X182.727 Y148.124 E.23477
G1 X177.52 Y153.531 E.23536
G1 X172.113 Y158.738 E.23536
G1 X166.528 Y163.724 E.23474
G1 X160.786 Y168.469 E.23355
G1 X154.91 Y172.955 E.23179
G1 X148.924 Y177.164 E.22944
G1 X142.853 Y181.079 E.2265
G1 X136.719 Y184.684 E.22308
G1 X130.547 Y187.965 E.21916
G1 X124.363 Y190.91 E.21476
G1 X118.191 Y193.507 E.20995
G1 X112.055 Y195.745 E.20479
G1 X105.981 Y197.616 E.19928
G1 X99.993 Y199.113 E.19353
G1 X94.114 Y200.231 E.18764
G1 X88.369 Y200.965 E.18159
G1 X82.78 Y201.312 E.17558
G1 X77.37 Y201.273 E.16963
G1 X72.16 Y200.848 E.1639
G1 X67.172 Y200.04 E.15843
G1 X62.423 Y198.853 E.15348
G1 X57.933 Y197.293 E.14904
G1 X53.718 Y195.366 E.14531
G1 X49.793 Y193.081 E.1424
G1 X46.173 Y190.446 E.14039
G1 X42.87 Y187.471 E.13938
G1 X39.895 Y184.168 E.13938
G1 X37.261 Y180.548 E.14037
G1 X34.975 Y176.623 E.14242
G1 X33.048 Y172.408 E.14531
G1 X31.488 Y167.918 E.14904
G1 X30.301 Y163.17 E.15345
G1 X29.493 Y158.181 E.15846
G1 X29.068 Y152.971 E.1639
G1 X29.029 Y147.561 E.16963
G1 X29.377 Y141.973 E.17555
G1 X30.11 Y136.227 E.18162
G1 X31.228 Y130.349 E.1876
G1 X32.725 Y124.36 E.19356
G1 X34.596 Y118.286 E.19928
G1 X36.835 Y112.15 E.2048
G1 X39.431 Y105.978 E.20994
G1 X42.376 Y99.794 E.21476
G1 X45.657 Y93.623 E.21914
G1 X49.263 Y87.489 E.2231
G1 X53.177 Y81.417 E.22651
G1 X57.386 Y75.431 E.22944
G1 X61.872 Y69.556 E.23177
G1 X66.589 Y63.848 E.23217
M204 S1000
G1 X66.589 Y63.848 F10800
G1 X66.336 Y63.562
M204 S800
;TYPE:External perimeter
G1 F1200
G1 X71.327 Y57.972 E.23496
G1 X76.544 Y52.554 E.23583
G1 X81.961 Y47.337 E.23581
G1 X87.557 Y42.342 E.23519
G1 X93.31 Y37.587 E.23402
G1 X99.198 Y33.093 E.23224
G1 X105.195 Y28.875 E.22988
G1 X111.28 Y24.952 E.227
G1 X117.428 Y21.339 E.22359
M73 Q0 S430
G1 X123.614 Y18.05 E.21967
G1 X129.813 Y15.098 E.21528
G1 X136.002 Y12.494 E.21053
G1 X142.155 Y10.249 E.20536
G1 X148.248 Y8.372 E.1999
G1 X154.257 Y6.87 E.1942
G1 X160.157 Y5.749 E.1883
G1 X165.926 Y5.012 E.18235
G1 X171.54 Y4.663 E.17636
G1 X176.977 Y4.702 E.17048
G1 X182.216 Y5.129 E.16481
G1 X187.235 Y5.942 E.15942
G1 X192.015 Y7.137 E.15449
G1 X196.538 Y8.709 E.15014
G1 X200.786 Y10.651 E.14645
G1 X204.744 Y12.955 E.14359
G1 X208.395 Y15.613 E.1416
G1 X211.728 Y18.613 E.1406
G1 X214.728 Y21.946 E.1406
G1 X217.386 Y25.598 E.14162
G1 X219.691 Y29.555 E.14358
G1 X221.633 Y33.803 E.14645
G1 X223.204 Y38.326 E.15013
G1 X224.399 Y43.106 E.15449
G1 X225.212 Y48.126 E.15945
G1 X225.639 Y53.364 E.16478
G1 X225.653 Y55.253 E.05923
G1 X225.679 Y58.801 E.11125
G1 X225.329 Y64.415 E.17636
G1 X224.593 Y70.184 E.18235
G1 X223.471 Y76.084 E.18831
G1 X221.969 Y82.093 E.1942
G1 X220.092 Y88.186 E.1999
G1 X217.847 Y94.339 E.20536
G1 X215.244 Y100.528 E.21052
G1 X212.291 Y106.728 E.21532
G1 X209.002 Y112.913 E.21964
G1 X205.389 Y119.061 E.22359
G1 X201.466 Y125.146 E.227
G1 X197.249 Y131.144 E.22989
G1 X192.754 Y137.031 E.23224
G1 X187.999 Y142.784 E.23402
G1 X183.004 Y148.38 E.23519
G1 X177.787 Y153.798 E.23583
G1 X172.37 Y159.014 E.23578
G1 X166.773 Y164.01 E.23523
G1 X161.02 Y168.765 E.23402
G1 X155.133 Y173.259 E.23222
G1 X149.135 Y177.477 E.22991
G1 X143.05 Y181.4 E.227
G1 X136.903 Y185.013 E.22356
G1 X130.717 Y188.302 E.21967
G1 X124.517 Y191.254 E.21531
G1 X118.329 Y193.858 E.2105
G1 X112.175 Y196.103 E.20539
G1 X106.082 Y197.98 E.1999
G1 X100.074 Y199.482 E.19417
G1 X94.173 Y200.603 E.18833
G1 X88.404 Y201.34 E.18235
G1 X82.79 Y201.689 E.17636
G1 X77.353 Y201.65 E.17048
G1 X72.115 Y201.223 E.16478
G1 X67.096 Y200.41 E.15942
G1 X62.315 Y199.215 E.15452
G1 X57.792 Y197.643 E.15014
G1 X53.544 Y195.701 E.14645
G1 X49.587 Y193.397 E.14357
G1 X45.935 Y190.739 E.14162
G1 X42.603 Y187.738 E.1406
G1 X39.602 Y184.406 E.1406
G1 X36.944 Y180.754 E.14162
G1 X34.64 Y176.797 E.14357
G1 X32.698 Y172.549 E.14645
G1 X31.126 Y168.026 E.15014
G1 X29.931 Y163.246 E.15449
G1 X29.118 Y158.226 E.15945
G1 X28.691 Y152.988 E.16478
G1 X28.652 Y147.551 E.17048
G1 X29.001 Y141.937 E.17636
G1 X29.738 Y136.168 E.18235
G1 X30.859 Y130.268 E.1883
G1 X32.362 Y124.259 E.19421
G1 X34.239 Y118.166 E.1999
G1 X36.483 Y112.013 E.20535
G1 X39.087 Y105.824 E.21053
G1 X42.039 Y99.624 E.21531
G1 X45.328 Y93.439 E.21964
M73 P0 R429
G1 X48.942 Y87.291 E.2236
G1 X52.865 Y81.206 E.227
G1 X57.082 Y75.208 E.22989
G1 X61.577 Y69.321 E.23224
G1 X66.298 Y63.608 E.23237
M204 S1000
;WIPE_START
G1 F8640
G1 X66.336 Y63.562 E-.01378
G1 X69.18 Y60.376 E-.98622
;WIPE_END
G1 Z.4 F720
G1 X206.411 Y14.845 F10800
G1 Z.2 F720
G1 E1 F2100
M204 S800
;TYPE:Solid infill
;WIDTH:0.420291
G1 F1200
G1 X214.726 Y23.16 E.36899
G1 X216.153 Y25.12 E.07608
G1 X205.221 Y14.189 E.4851
G1 X204.352 Y13.556 E.03374
G1 X203.641 Y13.142 E.02582
G1 X217.199 Y26.701 E.60167
G1 X217.943 Y27.978 E.04638
G1 X202.363 Y12.398 E.69138
G1 X201.085 Y11.654 E.0464
G1 X218.687 Y29.256 E.78111
G1 X219.054 Y29.885 E.02285
G1 X219.282 Y30.384 E.01721
G1 X199.957 Y11.059 E.85757
G1 X198.974 Y10.61 E.03391
G1 X219.731 Y31.367 E.92111
G1 X220.181 Y32.35 E.03392
G1 X197.991 Y10.161 E.98468
G1 X197.008 Y9.711 E.03392
G1 X220.63 Y33.334 E1.04827
G1 X220.967 Y34.07 E.0254
G1 X221.038 Y34.275 E.00681
G1 X196.066 Y9.303 E1.10816
G1 X195.248 Y9.019 E.02717
G1 X221.322 Y35.093 E1.15706
G1 X221.607 Y35.911 E.02718
G1 X194.43 Y8.735 E1.20598
G1 X193.612 Y8.45 E.02718
G1 X221.891 Y36.729 E1.25491
G1 X222.175 Y37.547 E.02717
G1 X192.794 Y8.166 E1.30381
G1 X191.976 Y7.882 E.02717
G1 X222.459 Y38.365 E1.35271
G1 X222.659 Y39.098 E.02384
G1 X191.243 Y7.682 E1.39411
G1 X190.532 Y7.505 E.02299
G1 X222.837 Y39.81 E1.43356
G1 X223.015 Y40.521 E.023
G1 X189.82 Y7.327 E1.47304
G1 X189.109 Y7.149 E.023
G1 X223.192 Y41.233 E1.51249
G1 X223.37 Y41.944 E.023
M73 Q0 S429
G1 X188.397 Y6.971 E1.55196
G1 X187.685 Y6.793 E.02303
G1 X223.548 Y42.656 E1.59145
G1 X223.714 Y43.355 E.02254
G1 X186.986 Y6.627 E1.62984
G1 X186.349 Y6.524 E.02025
G1 X223.817 Y43.992 E1.66268
G1 X223.92 Y44.629 E.02025
G1 X185.713 Y6.421 E1.69549
G1 X185.076 Y6.318 E.02025
G1 X224.023 Y45.266 E1.72833
G1 X224.126 Y45.902 E.02022
G1 X184.439 Y6.215 E1.76115
G1 X183.802 Y6.112 E.02025
G1 X224.23 Y46.539 E1.79401
G1 X224.333 Y47.176 E.02025
G1 X183.165 Y6.009 E1.82685
G1 X182.528 Y5.905 E.02025
M73 P0 R428
G1 X224.436 Y47.813 E1.85971
G1 X224.518 Y48.429 E.0195
G1 X181.912 Y5.823 E1.89068
G1 X181.331 Y5.776 E.01829
G1 X224.566 Y49.01 E1.91857
G1 X224.613 Y49.591 E.01829
G1 X180.75 Y5.728 E1.94646
G1 X180.169 Y5.681 E.01829
G1 X224.66 Y50.172 E1.97433
G1 X224.708 Y50.753 E.01829
G1 X179.588 Y5.634 E2.00222
G1 X179.007 Y5.586 E.01829
G1 X224.755 Y51.334 E2.03011
G1 X224.802 Y51.915 E.01829
G1 X178.426 Y5.539 E2.05798
G1 X177.845 Y5.491 E.01829
G1 X224.85 Y52.496 E2.08589
G1 X224.897 Y53.077 E.01829
G1 X177.264 Y5.444 E2.11376
G1 X176.703 Y5.416 E.01763
G1 X224.925 Y53.639 E2.13992
G1 X224.929 Y54.176 E.01685
M73 Q0 S428
G1 X176.165 Y5.412 E2.16395
G1 X175.627 Y5.409 E.01688
G1 X224.933 Y54.714 E2.18798
G1 X224.937 Y55.251 E.01685
G1 X175.09 Y5.405 E2.21199
G1 X174.552 Y5.401 E.01688
G1 X224.94 Y55.789 E2.23601
G1 X224.944 Y56.327 E.01688
G1 X174.015 Y5.397 E2.26004
G1 X173.477 Y5.393 E.01688
G1 X224.948 Y56.864 E2.28407
G1 X224.952 Y57.402 E.01688
G1 X172.94 Y5.389 E2.3081
G1 X172.402 Y5.385 E.01688
M73 P0 R427
