; generated by PrusaSlicer 2.8.0+MacOS-arm64 on 2024-10-19 at 04:00:04 UTC


;
;
; 

; external perimeters extrusion width = 0.60mm
; perimeters extrusion width = 0.50mm
; infill extrusion width = 0.50mm
; solid infill extrusion width = 0.50mm
; top infill extrusion width = 0.45mm
; first layer extrusion width = 0.42mm

M73 P0 R71
M73 Q0 S72
M201 X1000 Y1000 Z200 E5000 ; sets maximum accelerations, mm/sec^2
M203 X200 Y200 Z12 E120 ; sets maximum feedrates, mm / sec
M204 S1250 T1250 ; sets acceleration (S) and retract acceleration (R), mm/sec^2
M205 X8.00 Y8.00 Z0.40 E4.50 ; sets the jerk limits, mm/sec
M205 S0 T0 ; sets the minimum extruding and travel feed rate, mm/sec

; printing object elbow.stl id:0 copy 0
; stop printing object elbow.stl id:0 copy 0

;TYPE:Custom
M862.3 P "MK3S" ; printer model check
M862.1 P0.4 ; nozzle diameter check
M115 U3.12.2 ; tell printer latest fw version
G90 ; use absolute coordinates
M83 ; extruder relative mode
M104 S215 ; set extruder temp
M140 S60 ; set bed temp
M190 S60 ; wait for bed temp
M109 S215 ; wait for extruder temp
G28 W ; home all without mesh bed level
G80 ; mesh bed leveling

G1 Z0.2 F720
G1 Y-3 F1000 ; go outside print area
G92 E0
G1 X60 E9 F1000 ; intro line
G1 X100 E12.5 F1000 ; intro line
M73 Q0 S71

G92 E0
M221 S95

; Don't change E values below. Excessive value can damage the printer.

M907 E538 ; set extruder motor current
G21 ; set units to millimeters
G90 ; use absolute coordinates
M83 ; use relative distances for extrusion
M900 K0.05 ; Filament gcode LA 1.5
M900 K30 ; Filament gcode LA 1.0
M107
;LAYER_CHANGE
;Z:0.2
;HEIGHT:0.2
G1 E-.8 F2100
G1 Z.6 F720
G1 X65.841 Y83.013 F10800
G1 Z.2 F720
G1 E.8 F2100
M204 S800
;TYPE:Skirt/Brim
;WIDTH:0.42
G1 F1200
G1 X66.67 Y82.506 E.03047
G1 X67.643 Y82.085 E.03324
G1 X68.806 Y81.788 E.03764
G1 X69.985 Y81.688 E.0371
G1 X180.034 Y81.688 E3.45051
G1 X181.38 Y81.822 E.04241
M73 P0 R70
G1 X182.678 Y82.205 E.04243
G1 X183.88 Y82.825 E.04241
G1 X184.945 Y83.659 E.04241
G1 X185.835 Y84.678 E.04242
G1 X186.518 Y85.846 E.04242
G1 X186.97 Y87.121 E.04241
G1 X187.175 Y88.458 E.04241
G1 X187.14 Y121.948 E1.05006
G1 X186.941 Y122.989 E.03323
G1 X186.626 Y123.908 E.03046
G1 X186.145 Y124.852 E.03322
G1 X185.587 Y125.646 E.03043
G1 X184.862 Y126.419 E.03323
G1 X184.159 Y126.987 E.02834
G1 X183.33 Y127.494 E.03047
G1 X182.357 Y127.915 E.03324
G1 X181.194 Y128.212 E.03764
G1 X180.015 Y128.312 E.0371
G1 X69.74 Y128.307 E3.4576
G1 X68.687 Y128.191 E.03322
G1 X67.598 Y127.899 E.03535
G1 X66.707 Y127.513 E.03045
G1 X65.748 Y126.919 E.03537
G1 X64.942 Y126.231 E.03323
G1 X64.206 Y125.377 E.03535
G1 X63.612 Y124.418 E.03537
G1 X63.226 Y123.527 E.03045
G1 X62.911 Y122.304 E.0396
G1 X62.813 Y121.159 E.03603
G1 X62.853 Y88.12 E1.03592
G1 X63.02 Y87.163 E.03046
G1 X63.347 Y86.156 E.0332
G1 X63.775 Y85.284 E.03046
G1 X64.37 Y84.407 E.03323
G1 X65.024 Y83.689 E.03045
G1 X65.795 Y83.051 E.03138
M204 S1000
;WIPE_START
G1 F8640
G1 X65.841 Y83.013 E-.01378
G1 X66.67 Y82.506 E-.22438
G1 X67.643 Y82.085 E-.2448
G1 X68.806 Y81.788 E-.27716
G1 X68.978 Y81.773 E-.03988
;WIPE_END
G1 Z.6 F720
; printing object elbow.stl id:0 copy 0
G1 X70.944 Y88.496 F10800
G1 Z.2 F720
G1 E.8 F2100
M204 S800
;TYPE:Perimeter
;WIDTH:0.419999
G1 F1200
G1 X71.053 Y88.426 E.00406
G1 X71.631 Y88.207 E.01938
G1 X72.419 Y88.093 E.02496
G1 X73.062 Y88.138 E.02021
G1 X73.66 Y88.301 E.01943
G1 X74.215 Y88.573 E.01938
G1 X74.71 Y88.944 E.0194
G1 X75.126 Y89.401 E.01938
G1 X75.449 Y89.928 E.01938
G1 X75.668 Y90.506 E.01938
G1 X75.783 Y91.304 E.02528
G1 X75.737 Y91.938 E.01993
G1 X75.574 Y92.535 E.0194
G1 X75.302 Y93.09 E.01938
G1 X74.924 Y93.592 E.0197
G1 X74.377 Y94.061 E.02259
G1 X73.759 Y94.409 E.02224
G1 X73.168 Y94.592 E.0194
G1 X72.553 Y94.66 E.0194
G1 X71.937 Y94.612 E.01937
G1 X71.341 Y94.449 E.01937
G1 X70.628 Y94.072 E.02529
G1 X70.142 Y93.662 E.01994
G1 X69.755 Y93.18 E.01938
G1 X69.466 Y92.634 E.01937
G1 X69.283 Y92.043 E.0194
G1 X69.215 Y91.428 E.0194
G1 X69.263 Y90.812 E.01937
G1 X69.426 Y90.215 E.0194
G1 X69.698 Y89.66 E.01938
G1 X70.069 Y89.165 E.0194
G1 X70.456 Y88.811 E.01644
G1 X70.894 Y88.528 E.01635
M204 S1000
G1 X70.894 Y88.528 F10800
G1 X71.114 Y88.829
M204 S800
;TYPE:External perimeter
G1 F1200
G1 X71.245 Y88.75 E.0048
G1 X71.759 Y88.562 E.01716
G1 X72.467 Y88.467 E.0224
G1 X73.027 Y88.514 E.01762
G1 X73.555 Y88.663 E.0172
G1 X74.044 Y88.909 E.01716
G1 X74.479 Y89.242 E.01718
G1 X74.843 Y89.651 E.01717
G1 X75.125 Y90.12 E.01716
G1 X75.313 Y90.634 E.01716
G1 X75.409 Y91.352 E.02271
G1 X75.361 Y91.903 E.01734
G1 X75.212 Y92.43 E.01717
G1 X74.966 Y92.919 E.01716
G1 X74.626 Y93.36 E.01746
G1 X74.137 Y93.77 E.02001
G1 X73.588 Y94.074 E.01968
G1 X73.063 Y94.23 E.01717
G1 X72.518 Y94.284 E.01717
G1 X71.972 Y94.236 E.01719
G1 X71.446 Y94.087 E.01714
G1 X70.809 Y93.742 E.02271
G1 X70.391 Y93.38 E.01734
G1 X70.053 Y92.949 E.01717
G1 X69.801 Y92.463 E.01716
G1 X69.646 Y91.938 E.01716
G1 X69.591 Y91.393 E.01717
G1 X69.639 Y90.847 E.01719
G1 X69.788 Y90.32 E.01717
G1 X70.034 Y89.831 E.01716
G1 X70.367 Y89.396 E.01718
G1 X70.776 Y89.032 E.01717
G1 X71.063 Y88.859 E.01051
M204 S1000
;WIPE_START
G1 F8640
G1 X71.114 Y88.829 E-.01366
G1 X71.245 Y88.75 E-.03532
G1 X71.759 Y88.562 E-.12637
G1 X72.467 Y88.467 E-.16494
G1 X73.027 Y88.514 E-.12976
G1 X73.555 Y88.663 E-.12668
G1 X74.044 Y88.909 E-.12639
G1 X74.308 Y89.111 E-.07688
;WIPE_END
G1 Z.6 F720
G1 X69.253 Y118.191 F10800
G1 Z.2 F720
G1 E.8 F2100
M204 S800
;TYPE:Perimeter
G1 F1200
G1 X69.263 Y118.062 E.00406
G1 X69.426 Y117.465 E.0194
G1 X69.698 Y116.91 E.01938
G1 X70.069 Y116.415 E.0194
G1 X70.526 Y115.999 E.01938
G1 X71.053 Y115.676 E.01938
G1 X71.631 Y115.457 E.01938
G1 X72.419 Y115.343 E.02496
G1 X73.062 Y115.388 E.02021
G1 X73.66 Y115.551 E.01943
G1 X74.215 Y115.823 E.01938
G1 X74.65 Y116.147 E.01701
G1 X75.126 Y116.651 E.02174
G1 X75.454 Y117.188 E.01973
G1 X75.712 Y117.941 E.02496
G1 X75.785 Y118.572 E.01992
G1 X75.737 Y119.188 E.01937
G1 X75.574 Y119.785 E.0194
G1 X75.302 Y120.34 E.01938
G1 X74.924 Y120.842 E.0197
G1 X74.318 Y121.359 E.02498
G1 X73.759 Y121.66 E.01991
G1 X73.168 Y121.842 E.01939
G1 X72.553 Y121.91 E.0194
G1 X71.937 Y121.862 E.01937
G1 X71.341 Y121.699 E.01937
G1 X70.678 Y121.351 E.02348
G1 X70.535 Y121.257 E.00537
G1 X70.143 Y120.913 E.01635
G1 X69.755 Y120.43 E.01943
G1 X69.466 Y119.884 E.01937
G1 X69.283 Y119.293 E.0194
G1 X69.215 Y118.678 E.0194
G1 X69.249 Y118.25 E.01346
M204 S1000
G1 X69.249 Y118.25 F10800
G1 X69.625 Y118.249
M204 S800
;TYPE:External perimeter
G1 F1200
G1 X69.639 Y118.097 E.00479
G1 X69.788 Y117.57 E.01717
G1 X70.034 Y117.081 E.01716
G1 X70.367 Y116.646 E.01718
G1 X70.776 Y116.282 E.01717
G1 X71.245 Y116 E.01716
G1 X71.759 Y115.812 E.01716
G1 X72.467 Y115.717 E.0224
G1 X73.027 Y115.764 E.01762
G1 X73.555 Y115.913 E.0172
G1 X74.044 Y116.159 E.01716
G1 X74.479 Y116.492 E.01718
G1 X74.843 Y116.901 E.01717
G1 X75.129 Y117.379 E.01747
G1 X75.353 Y118.057 E.02239
G1 X75.409 Y118.607 E.01733
G1 X75.361 Y119.153 E.01719
G1 X75.212 Y119.68 E.01717
G1 X74.966 Y120.169 E.01716
G1 X74.626 Y120.61 E.01746
G1 X74.078 Y121.069 E.02241
G1 X73.587 Y121.324 E.01735
G1 X73.063 Y121.48 E.01714
G1 X72.518 Y121.534 E.01717
G1 X71.972 Y121.486 E.01719
G1 X71.446 Y121.337 E.01714
G1 X70.783 Y120.974 E.0237
G1 X70.389 Y120.628 E.01644
G1 X70.053 Y120.199 E.01709
G1 X69.801 Y119.712 E.01719
G1 X69.645 Y119.188 E.01714
G1 X69.591 Y118.643 E.01717
G1 X69.62 Y118.309 E.01051
M204 S1000
;WIPE_START
G1 F8640
G1 X69.625 Y118.249 E-.0139
G1 X69.639 Y118.097 E-.03525
G1 X69.788 Y117.57 E-.12646
G1 X70.034 Y117.081 E-.12639
G1 X70.367 Y116.646 E-.12649
G1 X70.776 Y116.282 E-.12642
G1 X71.245 Y116 E-.12636
G1 X71.728 Y115.823 E-.11873
;WIPE_END
G1 Z.6 F720
G1 X176.273 Y121.659 F10800
G1 Z.2 F720
G1 E.8 F2100
M204 S800
;TYPE:Perimeter
G1 F1200
G1 X176.175 Y121.629 E.00321
G1 X175.613 Y121.314 E.0202
G1 X175.142 Y120.912 E.01942
G1 X174.755 Y120.43 E.01938
G1 X174.465 Y119.884 E.01938
G1 X174.283 Y119.293 E.01939
G1 X174.215 Y118.678 E.0194
G1 X174.263 Y118.062 E.01937
G1 X174.426 Y117.465 E.0194
G1 X174.698 Y116.91 E.01938
G1 X175.069 Y116.415 E.0194
G1 X175.526 Y115.999 E.01938
G1 X176.053 Y115.676 E.01938
G1 X176.751 Y115.428 E.02323
G1 X177.419 Y115.343 E.02111
G1 X178.062 Y115.388 E.02021
G1 X178.66 Y115.551 E.01943
G1 X179.215 Y115.823 E.01938
G1 X179.71 Y116.194 E.0194
G1 X180.126 Y116.651 E.01938
G1 X180.526 Y117.351 E.02528
G1 X180.717 Y117.957 E.01992
G1 X180.785 Y118.572 E.0194
G1 X180.737 Y119.188 E.01937
G1 X180.574 Y119.785 E.0194
G1 X180.302 Y120.34 E.01938
G1 X179.931 Y120.835 E.0194
G1 X179.474 Y121.251 E.01938
G1 X178.995 Y121.53 E.01738
G1 X178.659 Y121.699 E.01179
G1 X178.168 Y121.842 E.01603
G1 X177.553 Y121.91 E.0194
G1 X176.937 Y121.862 E.01937
G1 X176.331 Y121.677 E.01987
M204 S1000
G1 X176.331 Y121.677 F10800
G1 X176.423 Y121.312
M204 S800
;TYPE:External perimeter
G1 F1200
G1 X176.291 Y121.271 E.00433
G1 X175.805 Y120.989 E.01762
G1 X175.391 Y120.63 E.01718
G1 X175.053 Y120.199 E.01717
G1 X174.801 Y119.712 E.01719
G1 X174.645 Y119.188 E.01714
G1 X174.591 Y118.643 E.01717
G1 X174.639 Y118.097 E.01719
G1 X174.788 Y117.57 E.01717
G1 X175.034 Y117.081 E.01716
G1 X175.367 Y116.646 E.01718
G1 X175.776 Y116.282 E.01717
G1 X176.245 Y116 E.01716
G1 X176.759 Y115.812 E.01716
G1 X177.467 Y115.717 E.0224
G1 X178.027 Y115.764 E.01762
G1 X178.555 Y115.913 E.0172
G1 X179.044 Y116.159 E.01716
G1 X179.479 Y116.492 E.01718
G1 X179.843 Y116.9 E.01714
G1 X180.196 Y117.533 E.02272
G1 X180.355 Y118.062 E.01732
G1 X180.409 Y118.607 E.01717
G1 X180.361 Y119.153 E.01719
G1 X180.212 Y119.68 E.01717
G1 X179.966 Y120.169 E.01716
G1 X179.633 Y120.604 E.01718
G1 X179.225 Y120.968 E.01714
G1 X178.592 Y121.321 E.02272
G1 X178.063 Y121.479 E.01731
G1 X177.518 Y121.534 E.01717
G1 X176.973 Y121.486 E.01715
G1 X176.48 Y121.33 E.01621
M204 S1000
;WIPE_START
G1 F8640
G1 X176.423 Y121.312 E-.0138
G1 X176.291 Y121.271 E-.03192
G1 X175.805 Y120.989 E-.12974
G1 X175.391 Y120.63 E-.12653
G1 X175.053 Y120.199 E-.12647
G1 X174.801 Y119.712 E-.12661
G1 X174.645 Y119.188 E-.12624
G1 X174.594 Y118.676 E-.11869
;WIPE_END
G1 Z.6 F720
G1 X180.748 Y90.989 F10800
G1 Z.2 F720
G1 E.8 F2100
M204 S800
;TYPE:Perimeter
G1 F1200
G1 X180.785 Y91.322 E.01051
G1 X180.737 Y91.938 E.01937
G1 X180.574 Y92.535 E.0194
G1 X180.302 Y93.09 E.01938
G1 X179.924 Y93.592 E.0197
G1 X179.318 Y94.109 E.02498
G1 X178.759 Y94.41 E.01991
G1 X178.168 Y94.592 E.01939
G1 X177.553 Y94.66 E.0194
G1 X176.937 Y94.612 E.01937
G1 X176.287 Y94.415 E.0213
G1 X176.029 Y94.309 E.00875
G1 X175.587 Y94.048 E.01609
G1 X175.142 Y93.662 E.01847
G1 X174.755 Y93.18 E.01938
G1 X174.465 Y92.634 E.01938
G1 X174.293 Y92.076 E.01831
G1 X174.215 Y91.428 E.02046
G1 X174.263 Y90.812 E.01937
G1 X174.426 Y90.215 E.0194
G1 X174.698 Y89.66 E.01938
G1 X175.069 Y89.165 E.0194
G1 X175.526 Y88.749 E.01938
G1 X176.053 Y88.426 E.01938
G1 X176.631 Y88.207 E.01938
G1 X177.419 Y88.093 E.02496
G1 X178.062 Y88.138 E.02021
G1 X178.66 Y88.301 E.01943
G1 X179.215 Y88.573 E.01938
G1 X179.66 Y88.905 E.01741
G1 X180.053 Y89.32 E.01792
G1 X180.203 Y89.511 E.00761
G1 X180.527 Y90.102 E.02113
G1 X180.717 Y90.707 E.01988
G1 X180.741 Y90.929 E.007
M204 S1000
G1 X180.741 Y90.929 F10800
G1 X180.376 Y91.024
M204 S800
;TYPE:External perimeter
G1 F1200
G1 X180.409 Y91.357 E.01049
G1 X180.361 Y91.903 E.01719
G1 X180.212 Y92.43 E.01717
G1 X179.966 Y92.919 E.01716
G1 X179.626 Y93.36 E.01746
G1 X179.078 Y93.819 E.02241
G1 X178.588 Y94.074 E.01732
G1 X178.063 Y94.23 E.01717
G1 X177.518 Y94.284 E.01717
G1 X176.973 Y94.236 E.01715
G1 X176.403 Y94.057 E.01873
G1 X175.805 Y93.739 E.02124
G1 X175.391 Y93.38 E.01718
G1 X175.053 Y92.949 E.01717
G1 X174.801 Y92.462 E.01719
G1 X174.655 Y91.971 E.01606
G1 X174.591 Y91.393 E.01823
G1 X174.639 Y90.847 E.01719
G1 X174.788 Y90.32 E.01717
G1 X175.034 Y89.831 E.01716
G1 X175.367 Y89.396 E.01718
G1 X175.776 Y89.032 E.01717
G1 X176.245 Y88.75 E.01716
G1 X176.759 Y88.562 E.01716
G1 X177.467 Y88.467 E.0224
G1 X178.027 Y88.514 E.01762
G1 X178.555 Y88.663 E.0172
G1 X179.044 Y88.909 E.01716
G1 X179.479 Y89.242 E.01718
G1 X179.849 Y89.658 E.01746
G1 X180.196 Y90.283 E.02241
G1 X180.355 Y90.812 E.01732
G1 X180.37 Y90.965 E.00482
M204 S1000
;WIPE_START
G1 F8640
G1 X180.376 Y91.024 E-.01369
G1 X180.409 Y91.357 E-.07727
G1 X180.361 Y91.903 E-.12656
G1 X180.212 Y92.43 E-.12646
G1 X179.966 Y92.919 E-.12639
G1 X179.626 Y93.36 E-.12858
G1 X179.078 Y93.819 E-.16506
G1 X178.94 Y93.891 E-.03599
;WIPE_END
G1 Z.6 F720
G1 X163.943 Y84.665 F10800
G1 Z.2 F720
G1 E.8 F2100
M204 S800
;TYPE:Perimeter
G1 F1200
G1 X180.09 Y84.665 E.50628
G1 X180.66 Y84.717 E.01795
G1 X181.175 Y84.832 E.01655
G1 X181.672 Y85.011 E.01656
G1 X182.143 Y85.251 E.01657
G1 X182.581 Y85.548 E.01659
G1 X182.977 Y85.898 E.01657
G1 X183.327 Y86.294 E.01657
G1 X183.624 Y86.732 E.01659
G1 X183.86 Y87.195 E.01629
G1 X184.044 Y87.761 E.01866
G1 X184.142 Y88.243 E.01542
G1 X184.21 Y88.917 E.02124
G1 X184.211 Y121.17 E1.01127
G1 X184.121 Y121.983 E.02565
G1 X183.937 Y122.618 E.02073
G1 X183.722 Y123.092 E.01632
G1 X183.364 Y123.657 E.02097
G1 X183.023 Y124.056 E.01646
G1 X182.632 Y124.412 E.01658
G1 X182.202 Y124.713 E.01646
G1 X181.613 Y125.013 E.02073
G1 X180.848 Y125.248 E.02509
G1 X180.087 Y125.335 E.02402
G1 X163.943 Y125.335 E.50618
G1 X163.733 Y125.152 E.00873
G1 X160.744 Y122.833 E.11862
G1 X157.556 Y120.666 E.12086
G1 X154.269 Y118.723 E.11972
G1 X150.898 Y117.006 E.11862
G1 X147.361 Y115.475 E.12084
G1 X143.767 Y114.183 E.11975
G1 X140.1 Y113.118 E.11973
G1 X136.408 Y112.293 E.11861
G1 X132.601 Y111.69 E.12085
G1 X128.835 Y111.334 E.11861
G1 X125.018 Y111.213 E.11974
G1 X121.084 Y111.342 E.12341
G1 X117.364 Y111.695 E.11716
G1 X113.627 Y112.286 E.11863
G1 X109.866 Y113.127 E.12084
G1 X106.233 Y114.183 E.11862
G1 X102.639 Y115.475 E.11975
G1 X99.032 Y117.042 E.12331
G1 X95.7 Y118.741 E.11727
G1 X92.418 Y120.683 E.11957
G1 X89.256 Y122.833 E.11989
M73 Q1 S71
G1 X86.267 Y125.152 E.11862
G1 X86.057 Y125.335 E.00873
M73 P1 R70
G1 X69.91 Y125.335 E.50628
G1 X69.34 Y125.283 E.01795
G1 X68.825 Y125.168 E.01655
G1 X68.328 Y124.989 E.01656
G1 X67.857 Y124.749 E.01657
G1 X67.423 Y124.454 E.01645
G1 X66.928 Y124.004 E.02098
G1 X66.594 Y123.6 E.01644
G1 X66.31 Y123.153 E.0166
G1 X66.089 Y122.683 E.01628
G1 X65.865 Y121.911 E.0252
G1 X65.79 Y121.211 E.02207
G1 X65.789 Y88.83 E1.01528
G1 X65.879 Y88.017 E.02565
G1 X66.063 Y87.382 E.02073
G1 X66.278 Y86.908 E.01632
G1 X66.634 Y86.347 E.02083
G1 X67.074 Y85.848 E.02086
G1 X67.473 Y85.507 E.01646
G1 X67.912 Y85.219 E.01646
G1 X68.514 Y84.936 E.02086
G1 X69.147 Y84.752 E.02067
G1 X69.913 Y84.665 E.02417
G1 X86.057 Y84.665 E.50618
G1 X86.267 Y84.848 E.00873
G1 X89.256 Y87.167 E.11862
G1 X92.444 Y89.334 E.12086
G1 X95.731 Y91.277 E.11972
G1 X99.029 Y92.957 E.11605
G1 X102.639 Y94.525 E.1234
G1 X106.233 Y95.817 E.11975
G1 X109.866 Y96.873 E.11862
G1 X113.592 Y97.707 E.11972
G1 X117.364 Y98.305 E.11975
G1 X121.201 Y98.668 E.12084
G1 X125.018 Y98.787 E.11974
G1 X128.799 Y98.668 E.11861
G1 X132.636 Y98.305 E.12084
G1 X136.373 Y97.714 E.11863
G1 X140.1 Y96.882 E.11973
G1 X143.801 Y95.806 E.12085
G1 X147.361 Y94.525 E.11863
G1 X150.866 Y93.009 E.11974
G1 X154.3 Y91.259 E.12085
G1 X157.586 Y89.315 E.11971
G1 X160.744 Y87.167 E.11975
G1 X163.733 Y84.848 E.11862
G1 X163.898 Y84.705 E.00685
M204 S1000
G1 X163.898 Y84.705 F10800
G1 X163.8 Y84.288
M204 S800
;TYPE:External perimeter
G1 F1200
G1 X180.107 Y84.288 E.51129
G1 X180.718 Y84.343 E.01923
G1 X181.28 Y84.469 E.01806
G1 X181.822 Y84.664 E.01806
G1 X182.336 Y84.926 E.01809
G1 X182.812 Y85.25 E.01805
G1 X183.244 Y85.631 E.01806
G1 X183.625 Y86.063 E.01806
G1 X183.949 Y86.539 E.01805
G1 X184.21 Y87.05 E.01799
G1 X184.477 Y87.874 E.02716
G1 X184.587 Y88.917 E.03288
G1 X184.588 Y121.191 E1.01193
G1 X184.492 Y122.057 E.02732
G1 X184.291 Y122.748 E.02256
G1 X184.055 Y123.271 E.01799
G1 X183.668 Y123.882 E.02268
G1 X183.294 Y124.319 E.01803
G1 X182.868 Y124.707 E.01807
G1 X182.397 Y125.037 E.01803
G1 X181.755 Y125.364 E.02259
G1 X180.926 Y125.619 E.02719
