; generated by PrusaSlicer 2.8.0+MacOS-x64 on 2024-09-25 at 02:18:19 UTC


;
;
; 

; external perimeters extrusion width = 0.60mm
; perimeters extrusion width = 0.50mm
; infill extrusion width = 0.50mm
; solid infill extrusion width = 0.50mm
; top infill extrusion width = 0.45mm
; support material extrusion width = 0.38mm
; first layer extrusion width = 0.42mm

M73 P0 R174
M73 Q0 S176
M201 X1000 Y1000 Z200 E5000 ; sets maximum accelerations, mm/sec^2
M203 X200 Y200 Z12 E120 ; sets maximum feedrates, mm / sec
M204 S1250 T1250 ; sets acceleration (S) and retract acceleration (R), mm/sec^2
M205 X8.00 Y8.00 Z0.40 E4.50 ; sets the jerk limits, mm/sec
M205 S0 T0 ; sets the minimum extruding and travel feed rate, mm/sec

; printing object power_switch.stl id:0 copy 0
; stop printing object power_switch.stl id:0 copy 0

;TYPE:Custom
M862.3 P "MK3S" ; printer model check
M862.1 P0.4 ; nozzle diameter check
M115 U3.12.2 ; tell printer latest fw version
G90 ; use absolute coordinates
M83 ; extruder relative mode
M104 S215 ; set extruder temp
M140 S60 ; set bed temp
M190 S60 ; wait for bed temp
M109 S215 ; wait for extruder temp
G28 W ; home all without mesh bed level
G80 ; mesh bed leveling

G1 Z0.2 F720
G1 Y-3 F1000 ; go outside print area
G92 E0
G1 X60 E9 F1000 ; intro line
G1 X100 E12.5 F1000 ; intro line

G92 E0
M221 S95

; Don't change E values below. Excessive value can damage the printer.

M907 E538 ; set extruder motor current
G21 ; set units to millimeters
G90 ; use absolute coordinates
M83 ; use relative distances for extrusion
M900 K0.05 ; Filament gcode LA 1.5
M900 K30 ; Filament gcode LA 1.0
M107
;LAYER_CHANGE
;Z:0.2
;HEIGHT:0.2
G1 E-.8 F2100
M73 P0 R173
G1 Z.6 F720
G1 X97.494 Y42.892 F10800
G1 Z.2 F720
G1 E.8 F2100
M204 S800
;TYPE:Skirt/Brim
;WIDTH:0.42
G1 F1200
G1 X98.163 Y41.931 E.03671
G1 X99.099 Y41.136 E.0385
G1 X100.188 Y40.622 E.03776
G1 X101.416 Y40.401 E.03912
G1 X166.631 Y40.399 E2.04477
G1 X167.574 Y40.497 E.02973
G1 X168.455 Y40.777 E.02898
G1 X169.193 Y41.177 E.02632
G1 X169.878 Y41.734 E.02768
G1 X170.444 Y42.407 E.02757
G1 X170.865 Y43.159 E.02702
G1 X171.137 Y43.957 E.02643
G1 X171.264 Y44.851 E.02831
G1 X171.267 Y166.129 E3.80259
G1 X171.139 Y167.14 E.03195
M73 Q0 S175
G1 X170.737 Y168.208 E.03578
G1 X170.067 Y169.169 E.03673
G1 X169.039 Y170.021 E.04186
G1 X167.957 Y170.505 E.03716
G1 X166.677 Y170.702 E.04061
G1 X101.536 Y170.701 E2.04245
G1 X100.526 Y170.574 E.03192
G1 X99.457 Y170.172 E.03581
G1 X98.496 Y169.502 E.03673
G1 X97.644 Y168.473 E.04189
G1 X97.16 Y167.392 E.03714
G1 X96.963 Y166.112 E.04061
G1 X96.964 Y44.971 E3.79829
G1 X97.091 Y43.961 E.03192
G1 X97.472 Y42.948 E.03393
M204 S1000
;WIPE_START
G1 F8640
G1 X97.494 Y42.892 E-.01389
G1 X98.163 Y41.931 E-.27037
G1 X99.099 Y41.136 E-.28356
G1 X100.008 Y40.706 E-.23218
;WIPE_END
G1 Z.6 F720
; printing object power_switch.stl id:0 copy 0
G1 X150.025 Y60.259 F10800
G1 Z.2 F720
G1 E.8 F2100
M204 S800
;TYPE:Perimeter
;WIDTH:0.419999
G1 F1200
G1 X150.104 Y59.972 E.00933
G1 X150.283 Y59.644 E.01172
G1 X150.575 Y59.328 E.01349
G1 X150.982 Y59.116 E.01439
G1 X151.502 Y59.02 E.01658
G1 X151.827 Y59.09 E.01042
G1 X151.938 Y59.22 E.00536
G1 X151.971 Y59.551 E.01043
G1 X151.959 Y59.65 E.00313
G1 X151.877 Y59.915 E.0087
G1 X151.664 Y60.079 E.00843
G1 X151.191 Y60.212 E.01541
G1 X150.522 Y60.257 E.02102
G1 X150.074 Y60.266 E.01405
M204 S1000
G1 X150.074 Y60.266 F10800
G1 X149.626 Y60.65
M204 S800
;TYPE:External perimeter
G1 F1200
G1 X149.636 Y60.288 E.01135
G1 X149.74 Y59.872 E.01344
G1 X149.956 Y59.457 E.01467
G1 X150.342 Y59.027 E.01812
G1 X150.763 Y58.783 E.01526
G1 X151.35 Y58.651 E.01886
G1 X151.916 Y58.701 E.01782
G1 X152.153 Y58.849 E.00876
G1 X152.3 Y59.089 E.00882
G1 X152.345 Y59.595 E.01593
G1 X152.313 Y59.865 E.00852
G1 X152.193 Y60.131 E.00915
G1 X151.998 Y60.329 E.00871
G1 X151.71 Y60.481 E.01021
G1 X151.246 Y60.586 E.01492
G1 X150.531 Y60.634 E.02247
G1 X149.684 Y60.652 E.02656
M204 S1000
;WIPE_START
G1 F8640
G1 X149.626 Y60.65 E-.0134
G1 X149.636 Y60.288 E-.08362
G1 X149.74 Y59.872 E-.09901
G1 X149.956 Y59.457 E-.10803
G1 X150.342 Y59.027 E-.13342
G1 X150.763 Y58.783 E-.11236
G1 X151.35 Y58.651 E-.13892
G1 X151.83 Y58.694 E-.11124
;WIPE_END
G1 Z.6 F720
G1 X151.575 Y59.934 F10800
G1 Z.2 F720
G1 E.8 F2100
M204 S800
;TYPE:Solid infill
;WIDTH:0.480866
G1 F1200
G1 X151.081 Y59.441 E.02541
G1 X150.785 Y59.599 E.01222
G1 X150.703 Y59.682 E.00425
G1 X151.07 Y60.049 E.0189
M204 S1000
;WIPE_START
G1 F8640
G1 X150.703 Y59.682 E-.11984
G1 X150.785 Y59.599 E-.02694
G1 X151.081 Y59.441 E-.07747
G1 X151.575 Y59.934 E-.16115
;WIPE_END
G1 E-.4146 F2100
G1 Z.6 F720
G1 X117.329 Y62.041 F10800
G1 Z.2 F720
G1 E.8 F2100
M204 S800
;TYPE:Perimeter
;WIDTH:0.419999
G1 F1200
G1 X118.605 Y62.041 E.04001
G1 X118.375 Y62.636 E.02
G1 X118.116 Y63.304 E.02246
G1 X117.968 Y63.836 E.01731
G1 X117.787 Y63.224 E.02001
G1 X117.351 Y62.097 E.03789
M204 S1000
G1 X117.351 Y62.097 F10800
G1 X116.779 Y61.664
M204 S800
;TYPE:External perimeter
G1 F1200
G1 X119.155 Y61.664 E.0745
G1 X118.726 Y62.772 E.03725
G1 X118.462 Y63.459 E.02308
G1 X118.231 Y64.303 E.02744
G1 X118.171 Y64.768 E.0147
G1 X117.971 Y65.361 E.01962
G1 X117.799 Y64.841 E.01717
G1 X117.713 Y64.307 E.01696
G1 X117.435 Y63.36 E.03095
G1 X116.8 Y61.72 E.05514
M204 S1000
;WIPE_START
G1 F8640
G1 X116.779 Y61.664 E-.01381
G1 X119.155 Y61.664 E-.54863
G1 X118.784 Y62.624 E-.23756
;WIPE_END
G1 Z.6 F720
G1 X117.662 Y62.43 F10800
G1 Z.2 F720
G1 E.8 F2100
M204 S800
;TYPE:Solid infill
;WIDTH:0.495415
G1 F1200
G1 X118.101 Y62.868 E.02333
M204 S1000
;WIPE_START
G1 F8640
G1 X117.662 Y62.43 E-.14319
;WIPE_END
G1 E-.65681 F2100
G1 Z.6 F720
G1 X138.5 Y89.203 F10800
G1 Z.2 F720
G1 E.8 F2100
M204 S800
;TYPE:Perimeter
;WIDTH:0.419999
G1 F1200
G1 X140.407 Y90.29 E.06882
G1 X142.091 Y91.789 E.07069
G1 X143.426 Y93.606 E.07069
G1 X144.354 Y95.661 E.0707
G1 X144.835 Y97.864 E.0707
G1 X144.835 Y100.236 E.07437
G1 X144.354 Y102.439 E.0707
G1 X143.426 Y104.494 E.0707
G1 X142.17 Y106.223 E.06701
G1 X140.502 Y107.741 E.07071
G1 X138.556 Y108.879 E.07068
G1 X136.415 Y109.587 E.0707
G1 X134.174 Y109.835 E.07069
G1 X131.931 Y109.612 E.07067
G1 X129.782 Y108.927 E.07072
G1 X127.824 Y107.81 E.07068
G1 X126.14 Y106.311 E.07069
G1 X124.804 Y104.494 E.07071
G1 X123.876 Y102.439 E.0707
G1 X123.395 Y100.236 E.0707
G1 X123.383 Y97.981 E.0707
G1 X123.84 Y95.773 E.0707
G1 X124.745 Y93.709 E.07066
G1 X126.061 Y91.877 E.07073
G1 X127.728 Y90.359 E.07069
G1 X128.441 Y89.934 E.02603
G1 X129.674 Y89.221 E.04466
G1 X131.815 Y88.513 E.0707
G1 X134.056 Y88.265 E.07069
G1 X136.3 Y88.488 E.07071
G1 X138.448 Y89.173 E.07069
M204 S1000
G1 X138.448 Y89.173 F10800
G1 X138.349 Y89.542
M204 S800
;TYPE:External perimeter
G1 F1200
G1 X140.218 Y90.616 E.06759
G1 X141.838 Y92.07 E.06825
G1 X143.121 Y93.828 E.06824
G1 X144.01 Y95.814 E.06822
G1 X144.466 Y97.942 E.06824
G1 X144.466 Y100.158 E.06948
G1 X144.01 Y102.286 E.06824
G1 X143.121 Y104.272 E.06822
G1 X141.865 Y106.001 E.06701
G1 X140.25 Y107.46 E.06824
G1 X138.367 Y108.552 E.06825
G1 X136.299 Y109.229 E.06823
G1 X134.135 Y109.46 E.06824
G1 X131.97 Y109.237 E.06824
G1 X129.899 Y108.568 E.06824
G1 X128.012 Y107.484 E.06823
G1 X126.392 Y106.03 E.06825
G1 X125.11 Y104.272 E.06822
G1 X124.221 Y102.286 E.06822
G1 X123.764 Y100.158 E.06824
G1 X123.76 Y97.981 E.06826
G1 X124.208 Y95.852 E.06822
G1 X125.09 Y93.862 E.06825
G1 X126.366 Y92.099 E.06824
G1 X127.98 Y90.64 E.06822
G1 X128.629 Y90.26 E.02358
G1 X129.863 Y89.548 E.04467
G1 X131.931 Y88.871 E.06823
G1 X134.095 Y88.64 E.06824
G1 X136.26 Y88.863 E.06824
G1 X138.293 Y89.52 E.06699
M204 S1000
;WIPE_START
G1 F8640
G1 X138.349 Y89.542 E-.01389
G1 X140.218 Y90.616 E-.49774
G1 X141.148 Y91.45 E-.28837
;WIPE_END
G1 Z.6 F720
G1 X132.143 Y65.98 F10800
G1 Z.2 F720
G1 E.8 F2100
M204 S800
G1 F1200
G1 X132.244 Y65.937 E.00344
G1 X133.908 Y65.937 E.05217
G1 X134.083 Y66.055 E.00662
G1 X134.096 Y67.735 E.05268
G1 X134.026 Y67.882 E.0051
G1 X133.908 Y67.923 E.00392
G1 X132.244 Y67.923 E.05217
G1 X132.102 Y67.859 E.00488
G1 X132.056 Y67.75 E.00371
G1 X132.055 Y66.126 E.05092
G1 X132.1 Y66.015 E.00376
M204 S1000
;WIPE_START
G1 F8640
G1 X132.143 Y65.98 E-.0128
G1 X132.244 Y65.937 E-.02535
G1 X133.908 Y65.937 E-.38422
G1 X134.083 Y66.055 E-.04874
G1 X134.094 Y67.479 E-.32889
;WIPE_END
G1 Z.6 F720
G1 X130.034 Y65.15 F10800
G1 Z.2 F720
G1 E.8 F2100
M204 S800
G1 F1200
G1 X129.933 Y65.197 E.00349
G1 X129.306 Y65.194 E.01966
G1 X128.369 Y65.125 E.02946
G1 X128.268 Y65.087 E.00338
G1 X128.198 Y64.976 E.00411
G1 X128.22 Y64.841 E.00429
G1 X128.32 Y64.673 E.00613
G1 X128.286 Y64.179 E.01553
G1 X127.666 Y64.866 E.02902
G1 X127.336 Y65.091 E.01252
G1 X126.97 Y65.232 E.0123
G1 X126.547 Y65.31 E.01349
G1 X125.922 Y65.321 E.0196
G1 X125.481 Y65.289 E.01386
G1 X124.958 Y65.167 E.01684
G1 X124.474 Y64.945 E.0167
G1 X124.069 Y64.621 E.01626
G1 X123.757 Y64.187 E.01676
G1 X123.544 Y63.657 E.01791
G1 X123.423 Y63.045 E.01956
G1 X123.384 Y62.356 E.02164
G1 X123.403 Y57.357 E.15674
;WIDTH:0.381052
G1 X123.408 Y57.229 E.0036
;WIDTH:0.419999
G1 X123.534 Y57.044 E.00702
G1 X123.572 Y57.04 E.0012
G1 X125.242 Y57.04 E.05236
G1 X125.37 Y57.09 E.00431
G1 X125.431 Y57.229 E.00476
G1 X125.431 Y62.097 E.15263
G1 X125.462 Y62.599 E.01577
G1 X125.53 Y62.996 E.01263
G1 X125.676 Y63.303 E.01066
G1 X125.836 Y63.439 E.00658
G1 X126.042 Y63.505 E.00678
G1 X126.653 Y63.558 E.01923
G1 X127.023 Y63.492 E.01178
G1 X127.398 Y63.311 E.01306
G1 X127.711 Y62.958 E.01479
G1 X127.911 Y62.535 E.01467
G1 X127.998 Y62.058 E.0152
G1 X128.022 Y61.648 E.01288
G1 X128.022 Y57.229 E.13855
G1 X128.082 Y57.09 E.00475
G1 X128.21 Y57.04 E.00431
G1 X129.874 Y57.04 E.05217
G1 X129.986 Y57.077 E.0037
G1 X130.062 Y57.229 E.00533
G1 X130.065 Y63.792 E.20578
G1 X130.122 Y65 E.03792
G1 X130.083 Y65.119 E.00393
M204 S1000
;WIPE_START
G1 F8640
G1 X130.034 Y65.15 E-.01339
G1 X129.933 Y65.197 E-.02572
G1 X129.306 Y65.194 E-.14478
G1 X128.369 Y65.125 E-.21694
G1 X128.268 Y65.087 E-.02492
G1 X128.198 Y64.976 E-.0303
G1 X128.22 Y64.841 E-.03158
G1 X128.32 Y64.673 E-.04514
G1 X128.286 Y64.179 E-.11434
G1 X127.843 Y64.67 E-.15289
;WIPE_END
G1 Z.6 F720
G1 X150.484 Y62.712 F10800
G1 Z.2 F720
G1 E.8 F2100
M204 S800
;TYPE:Perimeter
;WIDTH:0.484235
G1 F1200
G1 X150.918 Y62.715 E.01593
G1 X151.648 Y62.653 E.02688
;WIDTH:0.482218
G1 X151.527 Y62.989 E.01304
G1 X151.323 Y63.11 E.00866
;WIDTH:0.488773
G1 X150.823 Y63.166 E.01865
G1 X150.309 Y63.119 E.01913
;WIDTH:0.45591
G1 X150.157 Y63.019 E.00625
G1 X150.051 Y62.717 E.01099
G1 X150.363 Y62.712 E.01072
;WIDTH:0.484235
G1 X150.424 Y62.712 E.00224
M204 S1000
;WIPE_START
G1 F8640
G1 X150.484 Y62.712 E-.01385
G1 X150.918 Y62.715 E-.10021
G1 X151.648 Y62.653 E-.16917
G1 X151.527 Y62.989 E-.08246
G1 X151.323 Y63.11 E-.05477
G1 X150.823 Y63.166 E-.11617
G1 X150.309 Y63.119 E-.11918
G1 X150.157 Y63.019 E-.04201
G1 X150.051 Y62.717 E-.0739
G1 X150.173 Y62.715 E-.02828
;WIPE_END
G1 Z.6 F720
G1 X153.35 Y62.123 F10800
G1 Z.2 F720
G1 E.8 F2100
M204 S800
;WIDTH:0.419999
G1 F1200
G1 X154.051 Y62.184 E.02206
G1 X154.358 Y62.309 E.01039
G1 X154.533 Y62.554 E.00944
G1 X154.559 Y62.846 E.00919
G1 X154.536 Y62.933 E.00282
G1 X154.127 Y64.113 E.03916
G1 X154.001 Y64.318 E.00754
G1 X153.345 Y65.005 E.02978
G1 X153.156 Y65.135 E.00719
G1 X152.203 Y65.537 E.03243
G1 X150.817 Y65.708 E.04379
G1 X150.044 Y65.668 E.02427
G1 X149.362 Y65.53 E.02182
G1 X148.742 Y65.284 E.02091
G1 X148.198 Y64.916 E.02059
G1 X147.787 Y64.466 E.01911
G1 X147.44 Y63.853 E.02209
G1 X147.254 Y63.202 E.02123
G1 X147.189 Y62.463 E.02326
G1 X147.189 Y59.32 E.09855
G1 X147.166 Y59.008 E.00981
G1 X146.757 Y59.076 E.013
G1 X146.44 Y58.849 E.01222
G1 X146.442 Y63.783 E.1547
G1 X146.499 Y64.982 E.03764
G1 X146.421 Y65.296 E.01014
G1 X146.233 Y65.489 E.00845
G1 X145.979 Y65.572 E.00838
G1 X145.304 Y65.571 E.02116
G1 X144.284 Y65.494 E.03207
G1 X144.079 Y65.415 E.00689
G1 X143.905 Y65.202 E.00862
G1 X143.587 Y65.429 E.01225
G1 X143.169 Y65.598 E.01414
G1 X142.701 Y65.686 E.01493
G1 X141.903 Y65.688 E.02502
G1 X141.405 Y65.604 E.01583
G1 X140.915 Y65.416 E.01646
G1 X140.541 Y65.159 E.01423
G1 X140.255 Y64.781 E.01486
G1 X139.882 Y65.177 E.01706
G1 X139.434 Y65.45 E.01645
G1 X138.954 Y65.611 E.01587
G1 X138.148 Y65.707 E.02545
G1 X137.489 Y65.669 E.0207
G1 X136.905 Y65.528 E.01884
G1 X136.371 Y65.27 E.01859
G1 X135.915 Y64.882 E.01877
G1 X135.567 Y64.369 E.01944
G1 X135.34 Y63.767 E.02017
G1 X135.265 Y63.385 E.01221
;WIDTH:0.464762
G1 X135.229 Y63.298 E.0033
;WIDTH:0.509525
G1 X135.192 Y63.21 E.0037
;WIDTH:0.554288
G1 X135.155 Y63.123 E.00402
;WIDTH:0.599051
G1 X135.119 Y63.036 E.00435
G1 X135.094 Y62.377 E.0305
;WIDTH:0.582784
G1 X135.094 Y62.345 E.00144
;WIDTH:0.582229
G1 X135.094 Y57.229 E.22942
G1 X135.149 Y57.135 E.00488
;WIDTH:0.541672
G1 X135.205 Y57.042 E.0045
;WIDTH:0.501114
G1 X135.26 Y56.949 E.00412
;WIDTH:0.460557
G1 X135.315 Y56.855 E.00378
;WIDTH:0.419999
G1 X135.586 Y56.685 E.01003
G1 X135.74 Y56.663 E.00488
G1 X137.39 Y56.663 E.05173
G1 X137.659 Y56.731 E.0087
G1 X137.871 Y56.931 E.00914
G1 X137.956 Y57.229 E.00972
G1 X137.956 Y62.087 E.15232
G1 X137.999 Y62.651 E.01774
G1 X138.115 Y63.116 E.01503
G1 X138.316 Y63.177 E.00659
G1 X138.724 Y63.169 E.01279
G1 X139.005 Y63.037 E.00973
G1 X139.234 Y62.723 E.01219
G1 X139.374 Y62.204 E.01685
G1 X139.413 Y61.661 E.01707
G1 X139.413 Y57.229 E.13896
G1 X139.498 Y56.931 E.00972
G1 X139.71 Y56.731 E.00914
G1 X139.979 Y56.663 E.0087
G1 X141.629 Y56.663 E.05173
G1 X141.897 Y56.731 E.00867
G1 X142.11 Y56.931 E.00916
G1 X142.194 Y57.229 E.00971
G1 X142.194 Y62.087 E.15232
G1 X142.236 Y62.642 E.01745
G1 X142.353 Y63.116 E.01531
G1 X142.554 Y63.177 E.00659
G1 X142.951 Y63.169 E.01245
G1 X143.23 Y63.035 E.0097
G1 X143.47 Y62.713 E.01259
G1 X143.61 Y62.207 E.01646
G1 X143.651 Y61.66 E.0172
G1 X143.651 Y57.229 E.13893
G1 X143.736 Y56.931 E.00972
G1 X143.949 Y56.731 E.00916
G1 X144.217 Y56.663 E.00867
G1 X145.874 Y56.663 E.05195
G1 X146.085 Y56.704 E.00674
G1 X146.199 Y56.766 E.00407
G1 X146.303 Y56.965 E.00704
G1 X146.445 Y56.791 E.00704
G1 X147.231 Y56.633 E.02514
G1 X147.808 Y56.597 E.01813
G1 X148.313 Y56.641 E.01589
G1 X148.791 Y56.813 E.01593
G1 X149.163 Y57.077 E.0143
G1 X149.45 Y57.472 E.01531
G1 X149.809 Y57.102 E.01616
G1 X150.272 Y56.819 E.01701
G1 X150.762 Y56.649 E.01626
G1 X151.749 Y56.53 E.03117
G1 X152.4 Y56.567 E.02044
G1 X152.984 Y56.701 E.01879
G1 X153.52 Y56.944 E.01845
G1 X153.987 Y57.304 E.01849
G1 X154.353 Y57.758 E.01828
G1 X154.565 Y58.183 E.01489
G1 X154.565 Y57.229 E.02991
G1 X154.58 Y57.102 E.00401
G1 X154.729 Y56.83 E.00972
G1 X154.987 Y56.682 E.00933
G1 X155.131 Y56.663 E.00455
G1 X161.697 Y56.663 E.20587
G1 X161.984 Y56.741 E.00933
G1 X162.178 Y56.93 E.00849
G1 X162.263 Y57.229 E.00975
G1 X162.263 Y67.226 E.31345
G1 X162.178 Y67.525 E.00975
G1 X161.984 Y67.714 E.00849
G1 X161.697 Y67.792 E.00933
G1 X159.959 Y67.792 E.05449
G1 X159.697 Y67.727 E.00846
G1 X159.503 Y67.56 E.00803
G1 X159.402 Y67.325 E.00802
G1 X159.394 Y59.295 E.25177
G1 X155.131 Y59.295 E.13366
G1 X155.014 Y59.283 E.00369
G1 X154.786 Y59.107 E.00903
G1 X154.807 Y59.592 E.01522
G1 X154.76 Y60.125 E.01678
G1 X154.585 Y60.755 E.0205
G1 X154.271 Y61.327 E.02046
G1 X153.888 Y61.746 E.0178
G1 X153.71 Y61.904 E.00746
G1 X153.402 Y62.092 E.01131
M204 S1000
;WIPE_START
G1 F8640
G1 X153.35 Y62.123 E-.01398
G1 X154.051 Y62.184 E-.16247
G1 X154.358 Y62.309 E-.07654
G1 X154.533 Y62.554 E-.06952
G1 X154.559 Y62.846 E-.06769
G1 X154.536 Y62.933 E-.02078
G1 X154.127 Y64.113 E-.28837
G1 X154.001 Y64.318 E-.05556
G1 X153.866 Y64.459 E-.04509
;WIPE_END
G1 Z.6 F720
G1 X137.53 Y57.126 F10800
G1 Z.2 F720
G1 E.8 F2100
M204 S800
;TYPE:External perimeter
G1 F1200
G1 X137.579 Y57.229 E.00358
G1 X137.579 Y62.094 E.15254
G1 X137.612 Y62.633 E.01693
G1 X137.72 Y63.184 E.0176
G1 X137.885 Y63.42 E.00903
G1 X138.228 Y63.549 E.01149
G1 X138.803 Y63.54 E.01803
G1 X139.147 Y63.394 E.01172
G1 X139.426 Y63.139 E.01185
G1 X139.614 Y62.781 E.01268
G1 X139.745 Y62.272 E.01648
G1 X139.79 Y61.661 E.01921
G1 X139.79 Y57.229 E.13896
G1 X139.86 Y57.082 E.0051
