; generated by PrusaSlicer 2.7.2+MacOS-x64 on 2024-09-25 at 02:22:06 UTC


;
;
; 

; external perimeters extrusion width = 0.60mm
; perimeters extrusion width = 0.50mm
; infill extrusion width = 0.50mm
; solid infill extrusion width = 0.50mm
; top infill extrusion width = 0.45mm
; first layer extrusion width = 0.42mm

M73 P0 R179
M73 Q0 S182
M201 X1000 Y1000 Z200 E5000 ; sets maximum accelerations, mm/sec^2
M203 X200 Y200 Z12 E120 ; sets maximum feedrates, mm / sec
M204 S1250 T1250 ; sets acceleration (S) and retract acceleration (R), mm/sec^2
M205 X8.00 Y8.00 Z0.40 E4.50 ; sets the jerk limits, mm/sec
M205 S0 T0 ; sets the minimum extruding and travel feed rate, mm/sec

; printing object power_switch.stl id:0 copy 0
; stop printing object power_switch.stl id:0 copy 0

;TYPE:Custom
M862.3 P "MK3S" ; printer model check
M862.1 P0.4 ; nozzle diameter check
M115 U3.12.2 ; tell printer latest fw version
G90 ; use absolute coordinates
M83 ; extruder relative mode
M104 S215 ; set extruder temp
M140 S60 ; set bed temp
M190 S60 ; wait for bed temp
M109 S215 ; wait for extruder temp
G28 W ; home all without mesh bed level
G80 ; mesh bed leveling

G1 Z0.2 F720
G1 Y-3 F1000 ; go outside print area
G92 E0
G1 X60 E9 F1000 ; intro line
G1 X100 E12.5 F1000 ; intro line
M73 Q0 S181

G92 E0
M221 S95

; Don't change E values below. Excessive value can damage the printer.

M907 E538 ; set extruder motor current
G21 ; set units to millimeters
G90 ; use absolute coordinates
M83 ; use relative distances for extrusion
M900 K0.05 ; Filament gcode LA 1.5
M900 K30 ; Filament gcode LA 1.0
M107
;LAYER_CHANGE
;Z:0.2
;HEIGHT:0.2
G1 E-.8 F2100
G1 Z.6 F720
G1 X97.325 Y42.806 F10800
G1 Z.2 F720
G1 E.8 F2100
M204 S800
;TYPE:Skirt/Brim
;WIDTH:0.42
G1 F1200
G1 X98.026 Y41.802 E.03839
G1 X99 Y40.976 E.04004
G1 X100.132 Y40.442 E.03924
G1 X101.411 Y40.213 E.04074
G1 X166.631 Y40.21 E2.04493
G1 X167.609 Y40.312 E.03083
G1 X168.526 Y40.602 E.03016
G1 X169.297 Y41.019 E.02748
G1 X170.008 Y41.596 E.02871
G1 X170.6 Y42.301 E.02886
G1 X171.037 Y43.079 E.02798
G1 X171.32 Y43.91 E.02752
G1 X171.452 Y44.845 E.02961
G1 X171.455 Y166.129 E3.80277
G1 X171.322 Y167.186 E.0334
G1 X170.905 Y168.294 E.03712
G1 X170.204 Y169.298 E.03839
G1 X169.231 Y170.124 E.04002
G1 X168.099 Y170.658 E.03924
G1 X166.82 Y170.887 E.04074
G1 X101.536 Y170.89 E2.04693
G1 X100.479 Y170.756 E.03341
G1 X99.371 Y170.34 E.03711
G1 X98.367 Y169.639 E.03839
G1 X97.872 Y169.121 E.02246
G1 X97.484 Y168.573 E.02105
G1 X96.98 Y167.448 E.03865
G1 X96.774 Y166.118 E.0422
G1 X96.775 Y44.971 E3.79848
G1 X96.909 Y43.914 E.03341
G1 X97.304 Y42.862 E.03523
M204 S1000
; printing object power_switch.stl id:0 copy 0
;WIPE_START
G1 F8640
G1 X97.325 Y42.806 E-.01381
G1 X98.026 Y41.802 E-.28274
G1 X99 Y40.976 E-.29488
G1 X99.817 Y40.59 E-.20857
;WIPE_END
G1 Z.6 F720
G1 X150.022 Y60.267 F10800
G1 Z.2 F720
G1 E.8 F2100
M204 S800
;TYPE:Perimeter
;WIDTH:0.419999
G1 F1200
G1 X150.104 Y59.972 E.0096
G1 X150.283 Y59.644 E.01172
G1 X150.575 Y59.328 E.01349
G1 X150.982 Y59.116 E.01439
G1 X151.502 Y59.02 E.01658
G1 X151.827 Y59.09 E.01042
G1 X151.938 Y59.22 E.00536
G1 X151.971 Y59.551 E.01043
G1 X151.959 Y59.65 E.00313
G1 X151.877 Y59.915 E.0087
G1 X151.664 Y60.079 E.00843
G1 X151.191 Y60.212 E.01541
G1 X150.522 Y60.257 E.02102
G1 X150.082 Y60.266 E.0138
M204 S1000
G1 X150.082 Y60.266 F10800
G1 X149.626 Y60.653
M204 S800
;TYPE:External perimeter
G1 F1200
G1 X149.636 Y60.288 E.01145
G1 X149.74 Y59.872 E.01344
G1 X149.956 Y59.457 E.01467
G1 X150.342 Y59.027 E.01812
G1 X150.763 Y58.783 E.01526
G1 X151.35 Y58.651 E.01886
G1 X151.916 Y58.701 E.01782
G1 X152.153 Y58.849 E.00876
G1 X152.3 Y59.089 E.00882
G1 X152.345 Y59.595 E.01593
G1 X152.313 Y59.865 E.00852
G1 X152.193 Y60.131 E.00915
G1 X151.998 Y60.329 E.00871
G1 X151.71 Y60.481 E.01021
G1 X151.246 Y60.586 E.01492
G1 X150.531 Y60.634 E.02247
G1 X149.686 Y60.651 E.0265
M204 S1000
;WIPE_START
G1 F8640
G1 X149.626 Y60.653 E-.01386
G1 X149.636 Y60.288 E-.08431
G1 X149.74 Y59.872 E-.09901
G1 X149.956 Y59.457 E-.10803
G1 X150.342 Y59.027 E-.13342
G1 X150.763 Y58.783 E-.11236
G1 X151.35 Y58.651 E-.13892
G1 X151.825 Y58.693 E-.11009
;WIPE_END
G1 Z.6 F720
G1 X151.575 Y59.934 F10800
G1 Z.2 F720
G1 E.8 F2100
M204 S800
;TYPE:Solid infill
;WIDTH:0.480866
G1 F1200
G1 X151.081 Y59.441 E.02541
G1 X150.785 Y59.599 E.01222
G1 X150.703 Y59.682 E.00425
G1 X151.07 Y60.049 E.0189
M204 S1000
;WIPE_START
G1 F8640
G1 X150.703 Y59.682 E-.11984
G1 X150.785 Y59.599 E-.02694
G1 X151.081 Y59.441 E-.07747
G1 X151.575 Y59.934 E-.16115
;WIPE_END
G1 E-.4146 F2100
G1 Z.6 F720
G1 X117.329 Y62.041 F10800
G1 Z.2 F720
G1 E.8 F2100
M204 S800
;TYPE:Perimeter
;WIDTH:0.419999
G1 F1200
G1 X118.605 Y62.041 E.04001
G1 X118.375 Y62.636 E.02
G1 X118.116 Y63.304 E.02246
G1 X117.968 Y63.836 E.01731
G1 X117.787 Y63.224 E.02001
G1 X117.351 Y62.097 E.03789
M204 S1000
G1 X117.351 Y62.097 F10800
G1 X116.779 Y61.664
M204 S800
;TYPE:External perimeter
G1 F1200
G1 X119.155 Y61.664 E.0745
G1 X118.726 Y62.772 E.03725
G1 X118.462 Y63.459 E.02308
G1 X118.231 Y64.303 E.02744
G1 X118.171 Y64.768 E.0147
G1 X117.971 Y65.361 E.01962
G1 X117.799 Y64.841 E.01717
G1 X117.713 Y64.307 E.01696
G1 X117.435 Y63.36 E.03095
G1 X116.8 Y61.72 E.05514
M204 S1000
;WIPE_START
G1 F8640
G1 X116.779 Y61.664 E-.01381
G1 X119.155 Y61.664 E-.54863
G1 X118.784 Y62.624 E-.23756
;WIPE_END
G1 Z.6 F720
G1 X117.662 Y62.43 F10800
G1 Z.2 F720
G1 E.8 F2100
M204 S800
;TYPE:Solid infill
;WIDTH:0.495415
G1 F1200
G1 X118.101 Y62.868 E.02333
M204 S1000
;WIPE_START
G1 F8640
G1 X117.662 Y62.43 E-.14319
;WIPE_END
G1 E-.65681 F2100
G1 Z.6 F720
G1 X112.01 Y65.528 F10800
G1 Z.2 F720
G1 E.8 F2100
M204 S800
;TYPE:Perimeter
;WIDTH:0.419999
G1 F1200
G1 X111.908 Y65.567 E.00342
G1 X112.298 Y65.716 E.01309
G1 X112.455 Y65.982 E.00968
G1 X112.473 Y66.126 E.00455
G1 X112.473 Y67.735 E.05045
G1 X112.421 Y67.972 E.00761
G1 X112.233 Y68.197 E.00919
G1 X111.985 Y68.295 E.00836
G1 X110.244 Y68.3 E.05459
G1 X109.963 Y68.226 E.00911
G1 X109.788 Y68.069 E.00737
G1 X109.685 Y67.821 E.00842
G1 X109.678 Y66.126 E.05315
G1 X109.734 Y65.88 E.00791
G1 X109.836 Y65.734 E.00558
G1 X110.195 Y65.567 E.01241
G1 X109.836 Y65.401 E.0124
G1 X109.694 Y65.141 E.00929
G1 X109.678 Y64.979 E.0051
G1 X109.678 Y57.229 E.243
G1 X109.776 Y56.911 E.01043
G1 X109.994 Y56.721 E.00907
G1 X110.141 Y56.672 E.00486
G1 X111.908 Y56.663 E.0554
G1 X112.096 Y56.695 E.00598
G1 X112.235 Y56.767 E.00491
;WIDTH:0.432568
G1 X112.48 Y57.229 E.01694
G1 X112.725 Y56.767 E.01694
;WIDTH:0.419999
G1 X113.002 Y56.665 E.00926
G1 X113.051 Y56.663 E.00154
G1 X114.853 Y56.663 E.0565
G1 X115.11 Y56.725 E.00829
G1 X115.326 Y56.919 E.0091
G1 X116.331 Y59.457 E.08559
G1 X119.611 Y59.457 E.10284
G1 X120.568 Y57.022 E.08203
G1 X120.728 Y56.798 E.00863
G1 X120.96 Y56.679 E.00818
G1 X121.094 Y56.663 E.00423
G1 X122.918 Y56.663 E.05719
G1 X123.13 Y56.704 E.00677
G1 X123.245 Y56.875 E.00646
G1 X123.36 Y56.704 E.00646
G1 X123.572 Y56.663 E.00677
G1 X125.242 Y56.663 E.05236
G1 X125.48 Y56.716 E.00765
G1 X125.627 Y56.814 E.00554
G1 X125.74 Y56.961 E.00581
G1 X125.808 Y57.229 E.00867
G1 X125.808 Y62.092 E.15248
G1 X125.865 Y62.783 E.02174
G1 X125.972 Y63.07 E.0096
G1 X126.091 Y63.131 E.00419
G1 X126.619 Y63.182 E.01663
G1 X127.004 Y63.103 E.01232
G1 X127.318 Y62.866 E.01233
G1 X127.519 Y62.497 E.01317
G1 X127.622 Y62.034 E.01487
G1 X127.644 Y61.648 E.01212
G1 X127.644 Y57.229 E.13855
G1 X127.712 Y56.961 E.00867
G1 X127.912 Y56.748 E.00916
G1 X128.145 Y56.667 E.00773
G1 X128.21 Y56.663 E.00204
G1 X129.874 Y56.663 E.05217
G1 X130.124 Y56.721 E.00805
G1 X130.342 Y56.911 E.00907
G1 X130.439 Y57.229 E.01042
G1 X130.442 Y63.783 E.2055
G1 X130.499 Y64.982 E.03764
G1 X130.443 Y65.255 E.00874
G1 X130.285 Y65.452 E.00792
G1 X130.096 Y65.55 E.00668
G1 X129.527 Y65.572 E.01785
G1 X128.341 Y65.502 E.03725
G1 X128.109 Y65.433 E.00759
G1 X127.875 Y65.18 E.01081
G1 X127.472 Y65.443 E.01509
G1 X127.026 Y65.606 E.01489
G1 X126.567 Y65.687 E.01461
G1 X125.897 Y65.697 E.02101
G1 X125.395 Y65.656 E.01579
G1 X124.873 Y65.534 E.01681
G1 X124.314 Y65.287 E.01916
G1 X123.83 Y64.912 E.0192
G1 X123.448 Y64.404 E.01993
G1 X123.193 Y63.795 E.0207
G1 X123.053 Y63.116 E.02174
G1 X123.006 Y62.345 E.02422
G1 X123.006 Y58.509 E.12027
G1 X119.361 Y67.44 E.30245
G1 X119.194 Y67.666 E.00881
G1 X118.934 Y67.784 E.00895
G1 X118.838 Y67.792 E.00302
G1 X117.062 Y67.792 E.05569
G1 X116.797 Y67.723 E.00859
G1 X116.61 Y67.559 E.0078
G1 X116.36 Y66.983 E.01969
G1 X115.344 Y64.454 E.08545
;WIDTH:0.434716
G1 X112.52 Y57.442 E.24627
;WIDTH:0.441234
G1 X112.484 Y57.328 E.00396
G1 X112.481 Y57.45 E.00404
;WIDTH:0.434716
G1 X112.473 Y65.009 E.24626
;WIDTH:0.419999
G1 X112.408 Y65.272 E.00849
G1 X112.298 Y65.419 E.00576
G1 X112.066 Y65.507 E.00778
M204 S1000
G1 X112.066 Y65.507 F10800
G1 X111.908 Y65.197
M204 S800
;TYPE:External perimeter
G1 F1200
G1 X110.244 Y65.197 E.05217
G1 X110.108 Y65.139 E.00464
G1 X110.055 Y64.979 E.00528
G1 X110.055 Y57.229 E.243
G1 X110.132 Y57.077 E.00534
G1 X110.21 Y57.043 E.00267
G1 X111.908 Y57.04 E.05324
G1 X112.017 Y57.075 E.00359
G1 X112.096 Y57.229 E.00543
G1 X112.096 Y65.009 E.24394
G1 X112.038 Y65.145 E.00464
G1 X111.963 Y65.175 E.00253
M204 S1000
;WIPE_START
G1 F8640
G1 X111.908 Y65.197 E-.01368
G1 X110.244 Y65.197 E-.38422
G1 X110.108 Y65.139 E-.03414
G1 X110.055 Y64.979 E-.03892
G1 X110.055 Y63.554 E-.32904
;WIPE_END
G1 Z.6 F720
G1 X108.341 Y65.366 F10800
G1 Z.2 F720
G1 E.8 F2100
M204 S800
;TYPE:Perimeter
G1 F1200
G1 X108.274 Y65.45 E.00337
G1 X108.079 Y65.551 E.00689
G1 X107.552 Y65.566 E.01653
G1 X106.841 Y65.502 E.02238
G1 X106.334 Y65.337 E.01672
G1 X106.091 Y65.173 E.00919
G1 X105.607 Y65.515 E.01858
G1 X105.137 Y65.662 E.01544
G1 X104.687 Y65.705 E.01417
G1 X104.323 Y65.677 E.01145
G1 X103.882 Y65.584 E.01413
G1 X103.689 Y65.503 E.00656
G1 X103.511 Y65.315 E.00812
G1 X103.434 Y65.031 E.00923
G1 X103.434 Y63.46 E.04926
G1 X103.516 Y63.167 E.00954
G1 X103.703 Y62.978 E.00834
G1 X103.992 Y62.894 E.00944
G1 X104.407 Y62.971 E.01323
G1 X104.908 Y63.008 E.01575
G1 X105.151 Y62.948 E.00785
G1 X105.359 Y62.732 E.0094
G1 X105.542 Y62.251 E.01614
G1 X105.625 Y61.708 E.01722
G1 X105.644 Y60.82 E.02785
G1 X105.644 Y57.229 E.11259
G1 X105.73 Y56.93 E.00976
G1 X105.923 Y56.741 E.00847
G1 X106.21 Y56.663 E.00933
G1 X107.874 Y56.663 E.05217
G1 X108.124 Y56.721 E.00805
G1 X108.342 Y56.911 E.00907
G1 X108.439 Y57.229 E.01042
G1 X108.439 Y63.071 E.18317
G1 X108.487 Y64.994 E.06031
G1 X108.431 Y65.253 E.00831
G1 X108.378 Y65.319 E.00265
M204 S1000
G1 X108.378 Y65.319 F10800
G1 X108.067 Y65.127
M204 S800
;TYPE:External perimeter
G1 F1200
G1 X107.918 Y65.196 E.00515
G1 X107.303 Y65.184 E.01929
G1 X106.858 Y65.12 E.0141
G1 X106.377 Y64.926 E.01626
G1 X106.331 Y64.81 E.00391
G1 X106.306 Y64.181 E.01974
G1 X106.135 Y64.499 E.01132
G1 X105.779 Y64.934 E.01762
G1 X105.446 Y65.173 E.01285
G1 X105.094 Y65.288 E.01161
G1 X104.709 Y65.329 E.01214
G1 X104.401 Y65.309 E.00968
G1 X103.896 Y65.188 E.01628
G1 X103.814 Y65.063 E.00469
G1 X103.811 Y65.03 E.00104
G1 X103.811 Y63.46 E.04923
G1 X103.901 Y63.299 E.00578
G1 X104.041 Y63.276 E.00445
G1 X104.324 Y63.339 E.00909
G1 X104.858 Y63.393 E.01683
G1 X105.23 Y63.322 E.01187
G1 X105.518 Y63.142 E.01065
G1 X105.731 Y62.828 E.0119
G1 X105.904 Y62.355 E.01579
G1 X105.998 Y61.81 E.01734
G1 X106.022 Y61.266 E.01707
G1 X106.022 Y57.229 E.12658
G1 X106.08 Y57.092 E.00466
G1 X106.21 Y57.04 E.00439
G1 X107.874 Y57.04 E.05217
G1 X107.986 Y57.077 E.0037
G1 X108.062 Y57.229 E.00533
G1 X108.062 Y63.075 E.1833
G1 X108.11 Y65.003 E.06047
G1 X108.087 Y65.07 E.00222
M204 S1000
;WIPE_START
G1 F8640
G1 X108.067 Y65.127 E-.01395
G1 X107.918 Y65.196 E-.03791
G1 X107.303 Y65.184 E-.14203
G1 X106.858 Y65.12 E-.10381
G1 X106.377 Y64.926 E-.11976
G1 X106.331 Y64.81 E-.02881
G1 X106.306 Y64.181 E-.14535
G1 X106.135 Y64.499 E-.08337
G1 X105.792 Y64.918 E-.12501
;WIPE_END
G1 Z.6 F720
G1 X112.075 Y66.038 F10800
G1 Z.2 F720
G1 E.8 F2100
M204 S800
G1 F1200
G1 X112.092 Y66.087 E.00163
G1 X112.096 Y67.735 E.05167
G1 X112.028 Y67.88 E.00502
G1 X111.908 Y67.923 E.004
G1 X110.244 Y67.923 E.05217
G1 X110.11 Y67.867 E.00455
G1 X110.055 Y67.735 E.00448
G1 X110.055 Y66.126 E.05045
G1 X110.108 Y65.995 E.00443
G1 X110.244 Y65.937 E.00464
G1 X111.908 Y65.937 E.05217
G1 X112.023 Y66.007 E.00422
M204 S1000
;WIPE_START
G1 F8640
G1 X112.075 Y66.038 E-.01398
G1 X112.092 Y66.087 E-.01198
G1 X112.096 Y67.735 E-.38053
G1 X112.028 Y67.88 E-.03698
G1 X111.908 Y67.923 E-.02943
G1 X110.491 Y67.923 E-.3271
;WIPE_END
G1 Z.6 F720
G1 X110.195 Y65.567 F10800
G1 Z.2 F720
G1 E.8 F2100
M204 S800
;TYPE:Perimeter
;WIDTH:0.409798
G1 F1200
G1 X111.908 Y65.567 E.05226
M204 S1000
;WIPE_START
G1 F8640
G1 X110.195 Y65.567 E-.39554
;WIPE_END
G1 E-.40446 F2100
G1 Z.6 F720
G1 X123.08 Y57.257 F10800
G1 Z.2 F720
G1 E.8 F2100
M204 S800
;TYPE:External perimeter
;WIDTH:0.381052
G1 F1200
G1 X123.074 Y57.292 E.001
;WIDTH:0.419999
G1 X119.012 Y67.297 E.33857
G1 X118.9 Y67.404 E.00486
G1 X118.838 Y67.415 E.00197
G1 X117.059 Y67.415 E.05578
G1 X116.915 Y67.337 E.00513
G1 X116.71 Y66.843 E.01677
G1 X112.876 Y57.299 E.32249
G1 X112.863 Y57.229 E.00223
G1 X112.989 Y57.051 E.00684
G1 X113.051 Y57.04 E.00197
G1 X114.853 Y57.04 E.0565
G1 X114.992 Y57.101 E.00476
G1 X116.073 Y59.834 E.09215
G1 X119.867 Y59.834 E.11896
G1 X120.919 Y57.16 E.0901
G1 X121.028 Y57.052 E.00481
G1 X122.918 Y57.04 E.05926
G1 X122.988 Y57.054 E.00224
G1 X123.055 Y57.202 E.00509
M204 S1000
;WIPE_START
G1 F8640
G1 X123.08 Y57.257 E-.01395
G1 X123.074 Y57.292 E-.0082
G1 X121.807 Y60.413 E-.77785
;WIPE_END
G1 Z.6 F720
G1 X130.08 Y65.128 F10800
G1 Z.2 F720
G1 E.8 F2100
M204 S800
G1 F1200
G1 X129.933 Y65.197 E.00509
G1 X129.306 Y65.194 E.01966
G1 X128.369 Y65.125 E.02946
G1 X128.268 Y65.087 E.00338
G1 X128.198 Y64.976 E.00411
G1 X128.22 Y64.841 E.00429
G1 X128.32 Y64.673 E.00613
G1 X128.286 Y64.179 E.01553
G1 X127.666 Y64.866 E.02902
G1 X127.336 Y65.091 E.01252
G1 X126.97 Y65.232 E.0123
G1 X126.547 Y65.31 E.01349
G1 X125.922 Y65.321 E.0196
G1 X125.481 Y65.289 E.01386
G1 X124.958 Y65.167 E.01684
G1 X124.474 Y64.945 E.0167
G1 X124.069 Y64.621 E.01626
G1 X123.757 Y64.187 E.01676
G1 X123.544 Y63.657 E.01791
G1 X123.423 Y63.045 E.01956
G1 X123.384 Y62.356 E.02164
G1 X123.403 Y57.357 E.15674
;WIDTH:0.381052
G1 X123.408 Y57.229 E.0036
;WIDTH:0.419999
G1 X123.534 Y57.044 E.00702
G1 X123.572 Y57.04 E.0012
G1 X125.242 Y57.04 E.05236
G1 X125.37 Y57.09 E.00431
G1 X125.431 Y57.229 E.00476
G1 X125.431 Y62.097 E.15263
G1 X125.462 Y62.599 E.01577
G1 X125.53 Y62.996 E.01263
G1 X125.676 Y63.303 E.01066
G1 X125.836 Y63.439 E.00658
G1 X126.042 Y63.505 E.00678
G1 X126.653 Y63.558 E.01923
G1 X127.023 Y63.492 E.01178
G1 X127.398 Y63.311 E.01306
G1 X127.711 Y62.958 E.01479
G1 X127.911 Y62.535 E.01467
G1 X127.998 Y62.058 E.0152
G1 X128.022 Y61.648 E.01288
G1 X128.022 Y57.229 E.13855
G1 X128.082 Y57.09 E.00475
G1 X128.21 Y57.04 E.00431
G1 X129.874 Y57.04 E.05217
G1 X129.986 Y57.077 E.0037
G1 X130.062 Y57.229 E.00533
G1 X130.065 Y63.792 E.20578
G1 X130.122 Y65 E.03792
G1 X130.099 Y65.071 E.00234
M204 S1000
;WIPE_START
G1 F8640
G1 X130.08 Y65.128 E-.01387
G1 X129.933 Y65.197 E-.0375
G1 X129.306 Y65.194 E-.14478
G1 X128.369 Y65.125 E-.21694
G1 X128.268 Y65.087 E-.02492
G1 X128.198 Y64.976 E-.0303
G1 X128.22 Y64.841 E-.03158
G1 X128.32 Y64.673 E-.04514
G1 X128.286 Y64.179 E-.11434
G1 X127.878 Y64.631 E-.14063
;WIPE_END
G1 Z.6 F720
G1 X135.438 Y56.778 F10800
G1 Z.2 F720
G1 E.8 F2100
M204 S800
;TYPE:Perimeter
G1 F1200
G1 X135.586 Y56.685 E.00548
G1 X135.74 Y56.663 E.00488
G1 X137.39 Y56.663 E.05173
G1 X137.659 Y56.731 E.0087
G1 X137.871 Y56.931 E.00914
G1 X137.956 Y57.229 E.00972
G1 X137.956 Y62.087 E.15232
G1 X137.999 Y62.651 E.01774
G1 X138.115 Y63.116 E.01503
G1 X138.316 Y63.177 E.00659
G1 X138.724 Y63.169 E.01279
G1 X139.005 Y63.037 E.00973
G1 X139.234 Y62.723 E.01219
G1 X139.374 Y62.204 E.01685
G1 X139.413 Y61.661 E.01707
G1 X139.413 Y57.229 E.13896
G1 X139.498 Y56.931 E.00972
G1 X139.71 Y56.731 E.00914
G1 X139.979 Y56.663 E.0087
G1 X141.629 Y56.663 E.05173
