; generated by PrusaSlicer 2.8.0+MacOS-x64 on 2024-09-24 at 18:14:11 UTC


;
;
; 

; external perimeters extrusion width = 0.60mm
; perimeters extrusion width = 0.50mm
; infill extrusion width = 0.50mm
; solid infill extrusion width = 0.50mm
; top infill extrusion width = 0.45mm
; support material extrusion width = 0.38mm
; first layer extrusion width = 0.42mm

M73 P0 R156
M73 Q0 S158
M201 X1000 Y1000 Z200 E5000 ; sets maximum accelerations, mm/sec^2
M203 X200 Y200 Z12 E120 ; sets maximum feedrates, mm / sec
M204 S1250 T1250 ; sets acceleration (S) and retract acceleration (R), mm/sec^2
M205 X8.00 Y8.00 Z0.40 E4.50 ; sets the jerk limits, mm/sec
M205 S0 T0 ; sets the minimum extruding and travel feed rate, mm/sec

; printing object power_switch.stl id:0 copy 0
; stop printing object power_switch.stl id:0 copy 0

;TYPE:Custom
M862.3 P "MK3S" ; printer model check
M862.1 P0.4 ; nozzle diameter check
M115 U3.12.2 ; tell printer latest fw version
G90 ; use absolute coordinates
M83 ; extruder relative mode
M104 S215 ; set extruder temp
M140 S60 ; set bed temp
M190 S60 ; wait for bed temp
M109 S215 ; wait for extruder temp
G28 W ; home all without mesh bed level
G80 ; mesh bed leveling

G1 Z0.2 F720
G1 Y-3 F1000 ; go outside print area
G92 E0
G1 X60 E9 F1000 ; intro line
G1 X100 E12.5 F1000 ; intro line

G92 E0
M221 S95

; Don't change E values below. Excessive value can damage the printer.

M907 E538 ; set extruder motor current
G21 ; set units to millimeters
G90 ; use absolute coordinates
M83 ; use relative distances for extrusion
M900 K0.05 ; Filament gcode LA 1.5
M900 K30 ; Filament gcode LA 1.0
M107
;LAYER_CHANGE
;Z:0.2
;HEIGHT:0.2
G1 E-.8 F2100
G1 Z.6 F720
G1 X69.461 Y69.196 F10800
G1 Z.2 F720
G1 E.8 F2100
M204 S800
;TYPE:Skirt/Brim
;WIDTH:0.42
G1 F1200
G1 X70.443 Y68.435 E.03895
G1 X71.545 Y67.973 E.03747
G1 X72.777 Y67.806 E.03898
G1 X193.793 Y67.808 E3.79437
G1 X194.736 Y67.907 E.02973
G1 X195.617 Y68.186 E.02898
G1 X196.355 Y68.586 E.02632
G1 X197.04 Y69.143 E.02768
G1 X197.606 Y69.816 E.02757
G1 X198.028 Y70.568 E.02704
G1 X198.299 Y71.366 E.02642
G1 X198.426 Y72.26 E.02831
G1 X198.424 Y137.676 E2.05107
G1 X198.212 Y138.865 E.03787
G1 X197.749 Y139.882 E.03504
G1 X197.094 Y140.723 E.03342
G1 X196.112 Y141.483 E.03893
G1 X195.01 Y141.946 E.03748
G1 X193.777 Y142.113 E.03901
G1 X72.698 Y142.111 E3.79635
G1 X71.502 Y141.934 E.03791
G1 X70.355 Y141.431 E.03927
G1 X69.514 Y140.776 E.03342
G1 X68.753 Y139.794 E.03895
G1 X68.291 Y138.692 E.03747
G1 X68.124 Y137.459 E.03901
G1 X68.126 Y72.381 E2.04047
G1 X68.303 Y71.184 E.03794
G1 X68.806 Y70.037 E.03927
G1 X69.424 Y69.244 E.03152
M204 S1000
;WIPE_START
G1 F8640
G1 X69.461 Y69.196 E-.01399
G1 X70.443 Y68.435 E-.28686
G1 X71.545 Y67.973 E-.27591
G1 X72.503 Y67.843 E-.22324
;WIPE_END
G1 Z.6 F720
; printing object power_switch.stl id:0 copy 0
G1 X129.234 Y102.718 F10800
G1 Z.2 F720
G1 E.8 F2100
M204 S800
;TYPE:Perimeter
;WIDTH:0.419999
G1 F1200
G1 X129.9 Y100.627 E.06881
G1 X131.017 Y98.668 E.07071
G1 X132.517 Y96.984 E.07071
G1 X134.334 Y95.649 E.07069
G1 X136.388 Y94.72 E.07068
G1 X138.591 Y94.239 E.0707
G1 X140.846 Y94.227 E.0707
G1 X143.054 Y94.684 E.0707
G1 X145.119 Y95.59 E.0707
G1 X146.95 Y96.905 E.07068
G1 X147.131 Y97.088 E.00807
G1 X148.468 Y98.572 E.06263
G1 X149.606 Y100.519 E.07071
G1 X150.315 Y102.659 E.07068
G1 X150.563 Y104.9 E.07069
G1 X150.339 Y107.144 E.07071
G1 X149.654 Y109.292 E.07069
G1 X148.537 Y111.251 E.07071
G1 X147.038 Y112.935 E.07069
G1 X145.221 Y114.27 E.07069
G1 X143.166 Y115.198 E.0707
G1 X140.846 Y115.692 E.07437
G1 X138.591 Y115.679 E.0707
G1 X136.388 Y115.198 E.0707
G1 X134.334 Y114.27 E.07067
G1 X132.517 Y112.935 E.07069
G1 X131.087 Y111.347 E.067
G1 X129.946 Y109.395 E.07089
G1 X129.215 Y107.144 E.07421
G1 X128.992 Y104.9 E.07071
G1 X129.215 Y102.775 E.06699
M204 S1000
G1 X129.215 Y102.775 F10800
G1 X129.597 Y102.795
M204 S800
;TYPE:External perimeter
G1 F1200
G1 X130.259 Y100.743 E.0676
G1 X131.344 Y98.856 E.06825
G1 X132.797 Y97.236 E.06823
G1 X134.555 Y95.954 E.06822
G1 X136.542 Y95.065 E.06825
G1 X138.67 Y94.608 E.06824
G1 X140.846 Y94.604 E.06823
G1 X142.975 Y95.053 E.06822
G1 X144.965 Y95.934 E.06824
G1 X146.728 Y97.21 E.06824
G1 X146.851 Y97.34 E.00561
G1 X148.188 Y98.825 E.06265
G1 X149.279 Y100.707 E.06821
G1 X149.956 Y102.776 E.06826
G1 X150.187 Y104.94 E.06824
G1 X149.964 Y107.105 E.06824
G1 X149.295 Y109.176 E.06824
G1 X148.211 Y111.062 E.06821
G1 X146.758 Y112.683 E.06825
G1 X144.999 Y113.965 E.06825
G1 X143.013 Y114.854 E.06822
G1 X140.846 Y115.315 E.06947
G1 X138.67 Y115.311 E.06823
G1 X136.542 Y114.854 E.06824
G1 X134.555 Y113.965 E.06825
G1 X132.797 Y112.683 E.06822
G1 X131.367 Y111.094 E.06703
G1 X130.274 Y109.21 E.06829
G1 X129.591 Y107.105 E.06939
G1 X129.367 Y104.94 E.06824
G1 X129.586 Y102.854 E.06576
M204 S1000
;WIPE_START
G1 F8640
G1 X129.597 Y102.795 E-.01386
G1 X130.259 Y100.743 E-.49786
G1 X130.881 Y99.661 E-.28828
;WIPE_END
G1 Z.6 F720
G1 X172.847 Y102.987 F10800
G1 Z.2 F720
G1 E.8 F2100
M204 S800
G1 F1200
G1 X172.89 Y103.088 E.00344
G1 X172.89 Y104.752 E.05217
G1 X172.82 Y104.899 E.0051
G1 X172.702 Y104.94 E.00392
G1 X171.092 Y104.94 E.05048
G1 X170.948 Y104.873 E.00498
G1 X170.904 Y104.752 E.00404
G1 X170.904 Y103.088 E.05217
G1 X170.969 Y102.946 E.0049
G1 X171.092 Y102.9 E.00412
G1 X172.702 Y102.9 E.05048
G1 X172.812 Y102.944 E.00371
M204 S1000
;WIPE_START
G1 F8640
G1 X172.847 Y102.987 E-.0128
G1 X172.89 Y103.088 E-.02535
G1 X172.89 Y104.752 E-.38422
G1 X172.82 Y104.899 E-.03759
G1 X172.702 Y104.94 E-.02884
G1 X171.355 Y104.94 E-.3112
;WIPE_END
G1 Z.6 F720
G1 X173.26 Y104.801 F10800
G1 Z.2 F720
G1 E.8 F2100
M204 S800
;TYPE:Perimeter
;WIDTH:0.409798
G1 F1200
G1 X173.26 Y103.088 E.05226
M204 S1000
;WIPE_START
G1 F8640
G1 X173.26 Y104.801 E-.39554
;WIPE_END
G1 E-.40446 F2100
G1 Z.6 F720
G1 X182.001 Y105.142 F10800
G1 Z.2 F720
G1 E.8 F2100
M204 S800
;WIDTH:0.419999
G1 F1200
G1 X181.972 Y105.177 E.00143
;WIDTH:0.460557
G1 X181.879 Y105.232 E.00375
;WIDTH:0.501114
G1 X181.785 Y105.288 E.00417
;WIDTH:0.541672
G1 X181.692 Y105.343 E.00448
;WIDTH:0.582229
G1 X181.599 Y105.399 E.00487
G1 X176.483 Y105.399 E.22942
;WIDTH:0.59905
G1 X175.777 Y105.407 E.03265
G1 X175.677 Y105.385 E.00473
;WIDTH:0.554288
G1 X175.576 Y105.362 E.0044
;WIDTH:0.509525
G1 X175.475 Y105.34 E.00401
;WIDTH:0.464762
G1 X175.374 Y105.318 E.00363
;WIDTH:0.419999
G1 X173.819 Y105.318 E.04876
G1 X173.607 Y105.276 E.00678
G1 X173.463 Y105.192 E.00523
G1 X173.26 Y104.801 E.01381
G1 X173.057 Y105.192 E.01381
G1 X172.754 Y105.315 E.01025
G1 X171.092 Y105.318 E.05211
G1 X170.823 Y105.249 E.00871
G1 X170.66 Y105.116 E.0066
G1 X170.537 Y104.859 E.00893
G1 X170.527 Y103.088 E.05553
G1 X170.586 Y102.836 E.00811
G1 X170.773 Y102.621 E.00893
G1 X171.048 Y102.524 E.00914
G1 X172.702 Y102.523 E.05186
G1 X172.948 Y102.579 E.00791
G1 X173.095 Y102.682 E.00563
G1 X173.26 Y103.088 E.01374
G1 X173.425 Y102.682 E.01374
G1 X173.686 Y102.538 E.00935
G1 X173.874 Y102.523 E.00591
G1 X181.599 Y102.523 E.24221
G1 X181.916 Y102.62 E.01039
G1 X182.106 Y102.838 E.00907
G1 X182.164 Y103.088 E.00805
G1 X182.164 Y104.752 E.05217
G1 X182.09 Y105.032 E.00908
G1 X182.039 Y105.095 E.00254
M204 S1000
G1 X182.039 Y105.095 F10800
G1 X181.741 Y104.854
M204 S800
;TYPE:External perimeter
G1 F1200
G1 X181.723 Y104.894 E.00138
G1 X181.599 Y104.94 E.00415
G1 X173.819 Y104.94 E.24394
G1 X173.7 Y104.899 E.00395
G1 X173.63 Y104.752 E.0051
G1 X173.63 Y103.088 E.05217
G1 X173.736 Y102.919 E.00625
G1 X173.874 Y102.9 E.00437
G1 X181.599 Y102.9 E.24221
G1 X181.75 Y102.976 E.0053
G1 X181.787 Y103.088 E.0037
G1 X181.787 Y104.752 E.05217
G1 X181.766 Y104.799 E.00161
M204 S1000
;WIPE_START
G1 F8640
G1 X181.741 Y104.854 E-.01395
G1 X181.723 Y104.894 E-.01013
G1 X181.599 Y104.94 E-.03054
G1 X178.371 Y104.94 E-.74538
;WIPE_END
G1 Z.6 F720
G1 X176.115 Y121.329 F10800
G1 Z.2 F720
G1 E.8 F2100
M204 S800
;TYPE:Perimeter
;WIDTH:0.484236
G1 F1200
G1 X176.112 Y121.762 E.01589
G1 X176.174 Y122.493 E.02692
;WIDTH:0.482217
G1 X175.838 Y122.372 E.01304
G1 X175.717 Y122.167 E.0087
;WIDTH:0.488771
G1 X175.662 Y121.667 E.01865
G1 X175.709 Y121.154 E.0191
;WIDTH:0.45591
G1 X175.808 Y121.001 E.00626
G1 X176.11 Y120.895 E.01099
G1 X176.116 Y121.207 E.01072
;WIDTH:0.484236
G1 X176.115 Y121.269 E.00228
M204 S1000
;WIPE_START
G1 F8640
G1 X176.115 Y121.329 E-.01385
G1 X176.112 Y121.762 E-.09998
G1 X176.174 Y122.493 E-.1694
G1 X175.838 Y122.372 E-.08246
G1 X175.717 Y122.167 E-.05497
G1 X175.662 Y121.667 E-.11615
G1 X175.709 Y121.154 E-.11895
G1 X175.808 Y121.001 E-.04208
G1 X176.11 Y120.895 E-.0739
G1 X176.112 Y121.017 E-.02826
;WIPE_END
G1 Z.6 F720
G1 X179.978 Y117.284 F10800
G1 Z.2 F720
G1 E.8 F2100
M204 S800
;WIDTH:0.419999
G1 F1200
G1 X175.044 Y117.286 E.1547
G1 X173.846 Y117.343 E.0376
G1 X173.531 Y117.265 E.01017
G1 X173.338 Y117.077 E.00845
G1 X173.255 Y116.824 E.00835
G1 X173.256 Y116.149 E.02116
G1 X173.333 Y115.128 E.0321
G1 X173.412 Y114.924 E.00686
G1 X173.625 Y114.749 E.00864
G1 X173.398 Y114.431 E.01225
G1 X173.229 Y114.014 E.01411
G1 X173.141 Y113.545 E.01496
G1 X173.14 Y112.747 E.02502
G1 X173.223 Y112.249 E.01583
G1 X173.411 Y111.759 E.01646
G1 X173.668 Y111.385 E.01423
G1 X174.047 Y111.099 E.01489
G1 X173.65 Y110.726 E.01708
G1 X173.377 Y110.279 E.01642
G1 X173.216 Y109.798 E.0159
G1 X173.121 Y108.992 E.02545
G1 X173.159 Y108.334 E.02067
G1 X173.299 Y107.749 E.01886
G1 X173.557 Y107.216 E.01857
G1 X173.946 Y106.76 E.01879
G1 X174.459 Y106.412 E.01944
G1 X175.06 Y106.184 E.02015
G1 X175.443 Y106.109 E.01224
;WIDTH:0.464762
G1 X175.53 Y106.073 E.0033
;WIDTH:0.509525
G1 X175.617 Y106.036 E.00367
;WIDTH:0.554288
G1 X175.704 Y105.999 E.00402
;WIDTH:0.59905
G1 X175.791 Y105.963 E.00435
G1 X176.451 Y105.938 E.03054
;WIDTH:0.582785
G1 X176.483 Y105.938 E.00144
;WIDTH:0.582229
G1 X181.599 Y105.938 E.22942
G1 X181.692 Y105.993 E.00485
;WIDTH:0.541672
G1 X181.785 Y106.049 E.0045
;WIDTH:0.501114
G1 X181.879 Y106.104 E.00415
;WIDTH:0.460557
G1 X181.972 Y106.16 E.00377
;WIDTH:0.419999
G1 X182.143 Y106.43 E.01002
G1 X182.164 Y106.585 E.0049
G1 X182.164 Y108.235 E.05173
G1 X182.097 Y108.503 E.00866
G1 X181.896 Y108.716 E.00918
G1 X181.599 Y108.8 E.00968
G1 X176.74 Y108.8 E.15235
G1 X176.176 Y108.844 E.01774
G1 X175.711 Y108.959 E.01502
G1 X175.65 Y109.16 E.00659
G1 X175.659 Y109.569 E.01283
G1 X175.791 Y109.849 E.00971
G1 X176.104 Y110.079 E.01218
G1 X176.624 Y110.219 E.01688
G1 X177.166 Y110.257 E.01704
G1 X181.599 Y110.257 E.13899
G1 X181.896 Y110.342 E.00969
G1 X182.097 Y110.555 E.00918
G1 X182.164 Y110.823 E.00866
G1 X182.164 Y112.473 E.05173
G1 X182.097 Y112.741 E.00866
G1 X181.896 Y112.954 E.00918
G1 X181.599 Y113.039 E.00969
G1 X176.74 Y113.039 E.15235
G1 X176.186 Y113.08 E.01742
G1 X175.711 Y113.197 E.01534
G1 X175.65 Y113.399 E.00662
G1 X175.658 Y113.795 E.01242
G1 X175.792 Y114.074 E.0097
G1 X176.114 Y114.314 E.01259
G1 X176.621 Y114.455 E.0165
G1 X177.168 Y114.496 E.0172
G1 X181.599 Y114.496 E.13893
G1 X181.896 Y114.58 E.00968
G1 X182.097 Y114.793 E.00918
G1 X182.164 Y115.061 E.00866
G1 X182.164 Y116.718 E.05195
G1 X182.128 Y116.916 E.00631
G1 X182.074 Y117.025 E.00381
G1 X181.852 Y117.146 E.00793
G1 X182.045 Y117.31 E.00794
G1 X182.205 Y118.253 E.02999
G1 X182.201 Y119.051 E.02502
G1 X182.055 Y119.558 E.01654
G1 X181.75 Y120.007 E.01702
G1 X181.355 Y120.295 E.01533
G1 X181.726 Y120.653 E.01617
G1 X182.008 Y121.117 E.01702
G1 X182.178 Y121.606 E.01623
G1 X182.269 Y122.106 E.01593
G1 X182.3 Y122.625 E.0163
G1 X182.26 Y123.244 E.01945
G1 X182.126 Y123.828 E.01879
G1 X181.883 Y124.365 E.01848
G1 X181.523 Y124.831 E.01846
G1 X181.069 Y125.197 E.01828
G1 X180.644 Y125.41 E.01491
G1 X181.599 Y125.41 E.02994
G1 X181.726 Y125.424 E.00401
G1 X181.997 Y125.573 E.0097
G1 X182.146 Y125.831 E.00934
G1 X182.164 Y125.975 E.00455
G1 X182.164 Y132.542 E.2059
G1 X182.086 Y132.829 E.00933
G1 X181.898 Y133.022 E.00845
G1 X181.599 Y133.107 E.00975
G1 X171.601 Y133.107 E.31348
G1 X171.302 Y133.022 E.00975
G1 X171.114 Y132.829 E.00845
G1 X171.035 Y132.542 E.00933
G1 X171.035 Y130.803 E.05453
G1 X171.1 Y130.541 E.00846
G1 X171.267 Y130.347 E.00803
G1 X171.502 Y130.247 E.00801
G1 X179.532 Y130.238 E.25177
G1 X179.532 Y125.975 E.13366
M73 Q0 S157
G1 X179.545 Y125.858 E.00369
G1 X179.721 Y125.63 E.00903
G1 X179.235 Y125.651 E.01525
G1 X178.702 Y125.605 E.01677
G1 X178.072 Y125.429 E.02051
G1 X177.5 Y125.115 E.02046
G1 X177.081 Y124.732 E.0178
G1 X176.924 Y124.555 E.00742
G1 X176.704 Y124.196 E.0132
G1 X176.643 Y124.895 E.022
G1 X176.519 Y125.202 E.01038
G1 X176.273 Y125.377 E.00947
G1 X175.982 Y125.403 E.00916
G1 X175.894 Y125.38 E.00285
G1 X174.715 Y124.971 E.03913
G1 X174.51 Y124.846 E.00753
G1 X173.823 Y124.19 E.02978
G1 X173.692 Y124 E.00724
G1 X173.29 Y123.047 E.03243
G1 X173.119 Y121.662 E.04376
G1 X173.159 Y120.888 E.0243
G1 X173.297 Y120.206 E.02182
G1 X173.544 Y119.587 E.0209
G1 X173.912 Y119.043 E.02059
G1 X174.361 Y118.631 E.01911
G1 X174.975 Y118.285 E.0221
G1 X175.626 Y118.098 E.02124
G1 X176.364 Y118.034 E.02323
G1 X179.519 Y118.034 E.09892
G1 X179.822 Y117.998 E.00957
G1 X179.751 Y117.601 E.01265
G1 X179.943 Y117.333 E.01034
M204 S1000
;WIPE_START
G1 F8640
G1 X179.978 Y117.284 E-.0139
G1 X176.573 Y117.285 E-.7861
;WIPE_END
G1 Z.6 F720
G1 X181.702 Y106.456 F10800
G1 Z.2 F720
G1 E.8 F2100
M204 S800
;TYPE:External perimeter
G1 F1200
G1 X181.763 Y106.491 E.00221
G1 X181.787 Y106.585 E.00304
G1 X181.787 Y108.235 E.05173
G1 X181.745 Y108.353 E.00393
G1 X181.599 Y108.423 E.00508
G1 X176.733 Y108.423 E.15257
G1 X176.195 Y108.456 E.0169
G1 X175.643 Y108.564 E.01764
G1 X175.407 Y108.729 E.00903
G1 X175.279 Y109.073 E.01151
G1 X175.288 Y109.648 E.01803
G1 X175.434 Y109.991 E.01169
G1 X175.688 Y110.271 E.01185
G1 X176.046 Y110.458 E.01266
G1 X176.556 Y110.59 E.01652
G1 X177.166 Y110.634 E.01918
G1 X181.599 Y110.634 E.13899
G1 X181.745 Y110.704 E.00508
G1 X181.787 Y110.823 E.00396
G1 X181.787 Y112.473 E.05173
G1 X181.745 Y112.591 E.00393
G1 X181.599 Y112.661 E.00508
G1 X176.733 Y112.661 E.15257
G1 X176.195 Y112.694 E.0169
G1 X175.643 Y112.802 E.01764
G1 X175.407 Y112.968 E.00905
G1 X175.279 Y113.311 E.01148
G1 X175.288 Y113.876 E.01772
G1 X175.436 Y114.218 E.01168
G1 X175.694 Y114.5 E.01198
G1 X176.046 Y114.69 E.01254
G1 X176.551 Y114.825 E.01639
G1 X177.168 Y114.873 E.0194
G1 X181.599 Y114.873 E.13893
G1 X181.745 Y114.943 E.00508
G1 X181.787 Y115.061 E.00393
G1 X181.787 Y116.718 E.05195
G1 X181.757 Y116.82 E.00333
;WIDTH:0.445198
G1 X181.599 Y116.919 E.00624
G1 X181.517 Y116.917 E.00274
;WIDTH:0.441001
G1 X180.309 Y116.917 E.03999
;WIDTH:0.440769
G1 X179.38 Y116.907 E.03073
;WIDTH:0.419999
G1 X175.035 Y116.909 E.13623
G1 X173.828 Y116.967 E.03789
G1 X173.685 Y116.911 E.00482
G1 X173.63 Y116.777 E.00454
G1 X173.633 Y116.151 E.01963
G1 X173.695 Y115.312 E.02638
G1 X173.749 Y115.101 E.00683
G1 X173.866 Y115.04 E.00414
G1 X174.204 Y115.161 E.01126
G1 X174.61 Y115.134 E.01276
G1 X173.976 Y114.584 E.02632
G1 X173.744 Y114.282 E.01194
G1 X173.598 Y113.934 E.01183
G1 X173.518 Y113.545 E.01245
G1 X173.517 Y112.747 E.02502
G1 X173.601 Y112.297 E.01435
G1 X173.753 Y111.923 E.01266
G1 X173.994 Y111.595 E.01276
G1 X174.538 Y111.261 E.02002
G1 X174.807 Y111.118 E.00955
G1 X174.527 Y110.904 E.01105
G1 X174.168 Y110.727 E.01255
G1 X173.898 Y110.432 E.01254
G1 X173.655 Y109.937 E.01729
G1 X173.584 Y109.714 E.00734
G1 X173.495 Y108.948 E.02418
G1 X173.535 Y108.361 E.01845
G1 X173.664 Y107.842 E.01677
G1 X173.893 Y107.388 E.01594
G1 X174.225 Y107.013 E.0157
G1 X174.66 Y106.73 E.01627
G1 X175.186 Y106.54 E.01754
G1 X175.507 Y106.481 E.01023
G1 X175.814 Y106.429 E.00976
G1 X176.483 Y106.396 E.021
G1 X181.599 Y106.396 E.16041
G1 X181.65 Y106.426 E.00186
M204 S1000
;WIPE_START
G1 F8640
G1 X181.702 Y106.456 E-.01386
G1 X181.763 Y106.491 E-.01624
G1 X181.787 Y106.585 E-.0224
G1 X181.787 Y108.235 E-.38099
G1 X181.745 Y108.353 E-.02892
G1 X181.599 Y108.423 E-.03739
G1 X180.299 Y108.423 E-.3002
;WIPE_END
G1 Z.6 F720
G1 X181.699 Y94.309 F10800
G1 Z.2 F720
G1 E.8 F2100
M204 S800
G1 F1200
G1 X181.784 Y94.379 E.00345
