; generated by PrusaSlicer 2.7.2+MacOS-x64 on 2024-09-29 at 01:31:36 UTC


;
;
; 

; external perimeters extrusion width = 0.60mm
; perimeters extrusion width = 0.50mm
; infill extrusion width = 0.50mm
; solid infill extrusion width = 0.50mm
; top infill extrusion width = 0.45mm
; first layer extrusion width = 0.42mm

M73 P0 R298
M73 Q0 S298
M201 X1000 Y1000 Z200 E5000 ; sets maximum accelerations, mm/sec^2
M203 X200 Y200 Z12 E120 ; sets maximum feedrates, mm / sec
M204 S1250 T1250 ; sets acceleration (S) and retract acceleration (R), mm/sec^2
M205 X8.00 Y8.00 Z0.40 E4.50 ; sets the jerk limits, mm/sec
M205 S0 T0 ; sets the minimum extruding and travel feed rate, mm/sec

; printing object stand.stl id:0 copy 0
; stop printing object stand.stl id:0 copy 0

;TYPE:Custom
M862.3 P "MK3S" ; printer model check
M862.1 P0.4 ; nozzle diameter check
M115 U3.12.2 ; tell printer latest fw version
G90 ; use absolute coordinates
M83 ; extruder relative mode
M104 S215 ; set extruder temp
M140 S60 ; set bed temp
M190 S60 ; wait for bed temp
M109 S215 ; wait for extruder temp
G28 W ; home all without mesh bed level
G80 ; mesh bed leveling

G1 Z0.2 F720
G1 Y-3 F1000 ; go outside print area
G92 E0
G1 X60 E9 F1000 ; intro line
G1 X100 E12.5 F1000 ; intro line

G92 E0
M221 S95

; Don't change E values below. Excessive value can damage the printer.

M907 E538 ; set extruder motor current
G21 ; set units to millimeters
G90 ; use absolute coordinates
M83 ; use relative distances for extrusion
M900 K0.05 ; Filament gcode LA 1.5
M900 K30 ; Filament gcode LA 1.0
M107
;LAYER_CHANGE
;Z:0.2
;HEIGHT:0.2
G1 E-.8 F2100
G1 Z.6 F720
G1 X64.393 Y58.475 F10800
G1 Z.2 F720
G1 E.8 F2100
M204 S800
;TYPE:Skirt/Brim
;WIDTH:0.42
G1 F1200
G1 X69.745 Y52.917 E.24193
G1 X75.174 Y47.69 E.23629
G1 X80.848 Y42.623 E.23852
G1 X86.681 Y37.799 E.23733
G1 X92.728 Y33.182 E.23855
G1 X98.74 Y28.956 E.23041
G1 X104.918 Y24.97 E.23053
G1 X111.252 Y21.248 E.23035
G1 X117.454 Y17.95 E.22024
G1 X123.764 Y14.942 E.21918
G1 X130.071 Y12.286 E.21457
G1 X136.465 Y9.954 E.2134
G1 X142.579 Y8.071 E.20059
G1 X148.733 Y6.529 E.19892
G1 X154.79 Y5.373 E.19334
G1 X160.88 Y4.596 E.1925
G1 X166.522 Y4.245 E.17724
G1 X171.443 Y4.275 E.1543
G1 X172.329 Y4.288 E.02778
G1 X177.786 Y4.74 E.17169
G1 X183.035 Y5.599 E.16677
G1 X188.053 Y6.863 E.16225
G1 X192.612 Y8.448 E.15134
G1 X197.104 Y10.49 E.15471
G1 X201.305 Y12.922 E.1522
G1 X205.193 Y15.737 E.1505
G1 X208.925 Y19.098 E.15747
G1 X212.11 Y22.654 E.14968
G1 X214.925 Y26.542 E.1505
G1 X217.357 Y30.743 E.1522
G1 X219.399 Y35.235 E.15471
G1 X221.044 Y39.997 E.15797
G1 X222.248 Y44.812 E.15562
G1 X223.129 Y50.248 E.17267
G1 X223.567 Y55.694 E.17131
G1 X223.602 Y61.325 E.17656
G1 X223.236 Y67.12 E.18206
G1 X222.474 Y73.057 E.18768
G1 X221.318 Y79.114 E.19334
G1 X219.811 Y85.145 E.19491
G1 X217.854 Y91.497 E.2084
G1 X215.561 Y97.776 E.20959
G1 X212.905 Y104.083 E.21457
G1 X209.897 Y110.393 E.21918
G1 X206.55 Y116.683 E.2234
G1 X202.877 Y122.929 E.22719
G1 X198.945 Y129.028 E.22753
G1 X194.609 Y135.194 E.23635
G1 X190.048 Y141.166 E.23561
G1 X185.224 Y146.999 E.23733
G1 X180.157 Y152.673 E.23852
M73 P0 R297
G1 X174.866 Y158.165 E.23911
G1 X169.372 Y163.454 E.23911
G1 X163.695 Y168.519 E.23855
G1 X157.93 Y173.283 E.23449
G1 X151.959 Y177.845 E.23561
G1 X145.872 Y182.127 E.23335
G1 X139.694 Y186.112 E.23051
G1 X133.448 Y189.785 E.22719
G1 X127.158 Y193.132 E.2234
G1 X120.747 Y196.185 E.22264
G1 X114.541 Y198.796 E.2111
G1 X108.261 Y201.09 E.20963
G1 X102.033 Y203.012 E.20436
G1 X95.879 Y204.554 E.19892
G1 X89.822 Y205.709 E.19333
G1 X83.885 Y206.472 E.18768
G1 X77.925 Y206.842 E.18723
G1 X72.458 Y206.802 E.17142
G1 X67.013 Y206.365 E.17127
G1 X61.773 Y205.524 E.1664
G1 X56.762 Y204.28 E.16189
G1 X52 Y202.635 E.15797
G1 X47.508 Y200.593 E.15471
G1 X43.104 Y198.028 E.1598
G1 X39.418 Y195.345 E.14295
G1 X35.862 Y192.16 E.14968
G1 X32.657 Y188.62 E.14973
G1 X29.687 Y184.54 E.15823
G1 X27.254 Y180.339 E.15221
G1 X25.212 Y175.847 E.15471
G1 X23.628 Y171.289 E.1513
G1 X22.323 Y166.074 E.16855
G1 X21.482 Y160.834 E.1664
G1 X21.045 Y155.389 E.17127
G1 X21.005 Y149.922 E.17142
G1 X21.375 Y143.962 E.18723
G1 X22.138 Y138.025 E.18768
G1 X23.293 Y131.968 E.19333
G1 X24.801 Y125.937 E.19492
G1 X26.757 Y119.586 E.20836
G1 X29.051 Y113.306 E.20963
G1 X31.662 Y107.1 E.2111
G1 X34.715 Y100.689 E.22264
G1 X38.062 Y94.399 E.2234
G1 X41.735 Y88.153 E.22719
G1 X45.667 Y82.054 E.22753
G1 X50.002 Y75.888 E.23633
G1 X54.564 Y69.917 E.23561
G1 X59.387 Y64.083 E.23734
G1 X64.353 Y58.52 E.23381
M204 S1000
; printing object stand.stl id:0 copy 0
;WIPE_START
G1 F8640
G1 X64.393 Y58.475 E-.0139
G1 X66.755 Y56.023 E-.7861
;WIPE_END
G1 Z.6 F720
G1 X38.01 Y189.837 F10800
G1 Z.2 F720
G1 E.8 F2100
M204 S800
;TYPE:Perimeter
;WIDTH:0.419999
G1 F1200
G1 X35.036 Y186.534 E.13936
G1 X32.401 Y182.913 E.14041
G1 X30.116 Y178.989 E.14237
G1 X28.189 Y174.773 E.14534
G1 X26.628 Y170.283 E.14905
G1 X25.441 Y165.535 E.15345
G1 X24.634 Y160.546 E.15846
G1 X24.209 Y155.336 E.1639
G1 X24.17 Y149.927 E.1696
G1 X24.517 Y144.338 E.17558
G1 X25.251 Y138.593 E.18159
G1 X26.368 Y132.714 E.18763
G1 X27.866 Y126.725 E.19357
G1 X29.737 Y120.651 E.19928
G1 X31.975 Y114.516 E.20476
G1 X34.572 Y108.343 E.20998
G1 X37.517 Y102.159 E.21476
G1 X40.798 Y95.988 E.21914
G1 X44.403 Y89.854 E.22308
G1 X48.318 Y83.782 E.22653
G1 X52.527 Y77.796 E.22944
G1 X57.013 Y71.921 E.23177
G1 X61.758 Y66.179 E.23355
G1 X66.744 Y60.593 E.23477
M73 Q0 S297
G1 X71.951 Y55.186 E.23536
G1 X77.358 Y49.979 E.23536
G1 X82.943 Y44.993 E.23474
G1 X88.685 Y40.248 E.23355
G1 X94.678 Y35.68 E.23627
G1 X100.547 Y31.553 E.22496
G1 X106.619 Y27.639 E.22651
G1 X112.752 Y24.033 E.22307
G1 X118.924 Y20.752 E.21916
G1 X125.108 Y17.807 E.21476
G1 X131.28 Y15.21 E.20995
G1 X137.416 Y12.972 E.20479
G1 X143.49 Y11.101 E.19928
G1 X149.478 Y9.604 E.19353
G1 X155.357 Y8.486 E.18764
G1 X161.102 Y7.753 E.18159
G1 X166.691 Y7.405 E.17558
G1 X172.101 Y7.444 E.16963
G1 X177.311 Y7.869 E.1639
G1 X182.3 Y8.677 E.15846
G1 X187.048 Y9.864 E.15345
G1 X191.538 Y11.424 E.14904
G1 X195.753 Y13.351 E.14531
G1 X199.678 Y15.636 E.1424
G1 X203.298 Y18.271 E.14039
G1 X206.601 Y21.246 E.13938
G1 X209.576 Y24.549 E.13938
G1 X212.211 Y28.169 E.14039
G1 X214.496 Y32.094 E.1424
G1 X216.423 Y36.309 E.14531
G1 X217.983 Y40.799 E.14904
G1 X219.17 Y45.547 E.15345
G1 X219.978 Y50.536 E.15846
G1 X220.403 Y55.746 E.1639
G1 X220.417 Y57.621 E.05879
G1 X220.442 Y61.156 E.11084
G1 X220.094 Y66.745 E.17558
G1 X219.361 Y72.49 E.18159
G1 X218.243 Y78.369 E.18764
G1 X216.746 Y84.357 E.19353
G1 X214.875 Y90.431 E.19928
G1 X212.637 Y96.567 E.20479
G1 X210.04 Y102.739 E.20995
G1 X207.095 Y108.923 E.21476
G1 X203.814 Y115.095 E.21916
G1 X200.208 Y121.228 E.22307
G1 X196.294 Y127.3 E.22651
G1 X192.085 Y133.286 E.22944
G1 X187.599 Y139.162 E.23179
G1 X182.854 Y144.904 E.23355
G1 X177.868 Y150.489 E.23474
G1 X172.661 Y155.896 E.23536
G1 X167.254 Y161.103 E.23536
G1 X161.668 Y166.089 E.23477
G1 X155.926 Y170.835 E.23357
G1 X150.051 Y175.32 E.23175
G1 X144.065 Y179.529 E.22944
G1 X137.993 Y183.444 E.22653
G1 X131.859 Y187.049 E.22308
G1 X125.688 Y190.33 E.21914
G1 X119.504 Y193.275 E.21476
G1 X113.331 Y195.872 E.20998
G1 X107.196 Y198.11 E.20476
G1 X101.122 Y199.981 E.19928
G1 X95.133 Y201.479 E.19357
G1 X89.254 Y202.596 E.18763
G1 X83.509 Y203.33 E.18159
G1 X77.92 Y203.677 E.17558
G1 X72.511 Y203.638 E.1696
G1 X67.301 Y203.213 E.1639
G1 X62.312 Y202.406 E.15846
G1 X57.564 Y201.219 E.15345
G1 X53.074 Y199.658 E.14905
G1 X48.858 Y197.731 E.14534
G1 X44.934 Y195.446 E.14237
G1 X41.313 Y192.811 E.14041
G1 X38.055 Y189.877 E.13747
M204 S1000
G1 X38.055 Y189.877 F10800
G1 X37.743 Y190.104
M204 S800
;TYPE:External perimeter
G1 F1200
G1 X34.743 Y186.771 E.1406
G1 X32.085 Y183.12 E.1416
G1 X29.781 Y179.162 E.14359
G1 X27.839 Y174.914 E.14645
G1 X26.267 Y170.391 E.15014
G1 X25.072 Y165.611 E.15449
G1 X24.259 Y160.592 E.15942
G1 X23.832 Y155.353 E.16481
G1 X23.792 Y149.916 E.17048
G1 X24.142 Y144.302 E.17636
G1 X24.878 Y138.533 E.18235
G1 X26 Y132.633 E.18831
G1 X27.502 Y126.624 E.1942
G1 X29.379 Y120.531 E.1999
G1 X31.624 Y114.378 E.20536
G1 X34.228 Y108.189 E.21053
G1 X37.18 Y101.99 E.21528
G1 X40.469 Y95.804 E.21967
G1 X44.082 Y89.656 E.22359
G1 X48.005 Y83.571 E.227
G1 X52.222 Y77.573 E.22989
G1 X56.717 Y71.686 E.23224
G1 X61.472 Y65.933 E.23402
G1 X66.467 Y60.337 E.23519
G1 X71.684 Y54.919 E.23583
G1 X77.101 Y49.703 E.23578
G1 X82.698 Y44.707 E.23523
G1 X88.451 Y39.953 E.234
G1 X94.455 Y35.375 E.23673
G1 X100.336 Y31.24 E.22541
G1 X106.421 Y27.317 E.227
G1 X112.568 Y23.704 E.22356
G1 X118.754 Y20.415 E.21967
G1 X124.954 Y17.463 E.21531
G1 X131.142 Y14.859 E.2105
G1 X137.296 Y12.615 E.20538
G1 X143.389 Y10.737 E.19991
G1 X149.397 Y9.235 E.19417
G1 X155.298 Y8.114 E.18833
M73 P0 R296
G1 X161.067 Y7.377 E.18235
G1 X166.681 Y7.028 E.17636
G1 X172.118 Y7.067 E.17048
G1 X177.356 Y7.494 E.16478
G1 X182.376 Y8.307 E.15945
G1 X187.156 Y9.502 E.15449
G1 X191.679 Y11.074 E.15014
G1 X195.927 Y13.016 E.14645
G1 X199.884 Y15.32 E.14357
G1 X203.536 Y17.978 E.14162
G1 X206.868 Y20.979 E.1406
G1 X209.869 Y24.311 E.1406
G1 X212.527 Y27.963 E.14162
G1 X214.831 Y31.92 E.14357
G1 X216.773 Y36.168 E.14645
G1 X218.345 Y40.691 E.15014
G1 X219.54 Y45.471 E.15449
G1 X220.353 Y50.491 E.15945
G1 X220.78 Y55.729 E.16478
G1 X220.794 Y57.618 E.05923
G1 X220.819 Y61.166 E.11125
G1 X220.47 Y66.78 E.17636
G1 X219.733 Y72.549 E.18235
G1 X218.612 Y78.45 E.18833
G1 X217.11 Y84.458 E.19417
G1 X215.232 Y90.551 E.19991
G1 X212.988 Y96.704 E.20535
G1 X210.384 Y102.893 E.21053
G1 X207.432 Y109.093 E.21531
G1 X204.143 Y115.279 E.21967
G1 X200.53 Y121.426 E.22356
G1 X196.607 Y127.511 E.227
G1 X192.389 Y133.509 E.22991
G1 X187.894 Y139.396 E.23224
G1 X183.14 Y145.149 E.234
G1 X178.144 Y150.746 E.23523
G1 X172.928 Y156.163 E.23578
G1 X167.51 Y161.38 E.23583
G1 X161.914 Y166.375 E.23519
G1 X156.161 Y171.13 E.23402
G1 X150.274 Y175.625 E.23224
G1 X144.276 Y179.842 E.22989
G1 X138.191 Y183.765 E.227
G1 X132.043 Y187.378 E.22359
G1 X125.857 Y190.667 E.21967
G1 X119.658 Y193.619 E.21528
G1 X113.469 Y196.223 E.21053
G1 X107.316 Y198.468 E.20536
G1 X101.223 Y200.345 E.1999
G1 X95.214 Y201.847 E.1942
G1 X89.314 Y202.969 E.18831
G1 X83.545 Y203.705 E.18235
G1 X77.931 Y204.055 E.17636
G1 X72.494 Y204.015 E.17048
G1 X67.255 Y203.588 E.16481
G1 X62.236 Y202.775 E.15942
G1 X57.456 Y201.58 E.15449
G1 X52.933 Y200.008 E.15014
G1 X48.685 Y198.066 E.14645
G1 X44.727 Y195.762 E.14359
G1 X41.076 Y193.104 E.1416
G1 X37.788 Y190.144 E.13871
M204 S1000
;WIPE_START
G1 F8640
G1 X37.743 Y190.104 E-.0139
G1 X35.465 Y187.574 E-.7861
;WIPE_END
G1 Z.6 F720
G1 X97.569 Y128.64 F10800
G1 Z.2 F720
G1 E.8 F2100
M204 S800
;TYPE:Perimeter
G1 F1200
G1 X96.972 Y128.963 E.02128
G1 X96.489 Y129.133 E.01605
G1 X95.777 Y129.26 E.02268
G1 X95.036 Y129.255 E.02323
G1 X94.531 Y129.171 E.01605
G1 X93.846 Y128.94 E.02267
G1 X93.2 Y128.578 E.02322
G1 X92.633 Y128.102 E.02321
G1 X92.165 Y127.528 E.02322
G1 X91.813 Y126.876 E.02323
G1 X91.589 Y126.17 E.02322
G1 X91.502 Y125.435 E.02321
G1 X91.554 Y124.696 E.02323
G1 X91.747 Y123.966 E.02368
G1 X92.064 Y123.312 E.02279
G1 X92.458 Y122.776 E.02086
G1 X93.047 Y122.213 E.02555
G1 X93.472 Y121.929 E.01603
G1 X94.13 Y121.628 E.02269
G1 X94.849 Y121.449 E.02323
G1 X95.355 Y121.405 E.01593
G1 X96.077 Y121.458 E.0227
G1 X96.796 Y121.648 E.02332
G1 X97.554 Y122.024 E.02653
G1 X98.06 Y122.408 E.01992
G1 X98.563 Y122.951 E.02321
G1 X98.955 Y123.579 E.02321
G1 X99.223 Y124.27 E.02324
G1 X99.331 Y124.771 E.01607
G1 X99.372 Y125.274 E.01582
G1 X99.348 Y125.78 E.01588
G1 X99.206 Y126.466 E.02196
G1 X98.929 Y127.153 E.02323
G1 X98.665 Y127.591 E.01603
G1 X98.12 Y128.217 E.02602
G1 X97.623 Y128.611 E.01989
M204 S1000
G1 X97.623 Y128.611 F10800
G1 X97.389 Y128.316
M204 S800
;TYPE:External perimeter
G1 F1200
G1 X96.797 Y128.629 E.021
G1 X96.34 Y128.783 E.01512
G1 X95.715 Y128.889 E.01988
G1 X95.044 Y128.878 E.02104
G1 X94.57 Y128.792 E.0151
G1 X93.967 Y128.583 E.02001
G1 X93.389 Y128.252 E.02088
G1 X92.879 Y127.817 E.02102
G1 X92.46 Y127.293 E.02104
G1 X92.147 Y126.701 E.021
G1 X91.95 Y126.061 E.021
G1 X91.877 Y125.395 E.02101
G1 X91.93 Y124.728 E.02098
G1 X92.108 Y124.076 E.02119
G1 X92.402 Y123.479 E.02087
G1 X92.758 Y123.004 E.01861
G1 X93.299 Y122.493 E.02333
G1 X93.704 Y122.231 E.01512
G1 X94.283 Y121.973 E.01987
G1 X94.935 Y121.816 E.02103
G1 X95.389 Y121.782 E.01427
G1 X96.049 Y121.834 E.02076
G1 X96.694 Y122.011 E.02097
G1 X97.296 Y122.306 E.02102
G1 X97.756 Y122.65 E.01801
G1 X98.282 Y123.204 E.02395
G1 X98.632 Y123.775 E.021
G1 X98.869 Y124.402 E.02102
G1 X98.964 Y124.869 E.01494
G1 X98.995 Y125.315 E.01402
G1 X98.969 Y125.767 E.0142
G1 X98.838 Y126.387 E.01987
G1 X98.581 Y127.006 E.02101
G1 X98.327 Y127.416 E.01512
G1 X97.912 Y127.897 E.01992
G1 X97.436 Y128.278 E.01912
M204 S1000
;WIPE_START
G1 F8640
G1 X97.389 Y128.316 E-.01396
G1 X96.797 Y128.629 E-.15462
G1 X96.34 Y128.783 E-.11135
G1 X95.715 Y128.889 E-.14638
G1 X95.044 Y128.878 E-.15496
G1 X94.57 Y128.792 E-.11123
G1 X94.13 Y128.639 E-.1075
;WIPE_END
G1 Z.6 F720
G1 X201.551 Y17.21 F10800
G1 Z.2 F720
G1 E.8 F2100
M204 S800
;TYPE:Solid infill
;WIDTH:0.420291
G1 F1200
G1 X209.866 Y25.525 E.36899
G1 X211.293 Y27.485 E.07608
G1 X200.362 Y16.554 E.48507
M73 Q0 S296
G1 X199.492 Y15.921 E.03376
G1 X198.781 Y15.507 E.02582
G1 X212.34 Y29.066 E.60169
G1 X213.084 Y30.344 E.0464
G1 X197.503 Y14.763 E.69142
G1 X196.226 Y14.019 E.04638
G1 X213.828 Y31.621 E.78111
G1 X214.194 Y32.25 E.02284
G1 X214.422 Y32.749 E.01721
G1 X195.098 Y13.425 E.85752
G1 X194.115 Y12.975 E.03392
G1 X214.872 Y33.732 E.92111
G1 X215.321 Y34.716 E.03394
G1 X193.131 Y12.526 E.9847
G1 X192.148 Y12.076 E.03392
G1 X215.771 Y35.699 E1.04829
G1 X216.107 Y36.435 E.02539
G1 X216.179 Y36.64 E.00682
G1 X191.207 Y11.668 E1.10816
G1 X190.389 Y11.384 E.02717
G1 X216.463 Y37.458 E1.15706
G1 X216.747 Y38.276 E.02717
G1 X189.571 Y11.1 E1.20596
G1 X188.753 Y10.816 E.02717
G1 X217.031 Y39.094 E1.25486
G1 X217.316 Y39.912 E.02718
G1 X187.935 Y10.531 E1.30381
G1 X187.117 Y10.247 E.02717
G1 X217.6 Y40.73 E1.35271
G1 X217.799 Y41.463 E.02383
G1 X186.384 Y10.048 E1.39407
G1 X185.672 Y9.87 E.02303
G1 X217.977 Y42.175 E1.43356
G1 X218.155 Y42.886 E.023
G1 X184.961 Y9.692 E1.47301
G1 X184.249 Y9.514 E.02303
G1 X218.333 Y43.598 E1.51251
G1 X218.511 Y44.309 E.023
G1 X183.538 Y9.336 E1.55196
G1 X182.826 Y9.158 E.02303
G1 X218.689 Y45.021 E1.59145
G1 X218.854 Y45.72 E.02254
M73 P0 R295
G1 X182.127 Y8.993 E1.6298
G1 X181.49 Y8.889 E.02025
G1 X218.958 Y46.357 E1.66268
G1 X219.061 Y46.994 E.02025
G1 X180.853 Y8.786 E1.69552
G1 X180.216 Y8.683 E.02025
G1 X219.164 Y47.631 E1.72835
G1 X219.267 Y48.268 E.02025
G1 X179.579 Y8.58 E1.76119
G1 X178.943 Y8.477 E.02022
G1 X219.37 Y48.904 E1.79399
G1 X219.473 Y49.541 E.02025
G1 X178.306 Y8.374 E1.82682
G1 X177.669 Y8.271 E.02025
G1 X219.576 Y50.178 E1.85966
G1 X219.659 Y50.794 E.0195
G1 X177.053 Y8.188 E1.89068
G1 X176.472 Y8.141 E.01829
M73 Q0 S295
G1 X219.706 Y51.375 E1.91855
G1 X219.753 Y51.956 E.01829
G1 X175.891 Y8.094 E1.94642
G1 X175.31 Y8.046 E.01829
G1 X219.801 Y52.537 E1.97433
G1 X219.848 Y53.118 E.01829
G1 X174.729 Y7.999 E2.0022
M73 Q1 S295
G1 X174.148 Y7.951 E.01829
M73 P1 R295
G1 X219.896 Y53.699 E2.03011
G1 X219.943 Y54.28 E.01829
G1 X173.567 Y7.904 E2.05798
G1 X172.986 Y7.857 E.01829
G1 X219.99 Y54.861 E2.08585
G1 X220.038 Y55.443 E.01832
G1 X172.404 Y7.809 E2.1138
G1 X171.843 Y7.782 E.01762
G1 X220.065 Y56.004 E2.1399
G1 X220.069 Y56.541 E.01685
G1 X171.306 Y7.778 E2.1639
G1 X170.768 Y7.774 E.01688
G1 X220.073 Y57.079 E2.18796
G1 X220.077 Y57.617 E.01688
M73 P1 R294
G1 X170.23 Y7.77 E2.21201
G1 X169.693 Y7.766 E.01685
G1 X220.081 Y58.154 E2.23601
G1 X220.085 Y58.692 E.01688
G1 X169.155 Y7.762 E2.26007
G1 X168.618 Y7.758 E.01685
G1 X220.089 Y59.229 E2.28407
G1 X220.093 Y59.767 E.01688
G1 X168.08 Y7.754 E2.30813
G1 X167.543 Y7.751 E.01685
G1 X220.097 Y60.304 E2.33211
G1 X220.1 Y60.842 E.01688
M73 Q1 S294
G1 X167.005 Y7.747 E2.35614
G1 X166.483 Y7.758 E.01638
G1 X220.089 Y61.364 E2.37882
